ALTITUDE_LUT.cube
#Generated with IWLTBAP LUT Generator 2.1
#Website: https://luts.iwltbap.com
TITLE "ALTITUDE LUT"
LUT_3D_SIZE 9
0.000000 0.000000 0.003922
0.045098 0.000000 0.000490
0.157843 0.003922 0.003922
0.254412 0.003922 0.003922
0.356863 0.003922 0.003922
0.464706 0.003922 0.009314
0.580392 0.003922 0.015686
0.631373 0.007843 0.027451
0.631373 0.007843 0.031373
0.000000 0.073039 0.003922
0.044240 0.080882 0.003922
0.175123 0.081373 0.007843
0.291667 0.062561 0.009988
0.406373 0.027451 0.013480
0.485784 0.003922 0.011765
0.555392 0.003922 0.012745
0.631373 0.007843 0.031373
0.631373 0.007843 0.031373
0.003922 0.169608 0.003922
0.003922 0.169975 0.003922
0.177206 0.187500 0.010049
0.314216 0.188235 0.011765
0.468627 0.170098 0.014216
0.615074 0.140196 0.054779
0.677696 0.030147 0.048284
0.657721 0.011765 0.033946
0.634314 0.007843 0.031373
0.003922 0.276471 0.003922
0.003922 0.268627 0.003922
0.055637 0.295956 0.007230
0.322978 0.303002 0.015686
0.484069 0.325490 0.015686
0.684252 0.302390 0.080453
0.822059 0.251961 0.144118
0.829718 0.164706 0.162255
0.773529 0.085784 0.121569
0.003922 0.407843 0.003922
0.003922 0.396078 0.003922
0.003922 0.385294 0.003922
0.229902 0.429412 0.014951
0.497059 0.449020 0.015686
0.672059 0.484559 0.069608
0.864216 0.466667 0.163725
0.935294 0.390196 0.227451
0.935294 0.384314 0.225490
0.003922 0.564216 0.003922
0.003922 0.554228 0.003922
0.003922 0.544608 0.003922
0.003922 0.538297 0.003922
0.414706 0.570588 0.015686
0.659252 0.595588 0.055453
0.836765 0.625368 0.133824
0.941176 0.647855 0.222059
0.941176 0.646569 0.222059
0.004902 0.695098 0.014706
0.004044 0.690319 0.010784
0.003922 0.684069 0.006863
0.003922 0.678431 0.005270
0.057353 0.693137 0.005882
0.625858 0.721936 0.055515
0.825245 0.750000 0.161765
0.969730 0.779534 0.257843
0.994118 0.787255 0.277451
0.043137 0.769118 0.086275
0.043137 0.769118 0.086275
0.043137 0.772549 0.086275
0.043137 0.768627 0.086275
0.043137 0.768627 0.086275
0.438725 0.830392 0.074694
0.858946 0.856863 0.226961
0.962255 0.883824 0.300429
1.000000 0.899020 0.341667
0.043137 0.768627 0.086275
0.043137 0.768627 0.086275
0.043137 0.768627 0.086275
0.043137 0.768627 0.086275
0.043137 0.768627 0.086275
0.394118 0.826471 0.067157
0.855882 0.863725 0.230392
0.961765 0.894608 0.302941
1.000000 0.909804 0.345098
0.000000 0.000000 0.096569
0.026471 0.000000 0.097059
0.153799 0.003922 0.070098
0.272549 0.003922 0.065502
0.380392 0.003922 0.089461
0.498223 0.003922 0.123529
0.610294 0.003922 0.090074
0.631373 0.007843 0.031373
0.631373 0.007843 0.031373
0.000000 0.057353 0.089154
0.015135 0.071745 0.100000
0.182904 0.069118 0.100490
0.314131 0.029105 0.069876
0.404381 0.003922 0.037255
0.484229 0.003922 0.032966
0.579412 0.003922 0.025291
0.631373 0.007843 0.031373
0.631373 0.007843 0.031373
0.003922 0.165196 0.084436
0.003922 0.165303 0.043612
0.164093 0.199724 0.071109
0.313909 0.199464 0.065824
0.463909 0.169853 0.060294
0.614706 0.109436 0.079718
0.647794 0.010141 0.032475
0.645956 0.007843 0.030499
0.631373 0.007843 0.031373
0.003922 0.280392 0.005208
0.003922 0.268359 0.003922
0.016192 0.293137 0.005254
0.318137 0.305093 0.016491
0.476961 0.328922 0.040686
0.649326 0.319424 0.079779
0.815717 0.256495 0.141345
0.824778 0.159314 0.160784
0.755699 0.067647 0.106373
0.003922 0.403922 0.003922
0.003922 0.390441 0.003922
0.003922 0.381556 0.003922
0.216912 0.422947 0.014216
0.489216 0.441422 0.015686
0.665441 0.479902 0.068382
0.834804 0.479412 0.154902
0.937255 0.409314 0.225521
0.935294 0.403431 0.227451
0.003922 0.560478 0.003922
0.003922 0.549180 0.003922
0.003922 0.542770 0.003922
0.003922 0.536152 0.003922
0.408333 0.567402 0.015686
0.655331 0.591667 0.055262
0.833027 0.621124 0.132843
0.937561 0.650490 0.218359
0.941176 0.664400 0.219608
0.004902 0.694118 0.014706
0.003922 0.687255 0.010784
0.003922 0.682598 0.006863
0.003922 0.676593 0.005270
0.053983 0.691176 0.005882
0.622074 0.716406 0.053937
0.822672 0.746446 0.158578
0.966284 0.776854 0.257521
0.994118 0.788235 0.277451
0.043137 0.768627 0.086275
0.043137 0.768627 0.086275
0.043137 0.768627 0.086275
0.043137 0.768627 0.086275
0.043137 0.768627 0.086275
0.438748 0.829105 0.074694
0.855392 0.856112 0.226103
0.959252 0.883824 0.300429
1.000000 0.899020 0.341667
0.043137 0.768627 0.086275
0.043137 0.768627 0.086275
0.043137 0.768627 0.086275
0.043137 0.768627 0.086275
0.043137 0.768627 0.086275
0.408333 0.827941 0.068627
0.855882 0.863725 0.230392
0.957843 0.894608 0.302941
1.000000 0.909804 0.345098
0.000000 0.000000 0.197059
0.010784 0.000000 0.212623
0.137500 0.000735 0.174510
0.257475 0.003922 0.147549
0.380882 0.003922 0.146569
0.507843 0.003922 0.175980
0.642157 0.007843 0.206618
0.649510 0.007721 0.145466
0.631373 0.007843 0.031373
0.000000 0.060784 0.172672
0.000429 0.053922 0.211275
0.157016 0.037868 0.216759
0.291988 0.012975 0.177635
0.399510 0.003922 0.165196
0.498897 0.003922 0.164660
0.618689 0.003922 0.180790
0.640916 0.004044 0.100858
0.631373 0.007843 0.031373
0.003922 0.160784 0.196814
0.003922 0.153431 0.182138
0.142647 0.196630 0.227267
0.344118 0.184804 0.208333
0.499755 0.143505 0.189706
0.616207 0.043107 0.165931
0.645037 0.006863 0.128125
0.638480 0.007843 0.045098
0.631373 0.007843 0.031373
0.003922 0.280392 0.200490
0.003922 0.269470 0.155254
0.015411 0.302543 0.150980
0.316115 0.328554 0.166789
0.480270 0.338051 0.167708
0.674648 0.300873 0.182950
0.827819 0.214828 0.194884
0.793091 0.111642 0.137117
0.712132 0.030025 0.071569
0.003922 0.411765 0.121078
0.003922 0.399142 0.045588
0.003922 0.387868 0.014583
0.147304 0.438480 0.048591
0.487255 0.456127 0.091912
0.658946 0.490686 0.129657
0.828309 0.482108 0.165686
0.937255 0.409314 0.225490
0.935294 0.400980 0.225490
0.003922 0.564216 0.007598
0.003922 0.550628 0.003922
0.003922 0.539951 0.003922
0.003922 0.534375 0.003922
0.402328 0.564706 0.015686
0.653722 0.587745 0.053922
0.830484 0.617249 0.129534
0.930469 0.653125 0.211642
0.941176 0.666176 0.219608
0.004902 0.691176 0.010784
0.003922 0.686275 0.007230
0.003922 0.678493 0.005882
0.003922 0.674510 0.004902
0.050490 0.688725 0.005882
0.619730 0.712439 0.050980
0.821140 0.742708 0.156863
0.965717 0.772641 0.253922
0.993382 0.787255 0.277451
0.043137 0.768627 0.086275
0.043137 0.768627 0.086275
0.043137 0.768627 0.086275
0.043137 0.768627 0.086275
0.043137 0.768627 0.086275
0.438848 0.826961 0.071584
0.851501 0.852298 0.222181
0.958441 0.879902 0.296507
1.000000 0.898529 0.341667
0.043137 0.768627 0.086275
0.043137 0.768627 0.086275
0.043137 0.768627 0.086275
0.043137 0.768627 0.086275
0.043137 0.768627 0.086275
0.408333 0.827941 0.068627
0.854902 0.863725 0.230392
0.957843 0.894608 0.302941
1.000000 0.909804 0.345098
0.000000 0.000000 0.300000
0.000000 0.000000 0.311458
0.119118 0.000000 0.301961
0.242647 0.003922 0.255882
0.371324 0.003922 0.235294
0.507843 0.006373 0.242647
0.650980 0.007843 0.256863
0.678248 0.007843 0.239706
0.659804 0.007843 0.183333
0.000000 0.046262 0.294792
0.000000 0.023100 0.323591
0.114170 0.005622 0.336994
0.247059 0.003922 0.271875
0.367157 0.003922 0.229963
0.493819 0.003922 0.225689
0.639216 0.007843 0.245098
0.676693 0.007843 0.233640
0.652451 0.007843 0.158640
0.003922 0.167525 0.281985
0.003922 0.152941 0.273483
0.105392 0.181342 0.373039
0.321308 0.147411 0.352390
0.478002 0.121324 0.324449
0.617647 0.064629 0.322549
0.682200 0.010784 0.283058
0.674326 0.007843 0.224954
0.648039 0.006740 0.132843
0.003922 0.287684 0.322059
0.003922 0.270389 0.298713
0.017525 0.298667 0.322197
0.296921 0.330798 0.351555
0.514001 0.323284 0.332782
0.708356 0.283272 0.329557
0.852313 0.181541 0.307460
0.765127 0.032345 0.213664
0.667463 0.011765 0.057292
0.003922 0.425980 0.337010
0.003922 0.408150 0.294210
0.003922 0.396385 0.248162
0.130637 0.456373 0.270864
0.475858 0.475735 0.284314
0.645803 0.496814 0.295343
0.870098 0.461826 0.308395
0.952941 0.353217 0.302696
0.929412 0.362010 0.228431
0.003922 0.568137 0.284314
0.003922 0.555568 0.214897
0.003922 0.544608 0.153922
0.003922 0.536765 0.131717
0.309283 0.581832 0.155882
0.636849 0.600490 0.193199
0.824020 0.631373 0.223238
0.927083 0.655461 0.220772
0.941176 0.661336 0.219608
0.003922 0.698039 0.185417
0.003922 0.688327 0.111887
0.003922 0.680699 0.048897
0.003922 0.674280 0.028339
0.038725 0.690686 0.013971
0.607353 0.709804 0.063174
0.816667 0.737255 0.151838
0.958655 0.762745 0.246078
0.990196 0.783333 0.272917
0.024020 0.778922 0.159804
0.044340 0.772549 0.093627
0.045588 0.771078 0.086275
0.043137 0.768627 0.086275
0.043137 0.768627 0.082843
0.435179 0.822059 0.066307
0.844776 0.843091 0.212868
0.952535 0.872220 0.289790
1.000000 0.889032 0.337745
0.022549 0.778922 0.166667
0.043137 0.771078 0.089032
0.045588 0.768627 0.086275
0.043137 0.768627 0.086275
0.043137 0.768627 0.086275
0.400490 0.826471 0.068627
0.848407 0.862745 0.226471
0.953922 0.890686 0.299020
1.000000 0.909804 0.345098
0.000000 0.003922 0.417647
0.000000 0.003922 0.423039
0.086765 0.003922 0.439216
0.229412 0.003922 0.395098
0.362745 0.003922 0.361765
0.518627 0.007843 0.356127
0.668627 0.011765 0.348529
0.693873 0.011765 0.323039
0.686275 0.011765 0.288235
0.000000 0.005637 0.412745
0.000000 0.003676 0.409314
0.043811 0.003922 0.431127
0.207353 0.003922 0.391912
0.348039 0.003922 0.351961
0.506219 0.007843 0.344455
0.656863 0.011765 0.335294
0.692157 0.011765 0.317157
0.684314 0.011765 0.280637
0.003922 0.175490 0.408333
0.003922 0.141176 0.425797
0.063358 0.137132 0.508578
0.282230 0.084926 0.496569
0.422794 0.041667 0.431618
0.546078 0.011152 0.375980
0.647917 0.011765 0.327451
0.691789 0.011765 0.311765
0.684314 0.011765 0.278922
0.003922 0.308333 0.427696
0.003922 0.289859 0.403493
0.003922 0.290686 0.420711
0.267188 0.319638 0.536305
0.490196 0.275000 0.498529
0.682782 0.260509 0.479381
0.860417 0.208640 0.473039
0.839185 0.102543 0.418842
0.704167 0.012990 0.286029
0.003922 0.455882 0.479412
0.003922 0.433701 0.453309
0.003922 0.418137 0.433578
0.147426 0.469363 0.480515
0.449510 0.475980 0.483333
0.677574 0.476471 0.469240
0.900490 0.444363 0.465441
0.981985 0.374632 0.434436
0.960784 0.321569 0.384314
0.003922 0.598775 0.502451
0.003922 0.580208 0.466820
0.003922 0.564890 0.429718
0.003922 0.550490 0.386305
0.280147 0.604044 0.401961
0.621078 0.621569 0.415931
0.801348 0.642157 0.427022
0.962990 0.650245 0.419363
0.972549 0.659559 0.356618
0.003922 0.713235 0.452451
0.003922 0.701777 0.399755
0.003922 0.692525 0.347059
0.003922 0.682353 0.300368
0.018137 0.688971 0.285049
0.471507 0.719792 0.295956
0.780025 0.750613 0.346691
0.955453 0.781863 0.393689
1.000000 0.797549 0.334314
0.013971 0.808333 0.445343
0.009804 0.800276 0.389461
0.007843 0.790870 0.333517
0.006127 0.782843 0.289951
0.006250 0.774755 0.259191
0.311612 0.818964 0.208732
0.790748 0.846691 0.256863
0.944608 0.871814 0.304657
1.000000 0.884804 0.344608
0.023529 0.815686 0.480392
0.010049 0.803922 0.410539
0.007843 0.796078 0.361765
0.007843 0.790196 0.317157
0.007843 0.786275 0.276471
0.279167 0.828922 0.201225
0.806863 0.875000 0.250490
0.948284 0.894608 0.302696
1.000000 0.909804 0.341176
0.000000 0.007843 0.539216
0.000000 0.007843 0.539032
0.039216 0.011765 0.571691
0.214706 0.007843 0.568076
0.354902 0.003922 0.509314
0.512316 0.007843 0.492157
0.687255 0.015686 0.484314
0.738542 0.019608 0.465686
0.737255 0.019608 0.442647
0.000000 0.007843 0.525306
0.000000 0.007843 0.527451
0.005147 0.007843 0.555576
0.189706 0.008395 0.564216
0.339216 0.003922 0.506036
0.498468 0.007843 0.484314
0.677987 0.012975 0.476471
0.737745 0.019608 0.457881
0.732537 0.019608 0.428738
0.002941 0.126961 0.564706
0.000000 0.064047 0.558410
0.001379 0.026348 0.579902
0.185662 0.011841 0.589216
0.330760 0.003922 0.509436
0.487868 0.007843 0.481832
0.672181 0.012745 0.473652
0.738235 0.019608 0.455132
0.735172 0.019608 0.432353
0.003922 0.336826 0.552451
0.003922 0.309314 0.560294
0.003922 0.284145 0.578906
0.237171 0.291728 0.703347
0.461029 0.215656 0.669087
0.635256 0.169547 0.611765
0.782215 0.103753 0.554887
0.748223 0.021944 0.454534
0.732353 0.019608 0.429350
0.003922 0.490441 0.597304
0.003922 0.472396 0.572212
0.003922 0.458333 0.559865
0.067862 0.488205 0.610539
0.426471 0.471324 0.682721
0.653922 0.424510 0.638450
0.866912 0.413174 0.618199
0.966330 0.374755 0.599510
0.953922 0.326961 0.576471
0.026471 0.643199 0.650490
0.022549 0.625689 0.630262
0.017387 0.610493 0.612025
0.013235 0.597403 0.596140
0.317494 0.631342 0.628493
0.594439 0.621913 0.615809
0.831143 0.622350 0.601961
1.000000 0.625314 0.595397
1.000000 0.614767 0.572978
0.035294 0.751593 0.650858
0.023897 0.740104 0.624464
0.015319 0.726624 0.595987
0.009314 0.711994 0.564216
0.033150 0.708946 0.533824
0.439645 0.741697 0.532292
0.767678 0.770282 0.565165
0.927941 0.796569 0.592157
0.990319 0.818627 0.566667
0.079718 0.844301 0.660294
0.060784 0.834314 0.622610
0.041222 0.822549 0.576792
0.024816 0.808333 0.535110
0.011765 0.793137 0.490931
0.289522 0.810294 0.464775
0.653018 0.854274 0.500858
0.902305 0.881373 0.543244
0.999510 0.900490 0.577635
0.111765 0.872059 0.702941
0.084620 0.858027 0.646569
0.068137 0.850000 0.615196
0.046017 0.835784 0.563725
0.030392 0.825735 0.517402
0.255882 0.840686 0.479412
0.619118 0.889093 0.499387
0.879412 0.919608 0.512439
0.975000 0.937255 0.521569
0.000000 0.020588 0.625490
0.000000 0.020588 0.625368
0.002941 0.023529 0.668627
0.180270 0.028431 0.717279
0.359804 0.016176 0.703431
0.501471 0.011765 0.639338
0.674510 0.017402 0.616422
0.733333 0.027451 0.603922
0.736275 0.024510 0.597059
0.000000 0.020588 0.624142
0.000000 0.020588 0.621569
0.000000 0.020588 0.641299
0.150965 0.027589 0.709436
0.344608 0.016176 0.700000
0.485861 0.008824 0.631495
0.662745 0.016667 0.611121
0.734023 0.027451 0.600107
0.736275 0.024510 0.593137
0.000000 0.035784 0.631618
0.000000 0.020343 0.621324
0.000000 0.019608 0.621507
0.117923 0.026991 0.700582
0.331005 0.016667 0.701471
0.478370 0.008824 0.631495
0.655515 0.015931 0.610846
0.736275 0.027451 0.600214
0.736275 0.025245 0.597059
0.003922 0.336275 0.709436
0.003922 0.292601 0.713496
0.003922 0.248836 0.709804
0.176271 0.243367 0.833977
0.420343 0.164400 0.841973
0.548438 0.063925 0.720833
0.649632 0.015686 0.611060
0.736275 0.025475 0.596400
0.736275 0.025613 0.594608
0.003922 0.524510 0.703922
0.003922 0.504534 0.702451
0.003922 0.481863 0.706373
0.036458 0.494179 0.759620
0.417892 0.483824 0.877941
0.634130 0.396630 0.835784
0.824020 0.347672 0.768505
0.914400 0.290931 0.743811
0.879412 0.204412 0.718627
0.062745 0.682843 0.769118
0.054902 0.670190 0.753615
0.047059 0.658640 0.736734
0.039216 0.644684 0.727941
0.272855 0.685294 0.794179
0.583134 0.634314 0.822932
0.800061 0.573652 0.764706
0.970772 0.570987 0.749020
0.974632 0.558824 0.742157
0.097794 0.787500 0.772549
0.089338 0.777819 0.761275
0.080821 0.766973 0.749755
0.072917 0.755484 0.738817
0.105270 0.761397 0.742770
0.494730 0.773529 0.756863
0.748713 0.772794 0.751471
0.949387 0.784712 0.745006
1.000000 0.803922 0.742892
0.147917 0.872917 0.794730
0.140089 0.867923 0.780499
0.126134 0.857353 0.762255
0.110830 0.846875 0.741161
0.091667 0.831924 0.712010
0.336275 0.842111 0.689522
0.636275 0.877359 0.699449
0.899403 0.903064 0.719593
0.991176 0.922181 0.749020
0.182353 0.910784 0.818627
0.174510 0.906863 0.806863
0.164461 0.902941 0.792892
0.145588 0.891544 0.762255
0.122549 0.877451 0.725000
0.293137 0.885294 0.690809
0.612745 0.916422 0.695343
0.849020 0.947426 0.700368
0.972549 0.961765 0.722549
0.000000 0.039706 0.671078
0.000000 0.039706 0.671078
0.000000 0.042279 0.684681
0.138235 0.063051 0.774020
0.334559 0.057353 0.816422
0.497365 0.034498 0.786765
0.644485 0.031495 0.725980
0.713725 0.043137 0.711275
0.713725 0.043137 0.711275
0.000000 0.039216 0.670588
0.000000 0.039216 0.670588
0.000000 0.039537 0.671078
0.111091 0.059314 0.764438
0.321078 0.055607 0.814216
0.488197 0.034314 0.786765
0.632460 0.028799 0.723238
0.717157 0.040135 0.706978
0.714154 0.043137 0.711703
0.000000 0.070221 0.688113
0.000000 0.046324 0.674387
0.000000 0.039951 0.670588
0.079151 0.057843 0.752895
0.308027 0.055392 0.810539
0.481863 0.034498 0.786994
0.627941 0.027574 0.722917
0.717157 0.040564 0.707093
0.713725 0.043137 0.714706
0.006863 0.353922 0.796752
0.004228 0.323529 0.792670
0.003922 0.293091 0.785064
0.147549 0.295535 0.887002
0.396078 0.222641 0.941115
0.535968 0.097855 0.858341
0.616912 0.024877 0.722212
0.717157 0.039706 0.704412
0.715012 0.043137 0.712255
0.036275 0.563235 0.815196
0.034069 0.542157 0.820833
0.032108 0.521078 0.822794
0.056710 0.518627 0.850429
0.402941 0.519730 0.999142
0.632353 0.436673 0.998713
0.799020 0.338113 0.903799
0.885539 0.266176 0.861979
0.829657 0.173775 0.819608
0.097549 0.713725 0.837439
0.091751 0.702451 0.833824
0.086596 0.690594 0.834130
0.082238 0.674510 0.836458
0.270588 0.721324 0.932261
0.598706 0.677451 0.982912
0.787745 0.575506 0.924648
0.936520 0.535723 0.871875
0.946569 0.516176 0.874203
0.142770 0.814706 0.847672
0.138741 0.808548 0.841391
0.131955 0.800245 0.833241
0.125352 0.791667 0.828431
0.119056 0.779902 0.824020
0.493015 0.832981 0.902451
0.745588 0.791789 0.924755
0.922227 0.742647 0.880224
0.997059 0.747917 0.879902
0.185294 0.888174 0.855882
0.181863 0.887370 0.851961
0.174877 0.880009 0.844608
0.166176 0.871752 0.836726
0.156127 0.860080 0.828431
0.434720 0.903431 0.871569
0.688771 0.908701 0.879090
0.887860 0.906924 0.875490
0.990748 0.918627 0.875490
0.212255 0.925490 0.871078
0.212255 0.925490 0.871078
0.208333 0.921569 0.867157
0.197855 0.911581 0.855576
0.186765 0.902206 0.844118
0.401471 0.941667 0.872059
0.662255 0.946936 0.868627
0.857353 0.969547 0.868137
0.973039 0.980392 0.868627
0.000000 0.043137 0.682353
0.000000 0.043137 0.682353
0.000000 0.043137 0.685294
0.094118 0.069118 0.770588
0.307843 0.070588 0.829412
0.484314 0.057353 0.828431
0.624510 0.039216 0.763725
0.705882 0.050980 0.745098
0.705882 0.050980 0.745098
0.000000 0.072059 0.700490
0.000000 0.064706 0.697059
0.000000 0.050000 0.690564
0.074326 0.066483 0.764032
0.298039 0.070588 0.829412
0.477941 0.057353 0.829902
0.615686 0.039216 0.767647
0.705882 0.050980 0.745098
0.705882 0.050980 0.745588
0.003922 0.276471 0.797059
0.003922 0.269118 0.793137
0.003922 0.257843 0.789216
0.160172 0.243260 0.881863
0.380392 0.164216 0.917157
0.488113 0.066054 0.842892
0.611765 0.039216 0.770588
0.705882 0.050980 0.746078
0.705882 0.050980 0.746078
0.033824 0.450000 0.848039
0.032353 0.443627 0.848039
0.028799 0.431863 0.844118
0.148529 0.457843 0.927512
0.430637 0.403431 1.000000
0.627941 0.298529 0.998897
0.739338 0.170711 0.877083
0.705882 0.050980 0.747243
0.705882 0.050980 0.746569
0.082353 0.611765 0.872549
0.078431 0.602206 0.872549
0.074510 0.590686 0.872549
0.086765 0.588235 0.882353
0.411765 0.610784 1.000000
0.646078 0.541176 1.000000
0.810294 0.421078 0.981373
0.907353 0.339706 0.917402
0.878431 0.270588 0.896078
0.132353 0.741667 0.886275
0.132353 0.735294 0.890196
0.130882 0.727451 0.890196
0.125429 0.715686 0.890196
0.309559 0.763235 0.989951
0.619118 0.737745 1.000000
0.802819 0.633824 1.000000
0.927267 0.560968 0.938542
0.946569 0.535784 0.933333
0.169608 0.837255 0.882353
0.169608 0.834314 0.879779
0.165686 0.830392 0.881373
0.161765 0.819730 0.881373
0.160784 0.809804 0.884804
0.532353 0.875980 0.983824
0.769608 0.834314 0.999020
0.919485 0.753431 0.957230
0.993137 0.746078 0.941176
0.204412 0.902941 0.886275
0.204412 0.902941 0.882353
0.200490 0.895956 0.878922
0.192647 0.888725 0.874510
0.184804 0.879412 0.868873
0.401777 0.931679 0.925184
0.692525 0.942157 0.945466
0.887745 0.918199 0.955944
0.979902 0.900000 0.941176
0.223529 0.933333 0.890196
0.223529 0.933333 0.886765
0.220588 0.929412 0.886275
0.213235 0.921569 0.879902
0.203922 0.911765 0.874510
0.450490 0.964706 0.925490
0.703922 0.976471 0.938235
0.872549 0.976961 0.945098
0.968627 0.976471 0.945098
