ALTITUDE_LUT.cube
#Generated with IWLTBAP LUT Generator 2.1
#Website: https://luts.iwltbap.com
TITLE "ALTITUDE LUT"
LUT_3D_SIZE 5
0.000000 0.000000 0.003922
0.157843 0.003922 0.003922
0.356863 0.003922 0.003922
0.580392 0.003922 0.015686
0.631373 0.007843 0.031373
0.003922 0.169608 0.003922
0.177206 0.187500 0.010049
0.468627 0.170098 0.014216
0.677696 0.030147 0.048284
0.634314 0.007843 0.031373
0.003922 0.407843 0.003922
0.003922 0.385294 0.003922
0.497059 0.449020 0.015686
0.864216 0.466667 0.163725
0.935294 0.384314 0.225490
0.004902 0.695098 0.014706
0.003922 0.684069 0.006863
0.057353 0.693137 0.005882
0.825245 0.750000 0.161765
0.994118 0.787255 0.277451
0.043137 0.768627 0.086275
0.043137 0.768627 0.086275
0.043137 0.768627 0.086275
0.855882 0.863725 0.230392
1.000000 0.909804 0.345098
0.000000 0.000000 0.197059
0.137500 0.000735 0.174510
0.380882 0.003922 0.146569
0.642157 0.007843 0.206618
0.631373 0.007843 0.031373
0.003922 0.160784 0.196814
0.142647 0.196630 0.227267
0.499755 0.143505 0.189706
0.645037 0.006863 0.128125
0.631373 0.007843 0.031373
0.003922 0.411765 0.121078
0.003922 0.387868 0.014583
0.487255 0.456127 0.091912
0.828309 0.482108 0.165686
0.935294 0.400980 0.225490
0.004902 0.691176 0.010784
0.003922 0.678493 0.005882
0.050490 0.688725 0.005882
0.821140 0.742708 0.156863
0.993382 0.787255 0.277451
0.043137 0.768627 0.086275
0.043137 0.768627 0.086275
0.043137 0.768627 0.086275
0.854902 0.863725 0.230392
1.000000 0.909804 0.345098
0.000000 0.003922 0.417647
0.086765 0.003922 0.439216
0.362745 0.003922 0.361765
0.668627 0.011765 0.348529
0.686275 0.011765 0.288235
0.003922 0.175490 0.408333
0.063358 0.137132 0.508578
0.422794 0.041667 0.431618
0.647917 0.011765 0.327451
0.684314 0.011765 0.278922
0.003922 0.455882 0.479412
0.003922 0.418137 0.433578
0.449510 0.475980 0.483333
0.900490 0.444363 0.465441
0.960784 0.321569 0.384314
0.003922 0.713235 0.452451
0.003922 0.692525 0.347059
0.018137 0.688971 0.285049
0.780025 0.750613 0.346691
1.000000 0.797549 0.334314
0.023529 0.815686 0.480392
0.007843 0.796078 0.361765
0.007843 0.786275 0.276471
0.806863 0.875000 0.250490
1.000000 0.909804 0.341176
0.000000 0.020588 0.625490
0.002941 0.023529 0.668627
0.359804 0.016176 0.703431
0.674510 0.017402 0.616422
0.736275 0.024510 0.597059
0.000000 0.035784 0.631618
0.000000 0.019608 0.621507
0.331005 0.016667 0.701471
0.655515 0.015931 0.610846
0.736275 0.025245 0.597059
0.003922 0.524510 0.703922
0.003922 0.481863 0.706373
0.417892 0.483824 0.877941
0.824020 0.347672 0.768505
0.879412 0.204412 0.718627
0.097794 0.787500 0.772549
0.080821 0.766973 0.749755
0.105270 0.761397 0.742770
0.748713 0.772794 0.751471
1.000000 0.803922 0.742892
0.182353 0.910784 0.818627
0.164461 0.902941 0.792892
0.122549 0.877451 0.725000
0.612745 0.916422 0.695343
0.972549 0.961765 0.722549
0.000000 0.043137 0.682353
0.000000 0.043137 0.685294
0.307843 0.070588 0.829412
0.624510 0.039216 0.763725
0.705882 0.050980 0.745098
0.003922 0.276471 0.797059
0.003922 0.257843 0.789216
0.380392 0.164216 0.917157
0.611765 0.039216 0.770588
0.705882 0.050980 0.746078
0.082353 0.611765 0.872549
0.074510 0.590686 0.872549
0.411765 0.610784 1.000000
0.810294 0.421078 0.981373
0.878431 0.270588 0.896078
0.169608 0.837255 0.882353
0.165686 0.830392 0.881373
0.160784 0.809804 0.884804
0.769608 0.834314 0.999020
0.993137 0.746078 0.941176
0.223529 0.933333 0.890196
0.220588 0.929412 0.886275
0.203922 0.911765 0.874510
0.703922 0.976471 0.938235
0.968627 0.976471 0.945098
