ALTITUDE_LUT.cube
#Generated with IWLTBAP LUT Generator 2.1
#Website: https://luts.iwltbap.com
TITLE "ALTITUDE LUT"
LUT_3D_SIZE 33
0.000000 0.000000 0.003922
0.000000 0.000000 0.003922
0.003676 0.000000 0.003922
0.018873 0.000000 0.003922
0.045098 0.000000 0.000490
0.075980 0.000000 0.000000
0.107598 0.000000 0.000000
0.134681 0.000000 0.000000
0.157843 0.003922 0.003922
0.181005 0.003922 0.003922
0.204167 0.003922 0.003922
0.227328 0.003922 0.003922
0.254412 0.003922 0.003922
0.277574 0.003922 0.003922
0.302941 0.003922 0.003922
0.327819 0.003922 0.003922
0.356863 0.003922 0.003922
0.383824 0.003922 0.005760
0.410784 0.003922 0.007843
0.440074 0.003922 0.007843
0.464706 0.003922 0.009314
0.494240 0.003922 0.011765
0.525245 0.003922 0.011765
0.553431 0.003922 0.012868
0.580392 0.003922 0.015686
0.606495 0.003922 0.019608
0.628186 0.004657 0.028186
0.631373 0.007843 0.027451
0.631373 0.007843 0.027451
0.631373 0.007843 0.027451
0.631373 0.007843 0.027451
0.631373 0.007843 0.031373
0.631373 0.007843 0.031373
0.000000 0.011642 0.000123
0.000000 0.011642 0.003803
0.003676 0.015204 0.003922
0.018761 0.015441 0.003922
0.037623 0.019363 0.003922
0.064809 0.019240 0.003818
0.099020 0.015441 0.003922
0.125980 0.012351 0.003922
0.153799 0.008640 0.003922
0.179814 0.004990 0.003922
0.204044 0.003922 0.003922
0.227206 0.003922 0.003922
0.254167 0.003922 0.003922
0.277328 0.003922 0.003922
0.300490 0.003922 0.003922
0.319853 0.003922 0.003922
0.344975 0.003922 0.003922
0.370221 0.003922 0.005760
0.393436 0.003922 0.007843
0.416667 0.003922 0.007843
0.443796 0.003922 0.007843
0.470956 0.003922 0.009272
0.499265 0.003922 0.011765
0.530113 0.003922 0.011765
0.557108 0.003922 0.015686
0.587037 0.003922 0.016544
0.610271 0.003922 0.020366
0.628167 0.007843 0.028167
0.631373 0.007843 0.031357
0.631373 0.007843 0.027451
0.631373 0.007843 0.027696
0.631373 0.007843 0.031373
0.631373 0.007843 0.031373
0.000000 0.026961 0.000000
0.000000 0.026961 0.000000
0.000230 0.030637 0.003676
0.018528 0.034214 0.003922
0.044884 0.034773 0.007169
0.071814 0.034804 0.003922
0.103631 0.034605 0.003922
0.133578 0.030691 0.003922
0.160539 0.027880 0.003922
0.187500 0.023897 0.003922
0.214292 0.020098 0.003922
0.238848 0.012623 0.003922
0.265686 0.008977 0.003922
0.288848 0.003922 0.003922
0.312010 0.003922 0.003922
0.335172 0.003922 0.003922
0.360172 0.003922 0.003922
0.381495 0.003922 0.007713
0.400980 0.003922 0.007843
0.422649 0.003922 0.007843
0.443627 0.003922 0.007843
0.468137 0.003922 0.009191
0.493949 0.003922 0.011765
0.522235 0.003922 0.011765
0.549265 0.003922 0.012745
0.579289 0.003922 0.015740
0.606327 0.003922 0.020343
0.628064 0.004741 0.028064
0.631373 0.007843 0.031373
0.631373 0.007843 0.031127
0.631373 0.007843 0.031143
0.631373 0.007843 0.031373
0.631373 0.007843 0.031373
0.000000 0.049877 0.003554
0.000000 0.046078 0.003554
0.000000 0.049655 0.003922
0.014917 0.053799 0.003922
0.045098 0.057721 0.003922
0.075670 0.057721 0.007533
0.109750 0.057721 0.003922
0.141299 0.057353 0.003922
0.169148 0.053523 0.003922
0.196324 0.050613 0.006476
0.223407 0.043145 0.007843
0.252822 0.039093 0.007843
0.279795 0.031740 0.007843
0.307843 0.024020 0.007843
0.331005 0.016299 0.007843
0.354167 0.009141 0.007843
0.379473 0.003922 0.007843
0.404412 0.003922 0.007843
0.425490 0.003922 0.007843
0.441299 0.003922 0.007843
0.457108 0.003922 0.007843
0.476597 0.003922 0.011523
0.497426 0.003922 0.011765
0.524510 0.003922 0.011765
0.548039 0.003922 0.012745
0.575203 0.003922 0.015686
0.602206 0.003922 0.019608
0.625065 0.004534 0.028064
0.631373 0.007843 0.031373
0.631373 0.007843 0.031373
0.631373 0.007843 0.031373
0.631373 0.007843 0.031373
0.631373 0.007843 0.031373
0.000000 0.073039 0.003922
0.000000 0.072564 0.003922
0.000000 0.072794 0.003922
0.003998 0.080147 0.003922
0.044240 0.080882 0.003922
0.075904 0.084727 0.007230
0.110784 0.084804 0.007843
0.141667 0.084421 0.007353
0.175123 0.081373 0.007843
0.206863 0.077926 0.007843
0.234896 0.073775 0.007843
0.264384 0.069975 0.007843
0.291667 0.062561 0.009988
0.322059 0.058165 0.011765
0.350521 0.050245 0.011765
0.377328 0.038833 0.011765
0.406373 0.027451 0.013480
0.432874 0.016299 0.013358
0.454167 0.005852 0.011275
0.471814 0.003922 0.011275
0.485784 0.003922 0.011765
0.497595 0.003922 0.011765
0.511275 0.003922 0.011765
0.531740 0.003922 0.011765
0.555392 0.003922 0.012745
0.578554 0.003922 0.015686
0.598376 0.003922 0.019608
0.624219 0.004948 0.025169
0.631373 0.007843 0.031373
0.631373 0.007843 0.031373
0.631373 0.007843 0.031373
0.631373 0.007843 0.031373
0.631373 0.007843 0.031373
0.000000 0.096201 0.000613
0.000000 0.092996 0.003922
0.000000 0.092279 0.003922
0.000555 0.099445 0.003922
0.029657 0.107475 0.003922
0.078868 0.107966 0.003922
0.111282 0.107966 0.007223
0.144975 0.107966 0.007843
0.172549 0.107966 0.007843
0.207353 0.104975 0.007843
0.241965 0.103431 0.007843
0.272426 0.097338 0.007843
0.302926 0.093137 0.010294
0.333578 0.087994 0.011765
0.362600 0.083747 0.013626
0.391709 0.077206 0.015686
0.424265 0.067218 0.015686
0.456495 0.053634 0.018995
0.485049 0.038771 0.018995
0.507962 0.021814 0.018746
0.523514 0.008058 0.015074
0.532755 0.003922 0.011765
0.539530 0.003922 0.011765
0.548947 0.003922 0.012695
0.563113 0.003922 0.015686
0.586275 0.003922 0.016410
0.608203 0.003922 0.019608
0.624659 0.007326 0.024142
0.631373 0.007843 0.031373
0.631373 0.007843 0.031373
0.631373 0.007843 0.030760
0.631373 0.007843 0.027451
0.631373 0.007843 0.027451
0.003922 0.123284 0.003922
0.003922 0.119485 0.003922
0.003922 0.116376 0.003922
0.003922 0.119730 0.003922
0.008640 0.131281 0.003922
0.070703 0.135049 0.006610
0.114706 0.135049 0.007843
0.144730 0.137538 0.007843
0.176471 0.135049 0.007843
0.207353 0.135945 0.007843
0.240931 0.134544 0.007843
0.276961 0.130645 0.011029
0.313756 0.126471 0.011029
0.345833 0.120221 0.011765
0.375980 0.116835 0.012178
0.406863 0.114315 0.015686
0.440074 0.108456 0.017647
0.476471 0.098529 0.019608
0.508747 0.087010 0.023116
0.541123 0.070535 0.026716
0.565901 0.048070 0.026440
0.581250 0.022809 0.022541
0.587745 0.006112 0.018873
0.589377 0.003922 0.018873
0.592770 0.003922 0.018873
0.600245 0.003922 0.019033
0.616422 0.004657 0.020343
0.635172 0.007843 0.026831
0.638082 0.007843 0.027543
0.634260 0.007843 0.028485
0.631373 0.007843 0.031373
0.631373 0.007843 0.031373
0.631373 0.007843 0.031373
0.003922 0.146446 0.003922
0.003922 0.142647 0.003922
0.003922 0.138848 0.003922
0.003922 0.142157 0.003922
0.003922 0.150628 0.003922
0.038335 0.161520 0.003922
0.116169 0.161275 0.007843
0.145588 0.162132 0.007843
0.179412 0.162132 0.007843
0.211275 0.162132 0.010045
0.242157 0.162132 0.011765
0.275613 0.161275 0.011765
0.314216 0.156817 0.011765
0.352309 0.151103 0.011765
0.388358 0.147304 0.011765
0.419240 0.141667 0.014250
0.453615 0.139706 0.017647
0.489828 0.135049 0.019608
0.524510 0.125613 0.025245
0.560662 0.113745 0.036029
0.595144 0.096324 0.042570
0.619926 0.070956 0.044190
0.634069 0.040342 0.039070
0.633207 0.014208 0.028795
0.631005 0.006985 0.025735
0.627941 0.006985 0.022859
0.630392 0.007843 0.024104
0.642892 0.007843 0.027451
0.646201 0.007843 0.030132
0.641912 0.007843 0.027451
0.638113 0.007843 0.027505
0.631373 0.007843 0.028405
0.631373 0.007843 0.031373
0.003922 0.169608 0.003922
0.003922 0.169608 0.003922
0.003922 0.165686 0.003922
0.003922 0.164706 0.003922
0.003922 0.169975 0.003922
0.010539 0.184069 0.003922
0.090319 0.188419 0.007843
0.148100 0.185938 0.007843
0.177206 0.187500 0.010049
0.214093 0.188940 0.011765
0.248100 0.188909 0.011765
0.279902 0.188572 0.011765
0.314216 0.188235 0.011765
0.355147 0.185509 0.011765
0.394792 0.181127 0.011765
0.432445 0.175950 0.011765
0.468627 0.170098 0.014216
0.503891 0.166789 0.020987
0.539951 0.162010 0.029902
0.578554 0.153891 0.041422
0.615074 0.140196 0.054779
0.649173 0.119485 0.062132
0.673958 0.094118 0.067341
0.684038 0.062255 0.061366
0.677696 0.030147 0.048284
0.667984 0.014062 0.037255
0.661213 0.010784 0.034314
0.656863 0.010937 0.034314
0.657721 0.011765 0.033946
0.653554 0.010784 0.031281
0.645833 0.007843 0.027451
0.641085 0.007843 0.027451
0.634314 0.007843 0.031373
0.003922 0.196691 0.003922
0.003922 0.192892 0.003922
0.003922 0.191736 0.003922
0.003922 0.188848 0.003922
0.003922 0.189813 0.003922
0.003922 0.200931 0.003922
0.046645 0.215035 0.007108
0.131235 0.215196 0.007843
0.182506 0.212377 0.011765
0.208938 0.214403 0.011765
0.248775 0.215196 0.011765
0.286654 0.215920 0.011765
0.318505 0.218061 0.011765
0.352819 0.219118 0.011765
0.394110 0.216429 0.011765
0.437282 0.212010 0.011765
0.479289 0.208211 0.012316
0.520711 0.200490 0.020860
0.558211 0.195106 0.033701
0.595669 0.189625 0.049142
0.632598 0.180836 0.063113
0.670822 0.165809 0.074031
0.703209 0.146224 0.084949
0.722974 0.121201 0.090809
0.730362 0.091054 0.089154
0.718256 0.053175 0.076222
0.699632 0.024510 0.058127
0.688163 0.018505 0.047231
0.678554 0.017050 0.041896
0.670569 0.014319 0.037745
0.660294 0.011765 0.034191
0.652608 0.010662 0.031338
0.648775 0.007843 0.030270
0.003922 0.222549 0.003922
0.003922 0.219937 0.003922
0.003922 0.216100 0.003922
0.003922 0.214821 0.003922
0.003922 0.212010 0.003922
0.003922 0.220274 0.003922
0.008900 0.235064 0.003922
0.083969 0.243382 0.007843
0.170282 0.239216 0.011765
0.215074 0.239116 0.011765
0.245695 0.241314 0.011765
0.286451 0.242961 0.011765
0.325214 0.245067 0.013450
0.359436 0.248905 0.015188
0.394807 0.251517 0.015686
0.434597 0.252045 0.015686
0.482966 0.246814 0.015074
0.530798 0.241789 0.022710
0.573238 0.232889 0.037500
0.613358 0.224150 0.052941
0.651961 0.216697 0.068382
0.689338 0.207790 0.083402
0.726716 0.192892 0.094960
0.752229 0.174410 0.105637
0.769301 0.151654 0.114951
0.772771 0.122794 0.116399
0.760309 0.086029 0.107368
0.734873 0.045672 0.087814
0.717310 0.031281 0.070251
0.702941 0.024632 0.057475
0.691422 0.020833 0.047135
0.673407 0.014461 0.040602
0.666912 0.011765 0.036765
0.003922 0.249510 0.003922
0.003922 0.247017 0.003922
0.003922 0.243176 0.003922
0.003922 0.241793 0.003922
0.003922 0.239093 0.003922
0.003922 0.239093 0.003922
0.003922 0.251218 0.003922
0.028255 0.265123 0.006985
0.122518 0.272396 0.010784
0.208490 0.269118 0.011765
0.249877 0.268313 0.011765
0.283456 0.270466 0.013454
0.325980 0.273039 0.015686
0.367705 0.275915 0.015686
0.402206 0.281641 0.015686
0.436520 0.286887 0.015686
0.481066 0.290625 0.015686
0.532598 0.286746 0.027206
0.581495 0.280392 0.041299
0.627271 0.266356 0.059134
0.672289 0.251961 0.076103
0.709926 0.245125 0.091544
0.745956 0.234750 0.104833
0.775735 0.221078 0.118126
0.798560 0.205300 0.131618
0.810857 0.183774 0.141912
0.814453 0.157475 0.147296
0.796358 0.120500 0.139093
0.775291 0.085999 0.122917
0.757108 0.067896 0.107475
0.737745 0.048820 0.090525
0.719730 0.033663 0.074062
0.705637 0.027328 0.059926
0.003922 0.276471 0.003922
0.003922 0.276517 0.003922
0.003922 0.272641 0.003922
0.003922 0.268765 0.003922
0.003922 0.268627 0.003922
0.003922 0.264706 0.003922
0.003922 0.269363 0.003922
0.003922 0.282154 0.003922
0.055637 0.295956 0.007230
0.162132 0.300414 0.011765
0.248407 0.296844 0.013450
0.287255 0.299157 0.015686
0.322978 0.303002 0.015686
0.369378 0.304795 0.015686
0.410202 0.310049 0.015686
0.447381 0.317770 0.015686
0.484069 0.325490 0.015686
0.529366 0.329902 0.025123
0.579259 0.326716 0.044363
0.634084 0.318398 0.064461
0.684252 0.302390 0.080453
0.730132 0.283104 0.100107
0.765656 0.273775 0.117157
0.797135 0.265640 0.130147
0.822059 0.251961 0.144118
0.840119 0.238971 0.158701
0.849479 0.219332 0.168873
0.843643 0.190089 0.171216
0.829718 0.164706 0.162255
0.817984 0.148897 0.154396
0.803431 0.128186 0.143873
0.786520 0.103554 0.133088
0.773529 0.085784 0.121569
0.003922 0.307353 0.003922
0.003922 0.305097 0.003922
0.003922 0.303431 0.003922
0.003922 0.299510 0.003922
0.003922 0.295787 0.003922
0.003922 0.295588 0.003922
0.003922 0.292961 0.003922
0.003922 0.301490 0.003922
0.007506 0.313082 0.005116
0.092850 0.327451 0.010662
0.205530 0.329787 0.012860
0.288097 0.326961 0.015686
0.325858 0.330009 0.015686
0.366912 0.334804 0.015686
0.413235 0.338725 0.015686
0.454791 0.344730 0.015686
0.493689 0.354412 0.015686
0.533088 0.365185 0.020110
0.575697 0.371729 0.043053
0.627049 0.368593 0.066877
0.684804 0.358456 0.085294
0.737500 0.339526 0.104159
0.783333 0.315579 0.126348
0.818585 0.302328 0.144118
0.843474 0.294210 0.158977
0.863603 0.284946 0.171078
0.878309 0.273652 0.185784
0.876712 0.250119 0.188971
0.867938 0.233624 0.186887
0.862255 0.220439 0.183088
0.854435 0.207108 0.179289
0.845171 0.190074 0.173897
0.835907 0.178554 0.168505
0.003922 0.338235 0.003922
0.003922 0.334436 0.003922
0.003922 0.330637 0.003922
0.003922 0.330392 0.003922
0.003922 0.326471 0.003922
0.003922 0.324609 0.003922
0.003922 0.322549 0.003922
0.003922 0.320343 0.003922
0.003922 0.332414 0.003922
0.021890 0.346821 0.005155
0.136167 0.360539 0.011075
0.255714 0.360639 0.014928
0.333548 0.358915 0.015686
0.368382 0.364093 0.015686
0.409314 0.369608 0.015686
0.454465 0.375613 0.015686
0.503064 0.384191 0.015686
0.543926 0.395780 0.019363
0.579412 0.406618 0.036305
0.621324 0.411926 0.062293
0.675398 0.407843 0.086765
0.733479 0.397059 0.107453
0.787745 0.378830 0.125781
0.833104 0.351325 0.151846
0.864461 0.331618 0.171078
0.885041 0.324272 0.186520
0.901471 0.317969 0.197626
0.900467 0.302206 0.204412
0.896814 0.289461 0.201991
0.894730 0.283946 0.200490
0.890931 0.276118 0.196569
0.883333 0.264530 0.196515
0.881618 0.257353 0.194853
0.003922 0.369118 0.003922
0.003922 0.367402 0.003922
0.003922 0.365196 0.003922
0.003922 0.361470 0.003922
0.003922 0.359436 0.003922
0.003922 0.357353 0.003922
0.003922 0.353822 0.003922
0.003922 0.351995 0.003922
0.003922 0.353830 0.003922
0.003922 0.365345 0.003922
0.050184 0.383540 0.008456
0.184333 0.391931 0.012971
0.304764 0.394730 0.015686
0.378332 0.394975 0.015686
0.410907 0.402696 0.015686
0.450609 0.406495 0.015686
0.499877 0.415257 0.015686
0.551344 0.425858 0.021446
0.590250 0.435294 0.034804
0.625735 0.445221 0.053676
0.667647 0.452252 0.079458
0.721710 0.449736 0.107211
0.780308 0.437500 0.127941
0.831985 0.421787 0.147821
0.874510 0.395925 0.171844
0.904779 0.369466 0.198250
0.920320 0.354779 0.212745
0.921814 0.343137 0.216219
0.917892 0.337730 0.215931
0.917720 0.333896 0.215931
0.915924 0.329902 0.215686
0.912132 0.324265 0.212010
0.912132 0.320466 0.212010
0.003922 0.407843 0.003922
0.003922 0.407843 0.003922
0.003922 0.403922 0.003922
0.003922 0.398223 0.003922
0.003922 0.396078 0.003922
0.003922 0.394424 0.003922
0.003922 0.392157 0.003922
0.003922 0.388235 0.003922
0.003922 0.385294 0.003922
0.003922 0.390502 0.003922
0.005270 0.404044 0.003922
0.088113 0.420159 0.008456
0.229902 0.429412 0.014951
0.350245 0.431373 0.015686
0.419975 0.434436 0.015686
0.455392 0.439338 0.015686
0.497059 0.449020 0.015686
0.549203 0.458701 0.020282
0.594608 0.466422 0.038725
0.633456 0.474939 0.053370
0.672059 0.484559 0.069608
0.710723 0.492157 0.093627
0.761520 0.488971 0.121324
0.816973 0.480147 0.145895
0.864216 0.466667 0.163725
0.905392 0.450368 0.187316
0.932475 0.424510 0.213603
0.936949 0.395159 0.225797
0.935294 0.390196 0.227451
0.935294 0.390012 0.227451
0.935294 0.388113 0.227328
0.935294 0.386152 0.225490
0.935294 0.384314 0.225490
0.003922 0.448407 0.003922
0.003922 0.448407 0.003922
0.003922 0.444485 0.003922
0.003922 0.438676 0.003922
0.003922 0.436642 0.003922
0.003922 0.433046 0.003922
0.003922 0.431227 0.003922
0.003922 0.428799 0.003922
0.003922 0.425858 0.003922
0.003922 0.424877 0.003922
0.003922 0.429864 0.003922
0.010758 0.442666 0.005289
0.129626 0.460095 0.011075
0.274609 0.467268 0.014939
0.393421 0.470098 0.015686
0.461512 0.473043 0.015686
0.497917 0.479902 0.015686
0.541418 0.487623 0.017525
0.589652 0.496515 0.034681
0.638247 0.505147 0.054167
0.677941 0.512868 0.066835
0.714461 0.520588 0.081844
0.751877 0.527658 0.103186
0.795684 0.530174 0.133552
0.844485 0.521691 0.159988
0.891211 0.513113 0.182108
0.926203 0.501938 0.201471
0.941176 0.484111 0.214174
0.941176 0.479044 0.216161
0.941349 0.481127 0.217770
0.943015 0.479044 0.217770
0.943015 0.478979 0.217770
0.941176 0.479044 0.217770
0.003922 0.487010 0.003922
0.003922 0.487063 0.003922
0.003922 0.483195 0.003922
0.003922 0.479167 0.003922
0.003922 0.475460 0.003922
0.003922 0.473384 0.003922
0.003922 0.471324 0.003922
0.003922 0.469118 0.003922
0.003922 0.465748 0.003922
0.003922 0.463480 0.003922
0.003922 0.460095 0.003922
0.003922 0.470244 0.003922
0.033854 0.484559 0.006373
0.180630 0.496775 0.013074
0.322518 0.503186 0.015686
0.436489 0.504902 0.015686
0.505882 0.510784 0.015686
0.542402 0.516789 0.015686
0.581127 0.525475 0.029167
0.631373 0.532230 0.050123
0.677696 0.538572 0.068781
0.721055 0.546224 0.081127
0.755637 0.555392 0.096569
0.791062 0.562492 0.114223
0.830637 0.565441 0.145588
0.871929 0.562753 0.175613
0.913971 0.556373 0.198284
0.943650 0.546791 0.215954
0.945098 0.545067 0.217402
0.945098 0.541422 0.217402
0.945098 0.541667 0.217402
0.945098 0.545343 0.217402
0.945098 0.549265 0.217402
0.003922 0.525613 0.003922
0.003922 0.525735 0.003922
0.003922 0.521936 0.003922
0.003922 0.518137 0.003922
0.003922 0.514338 0.003922
0.003922 0.513848 0.003922
0.003922 0.509926 0.003922
0.003922 0.509926 0.003922
0.003922 0.506005 0.003922
0.003922 0.503186 0.003922
0.003922 0.502083 0.003922
0.003922 0.499690 0.003922
0.003922 0.511642 0.003922
0.071075 0.524755 0.008578
0.228347 0.533172 0.013074
0.365675 0.537021 0.015686
0.482169 0.539706 0.015686
0.548430 0.544719 0.015686
0.582024 0.551593 0.022143
0.619730 0.560260 0.042402
0.669975 0.567034 0.063097
0.720221 0.572426 0.083203
0.762990 0.580147 0.096569
0.798162 0.590196 0.112458
0.829044 0.598315 0.130208
0.861010 0.602799 0.157108
0.895902 0.604343 0.187990
0.935543 0.601352 0.217532
0.945098 0.597794 0.223529
0.947426 0.597576 0.223679
0.947426 0.595466 0.225123
0.947426 0.597794 0.225073
0.947426 0.599387 0.223529
0.003922 0.564216 0.003922
0.003922 0.564216 0.003922
0.003922 0.560539 0.003922
0.003922 0.556740 0.003922
0.003922 0.554228 0.003922
0.003922 0.552451 0.003922
0.003922 0.549265 0.003922
0.003922 0.548529 0.003922
0.003922 0.544608 0.003922
0.003922 0.542846 0.003922
0.003922 0.540686 0.003922
0.003922 0.537270 0.003922
0.003922 0.538297 0.003922
0.009743 0.554167 0.005377
0.117953 0.564951 0.010049
0.273376 0.568750 0.014997
0.414706 0.570588 0.015686
0.530254 0.574510 0.015686
0.585049 0.580147 0.019118
0.618735 0.587868 0.034681
0.659252 0.595588 0.055453
0.711535 0.601838 0.079396
0.762745 0.609559 0.100950
0.804825 0.616590 0.117402
0.836765 0.625368 0.133824
0.864874 0.634191 0.152206
0.890411 0.641912 0.174939
0.922549 0.646569 0.203048
0.941176 0.647855 0.222059
0.941176 0.646569 0.222059
0.941176 0.646569 0.222059
0.941176 0.646569 0.222059
0.941176 0.646569 0.222059
0.003922 0.598897 0.003922
0.003922 0.601471 0.003922
0.003922 0.597633 0.003922
0.003922 0.594975 0.003922
0.003922 0.591054 0.003922
0.003922 0.589706 0.003922
0.003922 0.587132 0.003922
0.003922 0.586079 0.003922
0.003922 0.583211 0.003922
0.003922 0.582242 0.003922
0.003922 0.579289 0.003922
0.003922 0.576716 0.003922
0.003922 0.575368 0.003922
0.003922 0.579224 0.003922
0.028347 0.595244 0.005369
0.165422 0.601471 0.011133
0.326961 0.603431 0.015012
0.465705 0.605392 0.015686
0.570596 0.611029 0.016322
0.622606 0.614828 0.030637
0.657368 0.623514 0.048514
0.699169 0.630270 0.073284
0.754098 0.637990 0.096867
0.804167 0.645711 0.123185
0.843474 0.653431 0.142555
0.874510 0.661715 0.161837
0.899020 0.671699 0.180637
0.921971 0.680515 0.200000
0.942846 0.687423 0.216176
0.944857 0.685172 0.219608
0.945098 0.685172 0.219608
0.945098 0.683866 0.219608
0.946446 0.685172 0.219608
0.003922 0.632353 0.003922
0.003922 0.632353 0.003922
0.003922 0.629825 0.003922
0.003922 0.628546 0.003922
0.003922 0.625000 0.003922
0.003922 0.624510 0.003922
0.003922 0.621814 0.003922
0.003922 0.620588 0.003922
0.003922 0.618566 0.003922
0.003922 0.617011 0.003922
0.003922 0.614813 0.003922
0.003922 0.613166 0.003922
0.003922 0.612745 0.003922
0.003922 0.610049 0.003922
0.003922 0.617984 0.003922
0.062967 0.632430 0.007269
0.227941 0.636275 0.011152
0.384888 0.638764 0.014461
0.513281 0.641912 0.011765
0.614131 0.646936 0.030407
0.661244 0.653431 0.048775
0.698162 0.661152 0.070711
0.741529 0.671952 0.095098
0.794730 0.677474 0.122059
0.842892 0.685539 0.149939
0.878209 0.693260 0.173652
0.909314 0.699985 0.192662
0.935784 0.711397 0.211520
0.952451 0.719118 0.226961
0.959314 0.719738 0.233824
0.959314 0.718627 0.231127
0.959314 0.718627 0.231127
0.959314 0.718627 0.233824
0.003922 0.663235 0.003922
0.003922 0.667034 0.003922
0.003922 0.663235 0.003922
0.003922 0.659681 0.003922
0.003922 0.659314 0.003922
0.003922 0.656936 0.003922
0.003922 0.655392 0.003922
0.003922 0.655392 0.003922
0.003922 0.651746 0.003922
0.003922 0.651471 0.003922
0.003922 0.649533 0.003922
0.003922 0.647549 0.003922
0.003922 0.645787 0.003922
0.003922 0.643627 0.003922
0.003922 0.643627 0.003922
0.011994 0.656032 0.003922
0.127083 0.668566 0.009252
0.299659 0.671595 0.011765
0.442149 0.676716 0.011765
0.566870 0.680515 0.022549
0.660968 0.685417 0.055806
0.705882 0.692758 0.076838
0.743604 0.703676 0.098897
0.783881 0.711397 0.126773
0.835325 0.719118 0.154044
0.877080 0.726838 0.183207
0.912745 0.734559 0.206702
0.943677 0.742279 0.226961
0.963006 0.749510 0.242402
0.977677 0.753431 0.253290
0.978676 0.753431 0.254289
0.978676 0.753431 0.254289
0.978676 0.753431 0.254289
0.004902 0.695098 0.014706
0.004902 0.695098 0.014706
0.004902 0.694179 0.014706
0.004902 0.694118 0.010876
0.004044 0.690319 0.010784
0.003922 0.687714 0.010784
0.003922 0.687255 0.009804
0.003922 0.686275 0.007506
0.003922 0.684069 0.006863
0.003922 0.682629 0.006158
0.003922 0.682353 0.005882
0.003922 0.679779 0.005882
0.003922 0.678431 0.005270
0.003922 0.674908 0.004902
0.003922 0.674510 0.004902
0.003922 0.676072 0.004902
0.057353 0.693137 0.005882
0.211887 0.703278 0.009681
0.370527 0.707598 0.011765
0.507261 0.715319 0.017739
0.625858 0.721936 0.055515
0.711673 0.726838 0.090625
0.752206 0.734559 0.111520
0.786887 0.742279 0.135509
0.825245 0.750000 0.161765
0.870833 0.757721 0.188725
0.909375 0.765441 0.214951
0.946109 0.773162 0.241575
0.969730 0.779534 0.257843
0.988695 0.784314 0.269975
0.994118 0.784314 0.276287
0.994118 0.784314 0.273529
0.994118 0.787255 0.277451
0.013480 0.725000 0.038725
0.017402 0.728064 0.042647
0.013480 0.725191 0.038971
0.013480 0.725000 0.038725
0.013480 0.724142 0.035294
0.013480 0.721078 0.034804
0.013480 0.721078 0.034804
0.012623 0.717827 0.031553
0.009559 0.717157 0.030882
0.009559 0.717157 0.030266
0.009559 0.714461 0.027918
0.009559 0.713235 0.026961
0.008701 0.709314 0.024188
0.008701 0.709314 0.023039
0.005637 0.705392 0.022181
0.005637 0.703765 0.019118
0.026164 0.714338 0.017157
0.138779 0.729902 0.008299
0.301478 0.738480 0.011282
0.445852 0.746201 0.016544
0.574387 0.753922 0.051961
0.691399 0.758284 0.097231
0.759926 0.764583 0.129925
0.797426 0.772545 0.150123
0.832230 0.780025 0.173284
0.866176 0.788603 0.199510
0.904779 0.796163 0.226593
0.942770 0.803186 0.249755
0.970098 0.807736 0.269746
0.992892 0.814419 0.287580
1.000000 0.815441 0.296691
1.000000 0.816150 0.296691
1.000000 0.819118 0.299755
0.032843 0.755147 0.068873
0.032843 0.755147 0.068873
0.032843 0.755147 0.068873
0.029956 0.751225 0.065985
0.029013 0.751225 0.065043
0.028922 0.751225 0.064951
0.028922 0.748039 0.064951
0.028922 0.747304 0.061765
0.025735 0.747304 0.061213
0.025207 0.745014 0.058739
0.025000 0.743612 0.057843
0.025000 0.741291 0.057108
0.021814 0.739737 0.053922
0.021078 0.737569 0.051294
0.021078 0.735861 0.050000
0.018995 0.733847 0.047572
0.020711 0.735539 0.047672
0.093528 0.750980 0.030170
0.236198 0.764292 0.011535
0.392157 0.774456 0.021201
0.521814 0.784069 0.052880
0.645343 0.788603 0.098284
0.757797 0.795098 0.143122
0.806250 0.799916 0.170014
0.839951 0.807108 0.191667
0.869975 0.814828 0.211887
