CLEAN_GRADE_LUT.cube
#Generated with IWLTBAP LUT Generator 2.1
#Website: https://luts.iwltbap.com
TITLE "CLEAN GRADE LUT"
LUT_3D_SIZE 33
0.000000 0.000000 0.000000
0.000000 0.000000 0.000000
0.000000 0.000000 0.000000
0.000000 0.000000 0.000000
0.007353 0.000000 0.000000
0.018382 0.000000 0.000000
0.044118 0.000000 0.003922
0.081985 0.000000 0.003922
0.116667 0.000000 0.006863
0.155270 0.000000 0.007843
0.196569 0.000000 0.014461
0.242892 0.000000 0.022181
0.293137 0.000000 0.029902
0.345711 0.000000 0.039951
0.399755 0.000000 0.055392
0.457721 0.000000 0.080760
0.521569 0.000000 0.109804
0.587255 0.000000 0.140686
0.650735 0.000000 0.175490
0.724142 0.000000 0.211887
0.799020 0.000000 0.254412
0.881495 0.000000 0.302206
0.965196 0.000000 0.353676
1.000000 0.000000 0.406618
1.000000 0.004902 0.456863
1.000000 0.013480 0.504044
1.000000 0.032108 0.554167
1.000000 0.043750 0.612132
1.000000 0.051471 0.661275
1.000000 0.059191 0.699877
1.000000 0.079902 0.738480
1.000000 0.126348 0.777083
1.000000 0.180392 0.811765
0.000000 0.000000 0.000000
0.000000 0.000000 0.000000
0.000000 0.000000 0.000000
0.000000 0.000000 0.000000
0.004029 0.000000 0.000000
0.015177 0.000000 0.000000
0.033310 0.000000 0.003186
0.070466 0.000000 0.003922
0.109069 0.000000 0.004013
0.147549 0.000000 0.007843
0.190158 0.000000 0.011849
0.239093 0.000000 0.018382
0.289338 0.000000 0.029902
0.341912 0.000000 0.037623
0.398093 0.000000 0.053730
0.455940 0.000000 0.080760
0.519669 0.000000 0.109804
0.587255 0.000000 0.140686
0.650735 0.000000 0.171622
0.720221 0.000000 0.208088
0.791299 0.000000 0.250536
0.873775 0.000000 0.298284
0.957391 0.000000 0.345956
1.000000 0.000000 0.398809
1.000000 0.003922 0.449020
1.000000 0.010512 0.495466
1.000000 0.032108 0.542525
1.000000 0.039828 0.599877
1.000000 0.047549 0.645711
1.000000 0.055270 0.683958
1.000000 0.063243 0.718750
1.000000 0.091058 0.749755
1.000000 0.133701 0.780637
0.000000 0.000000 0.000000
0.000000 0.000000 0.000000
0.000000 0.000000 0.000000
0.000000 0.000000 0.000000
0.003922 0.000000 0.000000
0.011359 0.000000 0.000000
0.026379 0.000000 0.000000
0.058701 0.000000 0.003922
0.100306 0.000000 0.003922
0.139828 0.000000 0.007843
0.182353 0.000000 0.011765
0.231373 0.000000 0.018260
0.284069 0.000000 0.026134
0.338113 0.000000 0.037623
0.394363 0.000000 0.053676
0.453929 0.000000 0.078922
0.517770 0.000000 0.107966
0.583333 0.000000 0.138963
0.646952 0.000000 0.171569
0.716299 0.000000 0.207966
0.791176 0.000000 0.248039
0.869975 0.000000 0.294363
0.953676 0.000000 0.345833
1.000000 0.000000 0.395956
1.000000 0.003922 0.445098
1.000000 0.009612 0.491667
1.000000 0.032108 0.538680
1.000000 0.039828 0.595833
1.000000 0.047549 0.638480
1.000000 0.055270 0.676593
1.000000 0.059559 0.711029
1.000000 0.079297 0.741912
1.000000 0.118137 0.769118
0.000000 0.000000 0.000000
0.000000 0.000000 0.000000
0.000000 0.000000 0.000000
0.000000 0.000000 0.000000
0.003922 0.000000 0.000000
0.008153 0.000000 0.000000
0.019171 0.000000 0.000000
0.044282 0.000000 0.000287
0.088695 0.000000 0.003922
0.131108 0.000000 0.006844
0.173407 0.000000 0.010539
0.223652 0.000000 0.014706
0.276348 0.000000 0.025980
0.334164 0.000000 0.037623
0.390357 0.000000 0.051471
0.451961 0.000000 0.075000
0.513909 0.000000 0.105882
0.579584 0.000000 0.136765
0.643260 0.000000 0.167808
0.712745 0.000000 0.204044
0.787255 0.000000 0.244347
0.868509 0.000000 0.290809
0.949625 0.000000 0.341912
1.000000 0.000000 0.392299
1.000000 0.000980 0.441544
1.000000 0.009559 0.487868
1.000000 0.028255 0.534858
1.000000 0.039828 0.588358
1.000000 0.047549 0.634191
1.000000 0.051716 0.672426
1.000000 0.059069 0.703309
1.000000 0.067892 0.730626
1.000000 0.102696 0.757598
0.000000 0.007353 0.000000
0.000000 0.007353 0.000000
0.003217 0.007353 0.000000
0.003922 0.007353 0.000000
0.006924 0.007353 0.000000
0.011152 0.007353 0.000000
0.025490 0.007353 0.000000
0.047059 0.003539 0.000000
0.088235 0.003431 0.003064
0.131602 0.000000 0.004274
0.176471 0.000000 0.007843
0.223116 0.000000 0.012086
0.273836 0.000000 0.018627
0.332353 0.000000 0.032598
0.393842 0.000000 0.049969
0.451961 0.000000 0.071308
0.515441 0.000000 0.098529
0.579412 0.000000 0.129412
0.644822 0.000000 0.161795
0.712377 0.000000 0.198729
0.787255 0.000000 0.240502
0.868061 0.000000 0.287010
0.950735 0.000000 0.337990
1.000000 0.000000 0.388603
1.000000 0.000980 0.437745
1.000000 0.009559 0.486749
1.000000 0.028186 0.531036
1.000000 0.039828 0.587990
1.000000 0.047549 0.630392
1.000000 0.051792 0.668505
1.000000 0.059069 0.702941
1.000000 0.067157 0.729902
1.000000 0.101961 0.756863
0.000000 0.018382 0.003922
0.000000 0.018382 0.000103
0.003676 0.015280 0.000000
0.003922 0.015074 0.000000
0.007843 0.015074 0.000000
0.015074 0.015074 0.000000
0.031978 0.015074 0.000000
0.054779 0.014595 0.002585
0.092525 0.010692 0.003768
0.134559 0.007230 0.003922
0.176961 0.003500 0.004343
0.226593 0.000000 0.010417
0.276838 0.000000 0.014828
0.330388 0.000000 0.022913
0.390809 0.000000 0.038871
0.454331 0.000000 0.064461
0.518995 0.000000 0.094424
0.579412 0.000000 0.121691
0.645098 0.000000 0.156495
0.712377 0.000000 0.192892
0.787255 0.000000 0.232966
0.869730 0.000000 0.280637
0.949510 0.000000 0.330760
1.000000 0.000000 0.384632
1.000000 0.000980 0.434773
1.000000 0.009559 0.483578
1.000000 0.028186 0.529902
1.000000 0.039828 0.584069
1.000000 0.047549 0.629902
1.000000 0.054902 0.668195
1.000000 0.059069 0.699058
1.000000 0.070362 0.729902
1.000000 0.101961 0.756863
0.000000 0.047304 0.003922
0.000000 0.044118 0.003209
0.000000 0.040196 0.000000
0.003922 0.036343 0.000000
0.011275 0.036918 0.000000
0.018382 0.037010 0.000000
0.036872 0.037010 0.000000
0.065725 0.036275 0.003064
0.101042 0.029963 0.003922
0.139216 0.022426 0.003922
0.180147 0.012515 0.003922
0.229779 0.007108 0.006495
0.281097 0.001195 0.009038
0.336696 0.000000 0.014828
0.389782 0.000000 0.025490
0.448775 0.000000 0.049020
0.518015 0.000000 0.083824
0.582989 0.000000 0.117547
0.645098 0.000000 0.146569
0.712377 0.001593 0.183877
0.787255 0.001991 0.225245
0.869730 0.000000 0.272917
0.950506 0.000000 0.326731
1.000000 0.000000 0.380270
1.000000 0.000980 0.430147
1.000000 0.008862 0.477168
1.000000 0.025000 0.526118
1.000000 0.039828 0.581380
1.000000 0.047549 0.626072
1.000000 0.054902 0.665250
1.000000 0.059069 0.699020
1.000000 0.071078 0.729779
1.000000 0.105147 0.756863
0.000000 0.081985 0.003922
0.000000 0.078091 0.003922
0.000000 0.074196 0.000245
0.003554 0.070588 0.000000
0.007353 0.070221 0.000000
0.015797 0.071078 0.000000
0.037010 0.071078 0.000000
0.067157 0.070408 0.000000
0.107414 0.065870 0.003156
0.149629 0.055021 0.003922
0.191567 0.040931 0.006985
0.233333 0.026716 0.006985
0.283824 0.012669 0.003922
0.340196 0.003064 0.007617
0.397557 0.000000 0.014828
0.452941 0.000000 0.028431
0.512623 0.000000 0.058333
0.583735 0.000000 0.105025
0.648162 0.000000 0.140679
0.712377 0.003922 0.173529
0.787255 0.003922 0.216376
0.869730 0.002011 0.265196
0.952842 0.000000 0.319240
1.000000 0.000000 0.373284
1.000000 0.000980 0.425705
1.000000 0.008701 0.472672
1.000000 0.025000 0.522220
1.000000 0.039828 0.577562
1.000000 0.047549 0.623300
1.000000 0.054902 0.664296
1.000000 0.059069 0.699020
1.000000 0.071078 0.725980
1.000000 0.105882 0.756863
0.000000 0.120588 0.003922
0.000000 0.116667 0.003922
0.000000 0.112990 0.000245
0.000000 0.111857 0.000000
0.003554 0.111397 0.000000
0.011520 0.111765 0.000000
0.030147 0.109375 0.000000
0.063358 0.108824 0.000000
0.101961 0.105882 0.000000
0.147304 0.101379 0.000705
0.204841 0.086765 0.006618
0.252053 0.067739 0.007843
0.295098 0.049020 0.007843
0.344730 0.029105 0.005116
0.401409 0.007230 0.004902
0.459283 0.000000 0.010049
0.518627 0.000000 0.028922
0.579412 0.000000 0.072672
0.649081 0.000429 0.124877
0.715901 0.003922 0.164216
0.787255 0.003922 0.202941
0.869730 0.003922 0.254197
0.953431 0.002022 0.307598
1.000000 0.000000 0.363450
1.000000 0.003186 0.418627
1.000000 0.005637 0.468107
1.000000 0.022059 0.515931
1.000000 0.039828 0.573284
1.000000 0.047549 0.622181
1.000000 0.054994 0.661550
1.000000 0.059314 0.696078
1.000000 0.075000 0.725980
1.000000 0.108824 0.756863
0.000000 0.159191 0.003922
0.000000 0.155392 0.003922
0.000000 0.155270 0.003922
0.000000 0.151348 0.000000
0.000000 0.151348 0.000000
0.004412 0.151348 0.000000
0.019401 0.151348 0.000000
0.052819 0.151348 0.000000
0.094240 0.150245 0.000000
0.139583 0.144298 0.000000
0.193283 0.138948 0.000758
0.261064 0.121435 0.006874
0.320144 0.095833 0.011765
0.364748 0.075448 0.008988
0.413235 0.050123 0.007223
0.464461 0.018696 0.004508
0.526348 0.001409 0.006127
0.586152 0.000000 0.029002
0.644478 0.000000 0.084942
0.716425 0.002248 0.145224
0.789017 0.003922 0.188205
0.869730 0.003922 0.235895
0.953431 0.003922 0.293137
1.000000 0.002819 0.351103
1.000000 0.003922 0.407261
1.000000 0.005637 0.458088
1.000000 0.021078 0.508211
1.000000 0.039828 0.566176
1.000000 0.047549 0.615671
1.000000 0.055270 0.657843
1.000000 0.059314 0.692456
1.000000 0.075088 0.725980
1.000000 0.109804 0.752941
0.000000 0.204412 0.007843
0.000000 0.200613 0.006656
0.000000 0.200490 0.003922
0.000000 0.196821 0.002811
0.000000 0.196569 0.000000
0.000000 0.196569 0.000000
0.007598 0.196569 0.000000
0.031717 0.196569 0.000000
0.085172 0.196569 0.000000
0.126003 0.195688 0.000000
0.180040 0.189568 0.000000
0.243030 0.183195 0.000000
0.322457 0.159559 0.006587
0.391919 0.129404 0.013366
0.440885 0.106373 0.014461
0.486680 0.079251 0.009107
0.538725 0.040564 0.007230
0.595956 0.005729 0.008992
0.651716 0.000000 0.024494
0.710555 0.000000 0.093727
0.786336 0.002237 0.162837
0.874579 0.003922 0.223652
0.953431 0.003922 0.274157
1.000000 0.003922 0.332843
1.000000 0.003922 0.393627
1.000000 0.004779 0.447403
1.000000 0.017892 0.499985
1.000000 0.039828 0.558456
1.000000 0.047549 0.608088
1.000000 0.055270 0.652934
1.000000 0.059314 0.688649
1.000000 0.079006 0.722059
1.000000 0.113725 0.752941
0.000000 0.253309 0.014338
0.000000 0.250816 0.014338
0.000000 0.249472 0.008004
0.000000 0.247055 0.004163
0.000000 0.246814 0.002742
0.000000 0.246814 0.000000
0.000000 0.246814 0.000000
0.008824 0.246814 0.000000
0.054442 0.247457 0.000000
0.113381 0.245845 0.000000
0.163549 0.244539 0.000000
0.227206 0.238507 0.000000
0.297028 0.231679 0.000000
0.389323 0.207778 0.006553
0.464637 0.172863 0.019930
0.518279 0.146955 0.024039
0.566483 0.119853 0.018873
0.618034 0.079251 0.014338
0.670711 0.025965 0.013044
0.722181 0.000000 0.026497
0.776639 0.000000 0.089200
0.866816 0.001348 0.179860
0.956932 0.003922 0.253569
1.000000 0.003922 0.307364
1.000000 0.003922 0.371691
1.000000 0.004779 0.429657
1.000000 0.013971 0.486275
1.000000 0.037657 0.546814
1.000000 0.047549 0.600368
1.000000 0.055270 0.646324
1.000000 0.059559 0.684842
1.000000 0.082924 0.719485
1.000000 0.120221 0.749020
0.000000 0.307353 0.028431
0.000000 0.307353 0.024632
0.000000 0.305882 0.020588
0.000000 0.303431 0.013113
0.000000 0.303431 0.006863
0.000000 0.303431 0.003064
0.000000 0.303431 0.000000
0.000000 0.303431 0.000000
0.018382 0.303431 0.000000
0.083701 0.303431 0.000000
0.146998 0.301961 0.000000
0.207843 0.299387 0.000000
0.278983 0.295037 0.000000
0.358257 0.287577 0.000000
0.453156 0.265748 0.007353
0.536458 0.230070 0.031311
0.603922 0.198284 0.041912
0.653876 0.170558 0.039338
0.699081 0.135080 0.033333
0.748775 0.072917 0.025965
0.798100 0.007659 0.035723
0.849449 0.000000 0.098560
0.947825 0.000460 0.201042
1.000000 0.007843 0.282016
1.000000 0.006373 0.339583
1.000000 0.006694 0.405438
1.000000 0.013235 0.468842
1.000000 0.034452 0.533333
1.000000 0.047549 0.590502
1.000000 0.055270 0.636382
1.000000 0.063235 0.677206
1.000000 0.089262 0.715763
1.000000 0.124020 0.746569
0.000000 0.367647 0.046201
0.000000 0.365391 0.042402
0.000000 0.363725 0.038603
0.000000 0.363725 0.030882
0.000000 0.363725 0.023162
0.000000 0.363725 0.013113
0.000000 0.363725 0.006985
0.000000 0.363725 0.000509
0.001195 0.363725 0.000000
0.031786 0.363725 0.000000
0.113128 0.363725 0.000000
0.185352 0.363725 0.000000
0.255285 0.359681 0.000000
0.339250 0.355882 0.000000
0.422993 0.351601 0.000000
0.519631 0.332633 0.011029
0.613358 0.300429 0.046324
0.689549 0.264116 0.072760
0.743827 0.235172 0.073690
0.788235 0.198215 0.064304
0.838480 0.132430 0.056235
0.881315 0.042429 0.063718
0.932621 0.000000 0.116812
1.000000 0.000896 0.214503
1.000000 0.010172 0.303830
1.000000 0.007843 0.366808
1.000000 0.010608 0.440441
1.000000 0.031246 0.511642
1.000000 0.047549 0.573208
1.000000 0.055270 0.625000
1.000000 0.065809 0.669485
1.000000 0.096936 0.708088
1.000000 0.131740 0.745098
0.000000 0.429412 0.069363
0.000000 0.425613 0.069363
0.000000 0.425490 0.063971
0.000000 0.425490 0.056411
0.000000 0.425490 0.048529
0.000000 0.425490 0.036887
0.000000 0.429090 0.027374
0.000000 0.429412 0.015801
0.000000 0.427696 0.003309
0.002466 0.428929 0.000000
0.051042 0.429412 0.000000
0.145764 0.428286 0.000000
0.231924 0.426317 0.000000
0.311803 0.424472 0.000000
0.403952 0.420818 0.000000
0.488833 0.420918 0.000000
0.589216 0.407108 0.015564
0.692264 0.376838 0.068842
0.769838 0.342157 0.100934
0.835861 0.304948 0.108372
0.890931 0.264553 0.101961
0.933333 0.200069 0.092034
0.968137 0.093168 0.093137
1.000000 0.000000 0.126225
1.000000 0.001838 0.211397
1.000000 0.013971 0.316046
1.000000 0.011765 0.394455
1.000000 0.023430 0.482552
1.000000 0.049540 0.550245
1.000000 0.057636 0.607560
1.000000 0.073667 0.658088
1.000000 0.104779 0.700368
1.000000 0.141667 0.738971
0.000000 0.491176 0.098529
0.000000 0.491176 0.098529
0.000000 0.491176 0.094608
0.000000 0.491176 0.089020
0.000000 0.491176 0.081495
0.000000 0.492934 0.073775
0.000000 0.493260 0.062132
0.000000 0.494696 0.050490
0.000000 0.495098 0.031127
0.000000 0.497181 0.009042
0.009758 0.497181 0.000651
0.080090 0.497181 0.000000
0.190257 0.496032 0.000000
0.289495 0.493260 0.000000
0.375107 0.494432 0.000000
0.471699 0.492398 0.001107
0.563419 0.493382 0.000919
0.663484 0.484184 0.022936
0.763465 0.458509 0.084949
0.853163 0.423384 0.124364
0.926517 0.382062 0.139675
0.979779 0.335049 0.136642
1.000000 0.269891 0.125000
1.000000 0.146201 0.115931
1.000000 0.009896 0.125276
1.000000 0.004358 0.210803
1.000000 0.019462 0.323552
1.000000 0.018631 0.433042
1.000000 0.040962 0.515564
1.000000 0.063725 0.584926
1.000000 0.087500 0.644493
1.000000 0.118505 0.692705
1.000000 0.157108 0.731250
0.000000 0.564706 0.135294
0.000000 0.564706 0.135294
0.000000 0.564706 0.131495
0.000000 0.564706 0.127635
0.000000 0.564706 0.122059
0.000000 0.564706 0.114338
0.000000 0.566299 0.104657
0.000000 0.566667 0.093444
0.000000 0.568137 0.080392
0.000000 0.570588 0.055392
0.002696 0.572549 0.023897
0.032414 0.572549 0.003983
0.124510 0.572549 0.000735
0.249020 0.569424 0.001164
0.356740 0.567525 0.000858
0.445527 0.571630 0.002083
0.549020 0.570588 0.009804
0.635907 0.572549 0.000919
0.729044 0.567157 0.025490
0.834436 0.545404 0.099020
0.923284 0.512990 0.141176
0.989706 0.471630 0.162132
1.000000 0.418873 0.166054
1.000000 0.354228 0.156618
1.000000 0.234314 0.136275
1.000000 0.081250 0.128064
1.000000 0.013235 0.195221
1.000000 0.026716 0.341483
1.000000 0.043137 0.457353
1.000000 0.079718 0.546998
1.000000 0.106985 0.621569
1.000000 0.139828 0.679167
1.000000 0.174510 0.725490
0.000000 0.640074 0.183578
0.000000 0.640074 0.181560
0.000000 0.640074 0.179657
0.000000 0.640074 0.175735
0.000000 0.640074 0.169991
0.000000 0.640074 0.164258
0.000000 0.641567 0.154779
0.000000 0.641912 0.143995
0.000000 0.643995 0.132475
0.001838 0.646814 0.117034
0.005760 0.647917 0.085493
0.020278 0.651838 0.040479
0.077191 0.651225 0.011137
0.191322 0.647426 0.005760
0.328401 0.644799 0.007705
0.431981 0.646078 0.004783
0.525735 0.651716 0.018566
0.625379 0.649755 0.030798
0.704450 0.650927 0.002979
0.796534 0.647315 0.029822
0.893949 0.631250 0.109452
0.972691 0.604573 0.152102
1.000000 0.568919 0.170672
1.000000 0.518654 0.175149
1.000000 0.453186 0.173162
1.000000 0.338672 0.157598
1.000000 0.170136 0.130944
1.000000 0.050597 0.197664
1.000000 0.052895 0.363894
1.000000 0.098506 0.491667
1.000000 0.137745 0.581725
1.000000 0.168627 0.656307
1.000000 0.201593 0.710049
0.000000 0.715196 0.235539
0.000000 0.715196 0.231740
0.000000 0.711275 0.227834
0.000000 0.711481 0.226141
0.000000 0.711275 0.220343
0.001716 0.715196 0.216276
0.001716 0.715196 0.208824
0.003439 0.715196 0.199380
0.005637 0.715196 0.186520
0.010792 0.718635 0.171078
0.017356 0.720634 0.152604
0.028186 0.723039 0.113404
0.056066 0.726317 0.054779
0.142080 0.724632 0.023820
0.281097 0.719868 0.022074
0.419401 0.716000 0.020956
0.515686 0.721078 0.020221
0.606059 0.728133 0.053271
0.695864 0.724004 0.067433
0.775896 0.723039 0.016881
0.859743 0.720741 0.046967
0.941399 0.707330 0.118390
0.994102 0.686320 0.150245
1.000000 0.657713 0.156258
1.000000 0.613419 0.159804
1.000000 0.544983 0.170351
1.000000 0.433808 0.164706
1.000000 0.236343 0.140097
1.000000 0.124908 0.168995
1.000000 0.123346 0.383655
1.000000 0.171048 0.517862
1.000000 0.201225 0.618382
1.000000 0.232108 0.688971
0.005515 0.788480 0.289583
0.005515 0.788480 0.284118
0.005515 0.788480 0.281740
0.006958 0.788480 0.277819
0.007108 0.788480 0.273897
0.009436 0.788480 0.269975
0.011029 0.788480 0.262868
0.014951 0.788480 0.255147
0.020067 0.790809 0.244485
0.027206 0.790809 0.229044
0.034926 0.792402 0.212002
0.049142 0.795776 0.187083
0.067907 0.798652 0.137040
0.115211 0.799598 0.076819
0.230438 0.797342 0.047679
0.383065 0.792402 0.050846
0.514093 0.792770 0.045221
0.593716 0.800490 0.056706
0.676225 0.803148 0.096860
0.764740 0.797568 0.115993
0.841437 0.797779 0.068076
0.911707 0.793130 0.076877
0.975123 0.779779 0.126118
1.000000 0.764828 0.136887
1.000000 0.739951 0.122641
1.000000 0.699858 0.128676
1.000000 0.635401 0.149809
1.000000 0.513875 0.169018
1.000000 0.325138 0.147702
1.000000 0.251961 0.169076
1.000000 0.215280 0.389844
1.000000 0.245270 0.543555
1.000000 0.272304 0.649265
0.018627 0.864216 0.338235
0.020098 0.864216 0.334314
0.023775 0.864216 0.330484
0.024020 0.861765 0.327941
0.025306 0.861765 0.324326
0.027941 0.861765 0.320481
0.031403 0.861765 0.315441
0.035248 0.864216 0.309191
0.042647 0.864216 0.301471
0.051838 0.864216 0.287010
0.063021 0.864216 0.269884
0.074617 0.866789 0.249632
0.089277 0.868137 0.215502
0.113802 0.871063 0.153661
0.190656 0.870680 0.097518
0.338971 0.864905 0.083946
0.496078 0.862255 0.088480
0.598928 0.864583 0.082491
0.662377 0.872304 0.106464
0.743995 0.874112 0.145695
0.827451 0.864583 0.168505
0.896431 0.864216 0.137944
0.954657 0.861213 0.116483
0.995067 0.848897 0.136979
1.000000 0.834191 0.115564
1.000000 0.811765 0.069256
1.000000 0.774786 0.071569
1.000000 0.711320 0.120067
1.000000 0.607782 0.157047
1.000000 0.410126 0.159942
1.000000 0.358150 0.196446
1.000000 0.290732 0.383915
1.000000 0.298529 0.606863
0.044608 0.931005 0.383211
0.048407 0.928431 0.376796
0.048529 0.928431 0.375368
0.048529 0.927083 0.371572
0.052451 0.927083 0.369194
0.056162 0.927083 0.365353
0.060041 0.927083 0.361765
0.063921 0.927083 0.357966
0.071078 0.927083 0.350245
0.078799 0.927083 0.340675
0.088289 0.927505 0.324686
0.099851 0.927083 0.303676
0.114828 0.931005 0.278906
0.132598 0.931005 0.233521
0.170052 0.932353 0.163434
0.292647 0.928922 0.122936
0.463174 0.921875 0.127635
0.593827 0.919240 0.127819
0.665464 0.924119 0.133624
0.726486 0.930205 0.161830
0.808211 0.930040 0.195205
0.883061 0.921009 0.220619
0.940142 0.919240 0.202122
0.984180 0.918516 0.181438
1.000000 0.909191 0.162745
1.000000 0.898039 0.103653
1.000000 0.876716 0.017762
1.000000 0.838534 0.018064
1.000000 0.786336 0.063205
1.000000 0.692471 0.126624
1.000000 0.497656 0.170236
1.000000 0.446331 0.213794
1.000000 0.367892 0.414338
0.071569 0.978676 0.421814
0.078102 0.978676 0.417892
0.079412 0.978676 0.413971
0.079412 0.978676 0.410302
0.083333 0.978676 0.410049
0.086642 0.978676 0.406127
0.089445 0.978676 0.402711
0.093283 0.978676 0.399142
0.098039 0.978676 0.394363
0.105760 0.978676 0.385685
0.115334 0.978676 0.374127
0.126892 0.978676 0.353378
0.141912 0.978676 0.329871
0.156258 0.978676 0.300728
0.176517 0.978676 0.244562
0.249188 0.978025 0.174923
0.418873 0.971446 0.164951
0.572266 0.965074 0.175329
0.665043 0.964170 0.173238
0.724877 0.971201 0.190074
0.785570 0.977451 0.220313
0.866896 0.975597 0.247863
0.928922 0.967754 0.271032
0.974854 0.965686 0.266353
0.999081 0.962316 0.250061
1.000000 0.958479 0.219531
1.000000 0.949020 0.140365
1.000000 0.931564 0.025804
1.000000 0.901777 0.000337
1.000000 0.851203 0.010363
1.000000 0.762178 0.080132
1.000000 0.597089 0.158188
1.000000 0.543137 0.215931
0.102451 1.000000 0.455392
0.106338 1.000000 0.451471
0.109015 1.000000 0.447794
0.110191 1.000000 0.444995
0.112760 1.000000 0.443627
0.114216 1.000000 0.440319
0.117930 1.000000 0.439706
0.120956 1.000000 0.435784
0.125705 1.000000 0.431863
0.131928 1.000000 0.425123
0.140097 1.000000 0.414583
0.150980 1.000000 0.400368
0.165074 1.000000 0.379657
0.182188 1.000000 0.348572
0.199877 1.000000 0.312615
0.227206 1.000000 0.243532
0.363174 1.000000 0.203554
0.536792 0.995860 0.217034
0.652436 0.991544 0.218382
0.723775 0.995508 0.227861
0.777819 1.000000 0.249510
0.846189 1.000000 0.274020
0.915763 0.999119 0.296837
0.965196 0.994363 0.317965
0.996232 0.994363 0.319638
1.000000 0.993746 0.310172
1.000000 0.991016 0.283747
1.000000 0.987182 0.205810
1.000000 0.977344 0.112209
1.000000 0.952129 0.038833
1.000000 0.912737 0.004312
1.000000 0.821756 0.026463
1.000000 0.681985 0.132475
0.128431 1.000000 0.485294
0.132261 1.000000 0.481373
0.132353 1.000000 0.477512
0.135907 1.000000 0.474786
0.136275 1.000000 0.473529
0.139583 1.000000 0.470588
0.142586 1.000000 0.467218
0.146415 1.000000 0.465901
0.150245 1.000000 0.462010
0.154779 1.000000 0.455729
0.162500 1.000000 0.448284
0.172151 1.000000 0.437990
0.183701 1.000000 0.420711
0.198775 1.000000 0.392647
0.218137 1.000000 0.355637
0.236121 1.000000 0.308425
0.312255 1.000000 0.252941
0.483058 1.000000 0.250735
0.622917 1.000000 0.259804
0.710018 1.000000 0.261397
0.769118 1.000000 0.278554
0.828431 1.000000 0.299755
0.894056 1.000000 0.314890
0.952972 1.000000 0.337623
0.989461 1.000000 0.355882
1.000000 1.000000 0.363297
1.000000 1.000000 0.356740
1.000000 1.000000 0.331403
1.000000 1.000000 0.277451
1.000000 0.999724 0.219240
1.000000 0.987439 0.151103
1.000000 0.959743 0.050092
1.000000 0.874510 0.003922
0.152451 1.000000 0.508456
0.156373 1.000000 0.504534
0.156373 1.000000 0.500858
0.156373 1.000000 0.500613
0.160187 1.000000 0.496691
0.160294 1.000000 0.494106
0.164055 1.000000 0.492770
0.166609 1.000000 0.489706
0.170435 1.000000 0.485907
0.174261 1.000000 0.482108
0.181740 1.000000 0.474977
0.189461 1.000000 0.466962
0.200781 1.000000 0.453431
0.214564 1.000000 0.432598
0.232238 1.000000 0.399862
0.251103 1.000000 0.352206
0.286458 1.000000 0.296201
0.417701 1.000000 0.283912
0.573897 1.000000 0.296201
0.684172 1.000000 0.298407
0.752819 1.000000 0.304948
0.812132 1.000000 0.323212
0.874755 1.000000 0.335026
0.930392 1.000000 0.346576
0.974112 1.000000 0.367739
0.999330 1.000000 0.379044
1.000000 1.000000 0.387048
1.000000 1.000000 0.383211
1.000000 1.000000 0.363588
1.000000 1.000000 0.318873
1.000000 1.000000 0.283318
1.000000 0.999904 0.243597
1.000000 0.987745 0.159191
0.187255 1.000000 0.531618
0.187255 1.000000 0.527696
0.187255 1.000000 0.527007
0.187921 1.000000 0.523775
0.190778 1.000000 0.523131
0.191176 1.000000 0.519853
0.191774 1.000000 0.516667
0.195098 1.000000 0.515931
0.198039 1.000000 0.509620
0.201838 1.000000 0.505798
0.206633 1.000000 0.501471
0.213358 1.000000 0.493750
0.224265 1.000000 0.484038
0.234314 1.000000 0.468873
0.249755 1.000000 0.442325
0.267670 1.000000 0.404802
0.304902 1.000000 0.355270
0.386887 1.000000 0.332108
0.517739 1.000000 0.338480
0.647373 1.000000 0.344608
0.732138 1.000000 0.347794
0.794110 1.000000 0.357598
0.858808 1.000000 0.367662
0.914951 1.000000 0.372832
0.956373 1.000000 0.379841
0.989499 1.000000 0.395221
