CLEAN_GRADE_LUT.cube
#Generated with IWLTBAP LUT Generator 2.1
#Website: https://luts.iwltbap.com
TITLE "CLEAN GRADE LUT"
LUT_3D_SIZE 5
0.000000 0.000000 0.000000
0.116667 0.000000 0.006863
0.521569 0.000000 0.109804
1.000000 0.004902 0.456863
1.000000 0.180392 0.811765
0.000000 0.120588 0.003922
0.101961 0.105882 0.000000
0.518627 0.000000 0.028922
1.000000 0.003186 0.418627
1.000000 0.108824 0.756863
0.000000 0.564706 0.135294
0.000000 0.568137 0.080392
0.549020 0.570588 0.009804
1.000000 0.234314 0.136275
1.000000 0.174510 0.725490
0.128431 1.000000 0.485294
0.150245 1.000000 0.462010
0.312255 1.000000 0.252941
0.989461 1.000000 0.355882
1.000000 0.874510 0.003922
0.623529 1.000000 0.764706
0.591176 1.000000 0.737255
0.668627 1.000000 0.756863
0.932353 1.000000 0.819608
1.000000 1.000000 0.847059
0.000000 0.000000 0.074510
0.117402 0.000000 0.079167
0.521569 0.000000 0.178431
1.000000 0.008824 0.494363
1.000000 0.196078 0.827451
0.000000 0.104902 0.082108
0.100797 0.094056 0.084743
0.528186 0.000000 0.115074
1.000000 0.004902 0.460784
1.000000 0.235784 0.844608
0.000000 0.560784 0.190196
0.000000 0.557353 0.138725
0.535049 0.558824 0.015196
1.000000 0.168505 0.137500
1.000000 0.281373 0.828431
0.129412 1.000000 0.507843
0.137255 1.000000 0.485478
0.263113 1.000000 0.280392
0.989461 1.000000 0.355147
1.000000 0.816667 0.042402
0.635294 1.000000 0.776471
0.631373 1.000000 0.768627
0.686275 1.000000 0.778431
0.929412 1.000000 0.819608
1.000000 1.000000 0.847059
0.013725 0.000000 0.437255
0.156863 0.000000 0.455882
0.534314 0.000000 0.463725
1.000000 0.014706 0.667647
1.000000 0.213725 0.866667
0.000000 0.031373 0.443137
0.026348 0.000000 0.485907
0.550000 0.000000 0.478431
1.000000 0.016667 0.649020
1.000000 0.257843 0.879902
0.000000 0.522549 0.471569
0.000000 0.519853 0.469608
0.529412 0.526471 0.505882
1.000000 0.050245 0.482353
1.000000 0.463725 0.930392
0.141667 1.000000 0.623529
0.155882 1.000000 0.607843
0.259559 1.000000 0.504167
0.973652 0.995588 0.484559
1.000000 0.728431 0.168137
0.635294 1.000000 0.796078
0.631373 1.000000 0.790196
0.702941 1.000000 0.811765
0.925490 1.000000 0.834314
1.000000 1.000000 0.847059
0.038235 0.022549 0.944118
0.189216 0.000245 0.954902
0.598529 0.000000 0.950000
1.000000 0.012500 0.981618
1.000000 0.074510 1.000000
0.000000 0.092402 0.945343
0.032292 0.030392 0.976838
0.583701 0.000000 0.982353
1.000000 0.012745 0.986581
1.000000 0.145098 1.000000
0.000000 0.480882 0.883333
0.000000 0.473162 0.903922
0.383333 0.380882 0.991667
1.000000 0.032353 1.000000
1.000000 0.484314 1.000000
0.136520 0.967647 0.914706
0.146752 0.967096 0.913725
0.233456 0.955270 0.906618
0.937255 0.941176 0.916728
1.000000 0.427451 0.941422
0.595098 1.000000 0.904902
0.609069 1.000000 0.904902
0.707843 1.000000 0.914216
0.921569 1.000000 0.936275
1.000000 1.000000 0.947059
0.000000 0.250980 1.000000
0.000000 0.204902 1.000000
0.396078 0.001961 1.000000
1.000000 0.006863 1.000000
1.000000 0.039216 1.000000
0.000000 0.244118 1.000000
0.000000 0.361275 1.000000
0.287745 0.227941 1.000000
1.000000 0.022549 1.000000
1.000000 0.043137 1.000000
0.000000 0.574510 0.994118
0.000000 0.612255 0.999510
0.008824 0.667647 1.000000
0.997059 0.539216 1.000000
1.000000 0.062745 1.000000
0.000980 0.960784 0.997059
0.001961 0.963725 1.000000
0.148039 0.954412 0.996078
0.906863 0.940931 0.999265
1.000000 0.491176 1.000000
0.541176 1.000000 0.988235
0.563725 1.000000 0.988235
0.684314 1.000000 0.988235
0.917647 1.000000 1.000000
1.000000 1.000000 1.000000
