CLEAN_GRADE_LUT.cube
#Generated with IWLTBAP LUT Generator 2.1
#Website: https://luts.iwltbap.com
TITLE "CLEAN GRADE LUT"
LUT_3D_SIZE 9
0.000000 0.000000 0.000000
0.007353 0.000000 0.000000
0.116667 0.000000 0.006863
0.293137 0.000000 0.029902
0.521569 0.000000 0.109804
0.799020 0.000000 0.254412
1.000000 0.004902 0.456863
1.000000 0.051471 0.661275
1.000000 0.180392 0.811765
0.000000 0.007353 0.000000
0.006924 0.007353 0.000000
0.088235 0.003431 0.003064
0.273836 0.000000 0.018627
0.515441 0.000000 0.098529
0.787255 0.000000 0.240502
1.000000 0.000980 0.437745
1.000000 0.047549 0.630392
1.000000 0.101961 0.756863
0.000000 0.120588 0.003922
0.003554 0.111397 0.000000
0.101961 0.105882 0.000000
0.295098 0.049020 0.007843
0.518627 0.000000 0.028922
0.787255 0.003922 0.202941
1.000000 0.003186 0.418627
1.000000 0.047549 0.622181
1.000000 0.108824 0.756863
0.000000 0.307353 0.028431
0.000000 0.303431 0.006863
0.018382 0.303431 0.000000
0.278983 0.295037 0.000000
0.603922 0.198284 0.041912
0.798100 0.007659 0.035723
1.000000 0.006373 0.339583
1.000000 0.047549 0.590502
1.000000 0.124020 0.746569
0.000000 0.564706 0.135294
0.000000 0.564706 0.122059
0.000000 0.568137 0.080392
0.124510 0.572549 0.000735
0.549020 0.570588 0.009804
0.923284 0.512990 0.141176
1.000000 0.234314 0.136275
1.000000 0.043137 0.457353
1.000000 0.174510 0.725490
0.018627 0.864216 0.338235
0.025306 0.861765 0.324326
0.042647 0.864216 0.301471
0.089277 0.868137 0.215502
0.496078 0.862255 0.088480
0.827451 0.864583 0.168505
1.000000 0.834191 0.115564
1.000000 0.607782 0.157047
1.000000 0.298529 0.606863
0.128431 1.000000 0.485294
0.136275 1.000000 0.473529
0.150245 1.000000 0.462010
0.183701 1.000000 0.420711
0.312255 1.000000 0.252941
0.769118 1.000000 0.278554
0.989461 1.000000 0.355882
1.000000 1.000000 0.277451
1.000000 0.874510 0.003922
0.265196 1.000000 0.581863
0.261275 1.000000 0.570098
0.267770 1.000000 0.563235
0.282843 1.000000 0.540686
0.389706 1.000000 0.502206
0.692586 1.000000 0.527941
0.937745 1.000000 0.537377
1.000000 1.000000 0.573591
1.000000 1.000000 0.360784
0.623529 1.000000 0.764706
0.584314 1.000000 0.737255
0.591176 1.000000 0.737255
0.608824 1.000000 0.741176
0.668627 1.000000 0.756863
0.782353 1.000000 0.791176
0.932353 1.000000 0.819608
1.000000 1.000000 0.819118
1.000000 1.000000 0.847059
0.000000 0.000000 0.003431
0.007782 0.000000 0.003860
0.113725 0.000000 0.022059
0.287745 0.000000 0.058824
0.519608 0.000000 0.132843
0.799020 0.000000 0.282843
1.000000 0.004902 0.475123
1.000000 0.051471 0.669608
1.000000 0.196078 0.823529
0.000000 0.007353 0.003860
0.007353 0.003975 0.003485
0.120864 0.000000 0.007736
0.291399 0.000000 0.029741
0.519148 0.000000 0.109589
0.791176 0.000000 0.251777
1.000000 0.003922 0.449877
1.000000 0.047549 0.648652
1.000000 0.143260 0.787316
0.000000 0.116667 0.022917
0.000000 0.116667 0.004243
0.101716 0.104902 0.000735
0.307031 0.038725 0.010417
0.525735 0.000000 0.055576
0.794608 0.003922 0.214216
1.000000 0.003922 0.430025
1.000000 0.047549 0.638725
1.000000 0.151961 0.787745
0.000000 0.305882 0.060600
0.000000 0.305882 0.028431
0.000138 0.305882 0.000000
0.278500 0.291184 0.000000
0.602635 0.193290 0.047549
0.804779 0.003064 0.048537
1.000000 0.004228 0.358701
1.000000 0.051471 0.612416
1.000000 0.174020 0.787255
0.000000 0.562745 0.154412
0.000000 0.562776 0.135509
0.000000 0.566422 0.095833
0.095098 0.570404 0.000735
0.545098 0.568750 0.009804
0.924357 0.505974 0.146324
1.000000 0.197610 0.134069
1.000000 0.057108 0.502757
1.000000 0.224510 0.773775
0.014706 0.861765 0.353615
0.020098 0.861765 0.338128
0.034804 0.861994 0.317019
0.081679 0.867586 0.237799
0.474265 0.860294 0.091667
0.826532 0.863664 0.168313
1.000000 0.829902 0.121569
1.000000 0.549311 0.166054
1.000000 0.355208 0.702145
0.125490 1.000000 0.496691
0.129412 1.000000 0.484972
0.143137 1.000000 0.471538
0.176471 1.000000 0.434635
0.282598 1.000000 0.261581
0.762822 1.000000 0.278554
0.989461 1.000000 0.355882
1.000000 1.000000 0.272672
1.000000 0.828799 0.027941
0.269118 1.000000 0.589277
0.265196 1.000000 0.581380
0.269118 1.000000 0.573652
0.283333 1.000000 0.551693
0.384099 1.000000 0.513480
0.685049 1.000000 0.534191
0.933824 1.000000 0.540610
1.000000 1.000000 0.570964
1.000000 1.000000 0.360784
0.635294 1.000000 0.776471
0.622610 1.000000 0.763787
0.626961 1.000000 0.764216
0.635110 1.000000 0.764522
0.684314 1.000000 0.774510
0.786275 1.000000 0.801471
0.929412 1.000000 0.817034
1.000000 1.000000 0.819118
1.000000 1.000000 0.847059
0.000000 0.000000 0.074510
0.026471 0.000000 0.073162
0.117402 0.000000 0.079167
0.291667 0.000000 0.125000
0.521569 0.000000 0.178431
0.806863 0.000000 0.317279
1.000000 0.008824 0.494363
1.000000 0.051471 0.680025
1.000000 0.196078 0.827451
0.000000 0.007353 0.047059
0.003493 0.003431 0.081005
0.116268 0.000000 0.078401
0.287669 0.000000 0.093321
0.516912 0.000000 0.155331
0.794975 0.000000 0.286137
1.000000 0.004902 0.471569
1.000000 0.047549 0.657675
1.000000 0.147917 0.791667
0.000000 0.104902 0.082108
0.000000 0.102237 0.081373
0.100797 0.094056 0.084743
0.331710 0.038450 0.088450
0.528186 0.000000 0.115074
0.802482 0.000000 0.255607
1.000000 0.004902 0.460784
1.000000 0.054749 0.672794
1.000000 0.235784 0.844608
0.000000 0.301961 0.121078
0.000000 0.301961 0.094118
0.000000 0.299510 0.040135
0.280622 0.289997 0.018627
0.583885 0.186213 0.077451
0.836581 0.004994 0.149694
1.000000 0.003922 0.396324
1.000000 0.055392 0.648392
1.000000 0.249020 0.842157
0.000000 0.560784 0.190196
0.000000 0.558824 0.171078
0.000000 0.557353 0.138725
0.041299 0.562684 0.009926
0.535049 0.558824 0.015196
0.911397 0.496385 0.162745
1.000000 0.168505 0.137500
1.000000 0.068811 0.546385
1.000000 0.281373 0.828431
0.011152 0.857843 0.372549
0.015028 0.857843 0.356939
0.026961 0.857843 0.338235
0.074877 0.859605 0.263496
0.445282 0.856863 0.108640
0.820129 0.858211 0.172978
1.000000 0.825153 0.155729
1.000000 0.510110 0.166850
1.000000 0.377819 0.750980
0.129412 1.000000 0.507843
0.129412 1.000000 0.497151
0.137255 1.000000 0.485478
0.172549 1.000000 0.450000
0.263113 1.000000 0.280392
0.757721 1.000000 0.285968
0.989461 1.000000 0.355147
1.000000 1.000000 0.273897
1.000000 0.816667 0.042402
0.269118 1.000000 0.593627
0.265196 1.000000 0.586152
0.269118 1.000000 0.581127
0.283333 1.000000 0.559268
0.380637 1.000000 0.521507
0.680898 1.000000 0.539629
0.933824 1.000000 0.548652
1.000000 1.000000 0.570205
1.000000 1.000000 0.364706
0.635294 1.000000 0.776471
0.623039 1.000000 0.764706
0.631373 1.000000 0.768627
0.641054 1.000000 0.768627
0.686275 1.000000 0.778431
0.786275 1.000000 0.805392
0.929412 1.000000 0.819608
1.000000 1.000000 0.823039
1.000000 1.000000 0.847059
0.003922 0.000000 0.226471
0.037745 0.000000 0.226471
0.143995 0.000000 0.234314
0.296507 0.000000 0.237684
0.528676 0.000000 0.296078
0.812255 0.000000 0.406373
1.000000 0.016667 0.545588
1.000000 0.051471 0.702941
1.000000 0.200000 0.835294
0.000000 0.003431 0.210784
0.003922 0.000000 0.230599
0.117157 0.000000 0.241253
0.295397 0.000000 0.236458
0.524510 0.000000 0.284804
0.804228 0.000000 0.379588
1.000000 0.015196 0.525980
1.000000 0.047978 0.683333
1.000000 0.151777 0.805882
0.000000 0.089706 0.214706
0.000000 0.079718 0.232613
0.063725 0.042739 0.276195
0.318627 0.005285 0.258272
0.531373 0.000000 0.261642
0.807093 0.000000 0.354672
1.000000 0.015196 0.516299
1.000000 0.055392 0.699020
1.000000 0.243015 0.853922
0.000000 0.279902 0.238235
0.000000 0.279902 0.238120
0.000000 0.275291 0.236075
0.289139 0.282904 0.267563
0.598039 0.188450 0.253339
0.832843 0.003983 0.270450
1.000000 0.006342 0.465686
1.000000 0.059314 0.688603
1.000000 0.315931 0.882966
0.000000 0.551716 0.295343
0.000000 0.550490 0.283333
0.000000 0.549755 0.255576
0.025582 0.550245 0.166789
0.534559 0.550980 0.156618
0.875184 0.472855 0.221385
1.000000 0.106679 0.215502
1.000000 0.076225 0.604841
1.000000 0.342647 0.870343
0.010784 0.846630 0.429473
0.010784 0.846078 0.413902
0.019087 0.846998 0.393689
0.058824 0.846078 0.341582
0.338450 0.849724 0.155362
0.805392 0.840993 0.192770
1.000000 0.804902 0.236765
1.000000 0.443107 0.161037
1.000000 0.405944 0.805392
0.137255 1.000000 0.538725
0.137117 1.000000 0.529596
0.146936 1.000000 0.521661
0.172779 1.000000 0.489828
0.260784 1.000000 0.355392
0.740916 1.000000 0.313358
0.985355 1.000000 0.362714
1.000000 1.000000 0.299219
1.000000 0.786275 0.079044
0.273039 1.000000 0.611765
0.269118 1.000000 0.607353
0.273039 1.000000 0.600628
0.287255 1.000000 0.581863
0.378278 1.000000 0.546814
0.674877 1.000000 0.560853
0.929902 1.000000 0.571078
1.000000 1.000000 0.570037
1.000000 1.000000 0.369118
0.635294 1.000000 0.782843
0.623039 1.000000 0.768627
0.631373 1.000000 0.775000
0.649510 1.000000 0.781924
0.690196 1.000000 0.787500
0.782353 1.000000 0.806924
0.928431 1.000000 0.823529
1.000000 1.000000 0.826961
1.000000 1.000000 0.847059
0.013725 0.000000 0.437255
0.053676 0.000000 0.440931
0.156863 0.000000 0.455882
0.322549 0.000000 0.452941
0.534314 0.000000 0.463725
0.820588 0.000000 0.550980
1.000000 0.014706 0.667647
1.000000 0.055392 0.764216
1.000000 0.213725 0.866667
0.006127 0.000000 0.436520
0.013725 0.000000 0.439982
0.126777 0.000000 0.457537
0.309957 0.000000 0.454810
0.532966 0.000000 0.462377
0.812408 0.000000 0.539216
1.000000 0.012745 0.653431
1.000000 0.051471 0.750490
1.000000 0.165686 0.840931
0.000000 0.031373 0.443137
0.000000 0.025797 0.454228
0.026348 0.000000 0.485907
0.301471 0.000000 0.498162
0.550000 0.000000 0.478431
0.816667 0.000000 0.536703
1.000000 0.016667 0.649020
1.000000 0.055637 0.758824
1.000000 0.257843 0.879902
0.000000 0.247059 0.439951
0.000000 0.241759 0.447610
0.000000 0.226654 0.470343
0.224326 0.184681 0.530362
0.591667 0.076348 0.518995
0.839400 0.002451 0.528186
1.000000 0.016667 0.621814
1.000000 0.063388 0.754994
1.000000 0.337255 0.903922
0.000000 0.522549 0.471569
0.000000 0.521569 0.470588
0.000000 0.519853 0.469608
0.017770 0.516299 0.467279
0.529412 0.526471 0.505882
0.871691 0.434191 0.490931
1.000000 0.050245 0.482353
1.000000 0.088971 0.712990
1.000000 0.463725 0.930392
0.014706 0.828431 0.555392
0.015349 0.828431 0.547549
0.026961 0.828431 0.536581
0.070374 0.824510 0.507077
0.296569 0.827328 0.431985
0.785355 0.807629 0.450582
1.000000 0.761642 0.445404
1.000000 0.293290 0.302175
1.000000 0.468137 0.883088
0.141667 1.000000 0.623529
0.142157 1.000000 0.615870
0.155882 1.000000 0.607843
0.187684 1.000000 0.581863
0.259559 1.000000 0.504167
0.692831 1.000000 0.481679
0.973652 0.995588 0.484559
1.000000 0.985294 0.414093
1.000000 0.728431 0.168137
0.276961 1.000000 0.657598
0.274755 1.000000 0.651930
0.280576 1.000000 0.646078
0.297457 1.000000 0.635049
0.382598 1.000000 0.606127
0.660999 1.000000 0.620006
0.925980 1.000000 0.637990
1.000000 1.000000 0.593352
1.000000 1.000000 0.428431
0.635294 1.000000 0.796078
0.619608 1.000000 0.786275
0.631373 1.000000 0.790196
0.653431 1.000000 0.798039
0.702941 1.000000 0.811765
0.782353 1.000000 0.823039
0.925490 1.000000 0.834314
1.000000 1.000000 0.842892
1.000000 1.000000 0.847059
0.057843 0.000000 0.683824
0.123529 0.000000 0.691483
0.197917 0.000000 0.699142
0.360355 0.000000 0.700429
0.562255 0.000000 0.685539
0.814706 0.000000 0.723039
1.000000 0.012745 0.826961
1.000000 0.047855 0.906863
1.000000 0.205882 0.928431
0.035294 0.003922 0.683150
0.059720 0.000161 0.682682
0.152926 0.000000 0.696446
0.335302 0.000000 0.702757
0.552359 0.000000 0.683241
0.807483 0.000000 0.718819
1.000000 0.011765 0.816345
1.000000 0.043896 0.899081
1.000000 0.143811 0.914216
0.000000 0.043505 0.710294
0.000000 0.025368 0.716176
0.072426 0.003033 0.740043
0.306510 0.000000 0.748729
0.578922 0.000000 0.732843
0.819317 0.000551 0.728799
1.000000 0.012745 0.824510
1.000000 0.051471 0.901731
1.000000 0.280025 0.937745
0.000000 0.182353 0.687745
0.000000 0.170895 0.694179
0.000000 0.149801 0.729519
0.119424 0.043911 0.781005
0.559038 0.000000 0.776930
0.866751 0.003922 0.767586
1.000000 0.012745 0.823897
1.000000 0.055699 0.897679
1.000000 0.382353 0.948591
0.000000 0.505147 0.679657
0.000000 0.501225 0.684651
0.000000 0.495098 0.696998
0.000000 0.473009 0.720558
0.466912 0.440319 0.779412
0.870159 0.314645 0.781863
1.000000 0.022978 0.806434
1.000000 0.059804 0.876440
1.000000 0.502941 0.960294
0.019424 0.785784 0.726042
0.021032 0.784314 0.725973
0.029519 0.784314 0.724571
0.061336 0.779818 0.724364
0.256373 0.774050 0.722825
0.755162 0.754473 0.731518
1.000000 0.695588 0.730300
1.000000 0.153470 0.731273
1.000000 0.507353 0.934865
0.134314 0.993015 0.773039
0.137653 0.993015 0.767279
0.148284 0.993015 0.763205
0.178370 0.993015 0.750368
0.257782 0.988971 0.704534
0.665947 0.982843 0.708195
0.955668 0.971078 0.725490
1.000000 0.947181 0.696492
1.000000 0.615686 0.487500
0.273039 1.000000 0.768137
0.271262 1.000000 0.764216
0.276915 1.000000 0.759881
0.297059 1.000000 0.745895
0.401716 1.000000 0.726042
0.666192 1.000000 0.747059
0.917647 1.000000 0.767509
1.000000 1.000000 0.770136
1.000000 1.000000 0.707904
0.625980 1.000000 0.830392
0.615502 1.000000 0.824694
0.630392 1.000000 0.830025
0.653431 1.000000 0.834314
0.710539 1.000000 0.851225
0.791115 1.000000 0.861765
0.922181 1.000000 0.875980
1.000000 1.000000 0.881679
1.000000 1.000000 0.856373
0.038235 0.022549 0.944118
0.108824 0.010172 0.947059
0.189216 0.000245 0.954902
0.358211 0.000000 0.958824
0.598529 0.000000 0.950000
0.809926 0.000000 0.915074
1.000000 0.012500 0.981618
1.000000 0.039706 1.000000
1.000000 0.074510 1.000000
0.021936 0.025980 0.935784
0.043566 0.021124 0.934865
0.138940 0.005760 0.942739
0.323208 0.000000 0.954044
0.584314 0.000000 0.946078
0.803554 0.000000 0.908808
1.000000 0.011765 0.974724
1.000000 0.038725 1.000000
1.000000 0.066667 1.000000
0.000000 0.092402 0.945343
0.000000 0.078922 0.949510
0.032292 0.030392 0.976838
0.266667 0.000000 0.983211
0.583701 0.000000 0.982353
0.826501 0.000000 0.937837
1.000000 0.012745 0.986581
1.000000 0.043627 1.000000
1.000000 0.145098 1.000000
0.000000 0.165196 0.908333
0.000000 0.158701 0.915686
0.000000 0.145006 0.950245
0.018934 0.060555 0.994991
0.521936 0.000000 0.996507
0.881602 0.000689 0.993015
1.000000 0.012745 0.995588
1.000000 0.047457 1.000000
1.000000 0.280760 1.000000
0.000000 0.480882 0.883333
0.000000 0.476471 0.887194
0.000000 0.473162 0.903922
0.000000 0.450245 0.932721
0.383333 0.380882 0.991667
0.834559 0.232904 0.998529
1.000000 0.032353 1.000000
1.000000 0.051838 1.000000
1.000000 0.484314 1.000000
0.000000 0.761887 0.883211
0.000000 0.760784 0.885248
0.000000 0.760784 0.888021
0.000000 0.752941 0.897809
0.067341 0.739645 0.925245
0.722059 0.714966 0.942463
0.997794 0.643137 0.946078
1.000000 0.103539 0.999035
1.000000 0.490319 0.995956
0.136520 0.967647 0.914706
0.138695 0.967647 0.914583
0.146752 0.967096 0.913725
0.170343 0.963817 0.913725
0.233456 0.955270 0.906618
0.650980 0.947304 0.906985
0.937255 0.941176 0.916728
1.000000 0.906832 0.917096
1.000000 0.427451 0.941422
0.263848 1.000000 0.908824
0.264599 1.000000 0.905882
0.268903 1.000000 0.905392
0.286765 1.000000 0.900628
0.361703 1.000000 0.888419
0.666345 1.000000 0.894439
0.908395 1.000000 0.916912
1.000000 1.000000 0.925812
1.000000 1.000000 0.900368
0.595098 1.000000 0.904902
0.589338 1.000000 0.900980
0.609069 1.000000 0.904902
0.639216 1.000000 0.907843
0.707843 1.000000 0.914216
0.801961 1.000000 0.921691
0.921569 1.000000 0.936275
1.000000 1.000000 0.947059
1.000000 1.000000 0.947059
0.000000 0.150490 1.000000
0.000000 0.131801 1.000000
0.000000 0.102328 1.000000
0.180208 0.008027 1.000000
0.547059 0.000000 1.000000
0.873223 0.000000 1.000000
1.000000 0.004902 1.000000
1.000000 0.027512 1.000000
1.000000 0.058824 1.000000
0.000000 0.142157 1.000000
0.000000 0.138235 1.000000
0.000000 0.113006 1.000000
0.152941 0.013343 1.000000
0.533854 0.000000 1.000000
0.863641 0.000000 1.000000
1.000000 0.004902 1.000000
1.000000 0.027451 1.000000
1.000000 0.054841 1.000000
0.000000 0.164706 1.000000
0.000000 0.161152 1.000000
0.000000 0.163817 1.000000
0.004289 0.092448 1.000000
0.485355 0.000000 1.000000
0.863496 0.000000 1.000000
1.000000 0.004902 1.000000
1.000000 0.031373 1.000000
1.000000 0.069240 1.000000
0.000000 0.246385 0.997549
0.000000 0.239989 0.999732
0.000000 0.261734 1.000000
0.000000 0.247986 1.000000
0.394945 0.086336 1.000000
0.829236 0.005101 1.000000
1.000000 0.013909 1.000000
1.000000 0.031434 1.000000
1.000000 0.089154 1.000000
0.000000 0.512745 0.975245
0.000000 0.512255 0.978952
0.000000 0.518811 0.990564
0.000000 0.508977 1.000000
0.250980 0.476961 1.000000
0.769424 0.385723 1.000000
1.000000 0.078125 1.000000
1.000000 0.035355 1.000000
1.000000 0.346814 1.000000
0.000000 0.768934 0.960294
0.000000 0.768934 0.962906
0.000000 0.769118 0.966973
0.000000 0.765081 0.973346
0.034406 0.749571 0.996814
0.681572 0.724816 0.992042
0.987086 0.657169 0.998529
1.000000 0.142800 1.000000
1.000000 0.361765 1.000000
0.010539 0.956863 0.981863
0.009314 0.956495 0.981863
0.011029 0.956863 0.982016
0.029213 0.952941 0.984804
0.148713 0.944853 0.984804
0.604412 0.927941 0.984804
0.922549 0.926746 0.995313
1.000000 0.884559 0.996186
1.000000 0.287132 1.000000
0.261213 1.000000 0.977390
0.261589 1.000000 0.976961
0.268627 1.000000 0.976961
0.282843 1.000000 0.976961
0.338695 1.000000 0.976961
0.651287 1.000000 0.974816
0.902895 1.000000 0.984926
1.000000 1.000000 0.992647
1.000000 1.000000 0.996140
0.555882 1.000000 0.965686
0.551961 1.000000 0.965686
0.575000 1.000000 0.969118
0.612255 1.000000 0.969118
0.687990 1.000000 0.973039
0.785784 1.000000 0.976961
0.921569 1.000000 0.981863
1.000000 1.000000 0.992647
1.000000 1.000000 0.996078
0.000000 0.250980 1.000000
0.000000 0.220098 1.000000
0.000000 0.204902 1.000000
0.000000 0.157353 1.000000
0.396078 0.001961 1.000000
0.821569 0.000000 1.000000
1.000000 0.006863 1.000000
1.000000 0.019608 1.000000
1.000000 0.039216 1.000000
0.000000 0.211275 1.000000
0.000000 0.207843 1.000000
0.000000 0.195588 1.000000
0.000000 0.148529 1.000000
0.407108 0.000000 1.000000
0.821752 0.000000 1.000000
1.000000 0.003922 1.000000
1.000000 0.016176 1.000000
1.000000 0.039216 1.000000
0.000000 0.244118 1.000000
0.000000 0.244118 1.000000
0.000000 0.361275 1.000000
0.000000 0.334191 1.000000
0.287745 0.227941 1.000000
0.771936 0.044730 1.000000
1.000000 0.022549 1.000000
1.000000 0.019608 1.000000
1.000000 0.043137 1.000000
0.000000 0.376961 1.000000
0.000000 0.376287 1.000000
0.000000 0.457843 1.000000
0.000000 0.495772 1.000000
0.156618 0.442647 1.000000
0.743627 0.360233 1.000000
1.000000 0.051348 1.000000
1.000000 0.019608 1.000000
1.000000 0.050980 1.000000
0.000000 0.574510 0.994118
0.000000 0.574265 0.995833
0.000000 0.612255 0.999510
0.000000 0.629167 1.000000
0.008824 0.667647 1.000000
0.675980 0.648775 0.993627
0.997059 0.539216 1.000000
1.000000 0.030392 1.000000
1.000000 0.062745 1.000000
0.000000 0.793137 0.985784
0.000000 0.794608 0.987071
0.000000 0.804902 0.990074
0.000000 0.808824 0.993627
0.000000 0.812745 1.000000
0.625490 0.804350 0.988235
0.946201 0.763725 0.996078
1.000000 0.538297 1.000000
1.000000 0.066667 1.000000
0.000980 0.960784 0.997059
0.000980 0.960784 0.997059
0.001961 0.963725 1.000000
0.004902 0.961887 1.000000
0.148039 0.954412 0.996078
0.608211 0.939828 0.988235
0.906863 0.940931 0.999265
1.000000 0.906495 1.000000
1.000000 0.491176 1.000000
0.261765 1.000000 0.992157
0.261765 1.000000 0.992157
0.269608 1.000000 0.992157
0.283517 1.000000 0.992157
0.349755 1.000000 0.990196
0.636581 1.000000 0.988235
0.892157 1.000000 0.997059
1.000000 1.000000 1.000000
1.000000 1.000000 1.000000
0.541176 1.000000 0.988235
0.536765 1.000000 0.988235
0.563725 1.000000 0.988235
0.608824 1.000000 0.988235
0.684314 1.000000 0.988235
0.782353 1.000000 0.992157
0.917647 1.000000 1.000000
1.000000 1.000000 1.000000
1.000000 1.000000 1.000000
