SUNSET_LUT.cube
#Generated with IWLTBAP LUT Generator 2.1
#Website: https://luts.iwltbap.com
TITLE "SUNSET LUT"
LUT_3D_SIZE 5
0.003922 0.007843 0.000000
0.121569 0.003922 0.000000
0.437255 0.000000 0.011765
0.830392 0.072549 0.315686
0.921569 0.168627 0.572549
0.003922 0.130392 0.007843
0.122304 0.129412 0.003922
0.448529 0.086275 0.000490
0.837255 0.129412 0.297059
0.921569 0.210784 0.572549
0.049020 0.511765 0.180392
0.125490 0.511765 0.150000
0.515686 0.514706 0.033333
0.846569 0.367647 0.134804
0.921569 0.315686 0.556863
0.314706 0.859804 0.527451
0.338235 0.856863 0.509559
0.469118 0.842647 0.398529
0.837255 0.855147 0.358824
0.914706 0.702941 0.115686
0.596078 0.929412 0.682353
0.564706 0.925490 0.654902
0.641176 0.927451 0.662745
0.817647 0.946078 0.705882
0.937255 0.960784 0.701961
0.003922 0.007843 0.102941
0.130392 0.003922 0.095098
0.454902 0.001471 0.111275
0.845098 0.095343 0.392157
0.922549 0.199020 0.602941
0.000000 0.129412 0.099755
0.135233 0.132782 0.108701
0.474632 0.088235 0.090564
0.839277 0.135968 0.353186
0.925490 0.290196 0.637255
0.047059 0.513725 0.239216
0.119608 0.507843 0.205882
0.507353 0.506863 0.097304
0.847917 0.344485 0.159804
0.925000 0.390686 0.643627
0.307843 0.859804 0.550000
0.335049 0.856863 0.534498
0.437623 0.841176 0.421078
0.835600 0.852696 0.370588
0.906863 0.670833 0.189216
0.596078 0.929412 0.693137
0.584314 0.925490 0.678431
0.645098 0.929412 0.677941
0.813725 0.946078 0.713725
0.933333 0.960784 0.709804
0.019608 0.017647 0.401961
0.149510 0.007843 0.398529
0.457843 0.003922 0.361765
0.841176 0.093137 0.552451
0.925490 0.229412 0.660784
0.011765 0.117157 0.418627
0.117647 0.105760 0.436275
0.475245 0.092157 0.378431
0.840809 0.146936 0.536520
0.927941 0.322059 0.701961
0.003922 0.499020 0.469608
0.094853 0.500980 0.472549
0.539706 0.536765 0.497059
0.858088 0.282598 0.449755
0.938235 0.489216 0.755882
0.275490 0.862745 0.646569
0.309314 0.860784 0.631373
0.442402 0.849020 0.571569
0.825735 0.852941 0.503431
0.907843 0.619608 0.365686
0.582353 0.931373 0.721569
0.572059 0.929412 0.708333
0.641176 0.929412 0.713725
0.813725 0.946078 0.744118
0.933333 0.960784 0.729412
0.094118 0.103922 0.761765
0.212745 0.080637 0.750980
0.526471 0.050000 0.712745
0.851225 0.122549 0.772549
0.921569 0.163725 0.801961
0.071569 0.180147 0.782598
0.155637 0.161520 0.784865
0.523897 0.119730 0.736397
0.849020 0.164706 0.775551
0.925490 0.248775 0.812745
0.047059 0.498039 0.818627
0.126471 0.491544 0.826471
0.453676 0.437500 0.864461
0.853064 0.271569 0.787255
0.948529 0.533824 0.852451
0.163971 0.863971 0.862745
0.198284 0.860233 0.857843
0.329044 0.847549 0.839093
0.845343 0.864400 0.835049
0.937255 0.561029 0.797059
0.512745 0.937255 0.814706
0.511765 0.937255 0.809804
0.604902 0.941176 0.805882
0.815686 0.961765 0.834314
0.949020 0.980392 0.857843
0.098039 0.258824 0.937255
0.150980 0.228431 0.933333
0.423529 0.072549 0.878431
0.851961 0.109804 0.870588
0.921569 0.141176 0.878431
0.097059 0.284314 0.932353
0.151961 0.372304 0.951225
0.401471 0.278922 0.933824
0.855882 0.171569 0.875245
0.921569 0.179412 0.878431
0.060784 0.566667 0.952941
0.116176 0.591176 0.956863
0.240196 0.628431 0.961765
0.879412 0.580882 0.927451
0.917647 0.272549 0.878431
0.064706 0.853922 0.973529
0.118873 0.852941 0.970343
0.268627 0.845098 0.966176
0.811029 0.853922 0.971569
0.925490 0.473529 0.894118
0.450980 0.941176 0.945098
0.454902 0.941176 0.945098
0.572549 0.941176 0.941176
0.796078 0.968627 0.950000
0.964706 0.992157 0.968627
