SUNSET_LUT.cube
#Generated with IWLTBAP LUT Generator 2.1
#Website: https://luts.iwltbap.com
TITLE "SUNSET LUT"
LUT_3D_SIZE 33
0.003922 0.007843 0.000000
0.007843 0.007843 0.000000
0.015441 0.003922 0.000000
0.026716 0.003922 0.000000
0.038235 0.003922 0.000000
0.056985 0.004534 0.000000
0.076961 0.003922 0.000000
0.096324 0.003922 0.000000
0.121569 0.003922 0.000000
0.148529 0.003922 0.000000
0.175490 0.003922 0.002696
0.212868 0.003922 0.003922
0.255392 0.003922 0.001471
0.300245 0.001593 0.000000
0.342647 0.000000 0.003922
0.388971 0.000000 0.006005
0.437255 0.000000 0.011765
0.485539 0.000000 0.023284
0.535784 0.003922 0.042647
0.586029 0.005515 0.069118
0.637745 0.013235 0.114706
0.693137 0.022304 0.166299
0.745833 0.037745 0.216422
0.793750 0.054289 0.269363
0.830392 0.072549 0.315686
0.851838 0.091912 0.361152
0.859559 0.107353 0.395833
0.871201 0.121569 0.437132
0.878922 0.121569 0.464216
0.890564 0.121936 0.491299
0.898529 0.125490 0.514461
0.910049 0.130025 0.537745
0.921569 0.168627 0.572549
0.003922 0.011642 0.000000
0.007843 0.011642 0.000000
0.015441 0.011642 0.000000
0.023162 0.011642 0.000000
0.038235 0.011642 0.000000
0.053780 0.011642 0.000000
0.076225 0.008555 0.000000
0.096324 0.007843 0.000000
0.122549 0.007843 0.000000
0.148529 0.007843 0.002731
0.179412 0.007843 0.003922
0.216789 0.007843 0.003922
0.257843 0.007721 0.003845
0.304167 0.003922 0.003922
0.346569 0.003922 0.003922
0.392770 0.003922 0.006005
0.441115 0.003922 0.009804
0.489461 0.003922 0.021504
0.539637 0.007721 0.040441
0.591494 0.009386 0.069118
0.641667 0.017034 0.110784
0.699552 0.028719 0.162500
0.749755 0.041582 0.216422
0.797672 0.060907 0.269363
0.830392 0.076471 0.315686
0.851838 0.092743 0.357230
0.859559 0.111152 0.395833
0.871201 0.125387 0.433927
0.879412 0.125490 0.464216
0.890564 0.125490 0.487856
0.898529 0.125728 0.514461
0.910049 0.133824 0.537745
0.925490 0.172426 0.572549
0.003922 0.015441 0.000000
0.007843 0.015441 0.000000
0.015441 0.015441 0.000000
0.023162 0.015441 0.000000
0.038235 0.015441 0.000000
0.053676 0.015441 0.000000
0.076225 0.015441 0.000000
0.095466 0.015441 0.000000
0.121569 0.015441 0.000000
0.148529 0.015441 0.003853
0.179412 0.015441 0.003922
0.216789 0.015441 0.003922
0.257843 0.011612 0.003922
0.304167 0.009337 0.003922
0.350352 0.007843 0.003922
0.396569 0.007843 0.006005
0.444853 0.007843 0.009804
0.493137 0.009566 0.019363
0.541422 0.011627 0.038833
0.591544 0.015541 0.069118
0.645588 0.021078 0.110784
0.699632 0.033824 0.162377
0.752451 0.049265 0.216422
0.797672 0.064706 0.266544
0.830392 0.080392 0.315686
0.851838 0.095833 0.357230
0.859559 0.111275 0.395833
0.871201 0.126065 0.433824
0.879412 0.129167 0.464216
0.890564 0.129167 0.487745
0.898529 0.129412 0.514461
0.913848 0.137508 0.537745
0.925490 0.172549 0.572549
0.003922 0.023162 0.000000
0.007721 0.023162 0.000000
0.015441 0.023162 0.000000
0.023162 0.023162 0.000000
0.038235 0.023162 0.000000
0.053676 0.023162 0.000000
0.073338 0.023162 0.000000
0.095466 0.023162 0.000000
0.121569 0.023162 0.000000
0.148529 0.023162 0.003922
0.179412 0.023162 0.003922
0.216789 0.023162 0.003922
0.259176 0.020573 0.003922
0.306277 0.016912 0.003922
0.354044 0.015319 0.003922
0.396814 0.015319 0.006005
0.445098 0.015319 0.009804
0.493382 0.015319 0.019363
0.543421 0.019240 0.036520
0.595316 0.023162 0.066789
0.647809 0.028554 0.110784
0.700854 0.040196 0.162377
0.752451 0.055622 0.215311
0.797672 0.068608 0.266544
0.831281 0.084314 0.314798
0.851838 0.099755 0.357230
0.859559 0.115196 0.395833
0.871201 0.129967 0.433824
0.878922 0.132966 0.464216
0.890564 0.132966 0.487745
0.898529 0.132989 0.514461
0.910049 0.141299 0.537745
0.925490 0.176471 0.572549
0.003922 0.038235 0.003922
0.007721 0.038235 0.003431
0.015441 0.038235 0.003431
0.026271 0.038235 0.003431
0.038235 0.038235 0.000429
0.053676 0.038235 0.000000
0.075827 0.038235 0.000000
0.095466 0.035172 0.000000
0.121569 0.034314 0.000000
0.151961 0.034314 0.003922
0.183180 0.034314 0.003922
0.220221 0.034314 0.003922
0.261458 0.030576 0.003922
0.307889 0.028355 0.003922
0.354412 0.026471 0.003922
0.400735 0.026471 0.004182
0.449020 0.026471 0.009804
0.497304 0.026961 0.017754
0.545129 0.028462 0.036520
0.595466 0.032475 0.065196
0.649510 0.040196 0.106863
0.703554 0.051517 0.158778
0.756036 0.064553 0.212500
0.797672 0.076225 0.265441
0.831373 0.091667 0.314706
0.851838 0.107108 0.357230
0.859559 0.121906 0.395190
0.871201 0.133869 0.433824
0.878983 0.136765 0.460784
0.890564 0.136765 0.487745
0.898989 0.137010 0.511244
0.910524 0.145098 0.537745
0.925490 0.180392 0.572549
0.003922 0.056985 0.003922
0.007721 0.056985 0.003922
0.015441 0.056985 0.003922
0.026716 0.053987 0.003922
0.038235 0.056985 0.003922
0.053676 0.056985 0.003922
0.076225 0.056985 0.003424
0.098775 0.053676 0.000000
0.122549 0.050582 0.003309
0.152451 0.049755 0.003922
0.183333 0.046446 0.003922
0.222882 0.045833 0.003922
0.265074 0.045833 0.003922
0.308088 0.041912 0.000000
0.354412 0.038258 0.002474
0.400735 0.037990 0.003922
0.449020 0.037990 0.009804
0.500613 0.038603 0.017525
0.547204 0.041912 0.032598
0.599138 0.046082 0.061523
0.651578 0.051838 0.102941
0.705725 0.062868 0.155147
0.756373 0.074701 0.209191
0.801593 0.086324 0.262623
0.834314 0.099387 0.311765
0.851838 0.113971 0.353788
0.859559 0.126348 0.391912
0.871201 0.140564 0.433307
0.878922 0.141176 0.460784
0.890564 0.141176 0.487377
0.898529 0.141383 0.510784
0.910049 0.148916 0.537745
0.925490 0.187623 0.572549
0.003922 0.080147 0.003922
0.007721 0.080147 0.003922
0.015441 0.077160 0.003922
0.026716 0.076225 0.003922
0.038235 0.076869 0.003922
0.056365 0.080147 0.003922
0.076225 0.080147 0.003922
0.099387 0.076225 0.003186
0.126287 0.073284 0.003125
0.155637 0.070014 0.003922
0.185524 0.068382 0.003416
0.223284 0.065196 0.001095
0.267616 0.061275 0.000460
0.312868 0.061275 0.000000
0.355806 0.057353 0.000414
0.400735 0.054925 0.003922
0.450980 0.053431 0.005882
0.501225 0.057353 0.015441
0.551471 0.057675 0.030882
0.603010 0.061573 0.055461
0.653431 0.066667 0.095833
0.707475 0.075123 0.150866
0.759789 0.086259 0.205392
0.801593 0.097878 0.259229
0.834314 0.110049 0.307843
0.851838 0.121691 0.350123
0.859559 0.134069 0.388725
0.871201 0.148284 0.429902
0.878922 0.148284 0.460386
0.887676 0.152206 0.487377
0.898529 0.152206 0.510784
0.910049 0.156717 0.537745
0.922304 0.195343 0.572549
0.003922 0.103309 0.006985
0.007843 0.103309 0.004017
0.015441 0.103309 0.003922
0.023162 0.099674 0.003922
0.038235 0.102451 0.003922
0.056985 0.103309 0.003922
0.076225 0.103309 0.003922
0.096136 0.102639 0.003922
0.128646 0.099510 0.003922
0.160294 0.092647 0.003922
0.191276 0.088848 0.003922
0.227696 0.085049 0.003922
0.268750 0.081250 0.001149
0.312010 0.076716 0.000000
0.358333 0.074134 0.000000
0.401716 0.072338 0.000456
0.447488 0.068873 0.002390
0.501628 0.070711 0.008456
0.553186 0.072794 0.025613
0.605637 0.076716 0.052187
0.657031 0.082108 0.088649
0.710834 0.089828 0.144681
0.760294 0.097817 0.200735
0.805273 0.106989 0.254779
0.834314 0.118536 0.304565
0.851838 0.130082 0.346324
0.859559 0.141789 0.384926
0.871201 0.156005 0.426838
0.878922 0.156005 0.456863
0.887010 0.159926 0.484601
0.898284 0.159926 0.510539
0.910049 0.164338 0.537745
0.921569 0.203064 0.571691
0.003922 0.130392 0.007843
0.007843 0.130392 0.007843
0.015441 0.129412 0.007843
0.025827 0.126746 0.006863
0.038235 0.129044 0.006863
0.056985 0.129412 0.006863
0.076225 0.129412 0.006863
0.095466 0.129626 0.006863
0.122304 0.129412 0.003922
0.159467 0.122672 0.003922
0.201042 0.114951 0.003922
0.242279 0.108211 0.003922
0.278431 0.102941 0.003922
0.316544 0.099020 0.002941
0.359620 0.093444 0.000000
0.404657 0.089614 0.000000
0.448529 0.086275 0.000490
0.499142 0.084314 0.004381
0.551961 0.088235 0.017892
0.607230 0.090411 0.043229
0.660294 0.096446 0.082230
0.714675 0.101348 0.133977
0.764216 0.110049 0.191850
0.807629 0.120711 0.247917
0.837255 0.129412 0.297059
0.851838 0.140288 0.342525
0.859559 0.149510 0.381127
0.871201 0.164338 0.425980
0.878922 0.167647 0.456863
0.887898 0.167647 0.483824
0.898346 0.167647 0.510539
0.910049 0.175980 0.537745
0.921569 0.210784 0.572549
0.003922 0.160294 0.011765
0.007843 0.160294 0.010696
0.015441 0.157475 0.010662
0.023162 0.156373 0.008107
0.038235 0.156373 0.007843
0.053676 0.156373 0.007843
0.073935 0.157475 0.007843
0.095466 0.160294 0.007843
0.118627 0.160294 0.007016
0.149322 0.157475 0.003922
0.196791 0.148997 0.003922
0.252585 0.136263 0.003922
0.298775 0.127574 0.003922
0.335417 0.122181 0.003922
0.369608 0.116054 0.003301
0.409314 0.112255 0.001321
0.452390 0.107047 0.000000
0.497304 0.103159 0.000517
0.546446 0.100237 0.006740
0.605557 0.105270 0.030434
0.664093 0.109758 0.071201
0.718516 0.116789 0.125613
0.768137 0.124510 0.182230
0.811462 0.132230 0.237377
0.837960 0.141054 0.289338
0.851838 0.148775 0.335420
0.859559 0.160417 0.377328
0.867892 0.172059 0.419681
0.878922 0.175720 0.452941
0.887010 0.178186 0.480902
0.898284 0.175613 0.506687
0.910015 0.183701 0.533946
0.921569 0.218505 0.568627
0.003922 0.193873 0.014461
0.007721 0.193873 0.014461
0.015441 0.191176 0.014461
0.023162 0.190066 0.011765
0.034804 0.189951 0.010692
0.050789 0.189951 0.007843
0.070113 0.190947 0.007843
0.091544 0.193283 0.007843
0.114706 0.194792 0.007843
0.138748 0.194217 0.006962
0.181097 0.193030 0.003922
0.244416 0.179657 0.001731
0.308487 0.164982 0.006373
0.359812 0.153056 0.007843
0.398284 0.145833 0.007154
0.430882 0.142034 0.005185
0.467525 0.134314 0.003922
0.506005 0.127168 0.002696
0.546860 0.121814 0.003922
0.594868 0.117295 0.007736
0.656893 0.121354 0.043413
0.720588 0.129113 0.106388
0.772059 0.136029 0.167892
0.814951 0.143750 0.221936
0.840257 0.152696 0.278922
0.851838 0.160417 0.324977
0.859559 0.168873 0.369608
0.868926 0.182475 0.415862
0.878922 0.187010 0.449020
0.886642 0.187010 0.477091
0.898284 0.187178 0.504090
0.909965 0.195343 0.533862
0.921569 0.230147 0.568627
0.003922 0.235049 0.022181
0.007721 0.235049 0.022181
0.015441 0.232636 0.018505
0.023162 0.231127 0.018260
0.034314 0.231127 0.014338
0.049755 0.228554 0.012167
0.066544 0.228554 0.008326
0.085612 0.231618 0.007843
0.108211 0.236060 0.011428
0.137144 0.238971 0.010796
0.166000 0.241965 0.007721
0.227206 0.237201 0.003922
0.299265 0.223529 0.003416
0.369723 0.204967 0.009126
0.426915 0.190832 0.015786
0.467053 0.180618 0.016912
0.502390 0.174265 0.014951
0.536500 0.163971 0.011784
0.569930 0.154366 0.007943
0.603424 0.143562 0.005997
0.644286 0.137638 0.013649
0.708946 0.138944 0.059900
0.771515 0.148897 0.137148
0.816900 0.156618 0.203922
0.841176 0.164001 0.257966
0.851838 0.170711 0.309804
0.859559 0.179779 0.358218
0.870064 0.191422 0.408333
0.878922 0.198652 0.445098
0.886642 0.198652 0.473280
0.895872 0.198813 0.500368
0.910007 0.206985 0.533824
0.921569 0.241789 0.568627
0.006373 0.286275 0.038725
0.010218 0.286320 0.038725
0.017892 0.283824 0.035049
0.025613 0.282491 0.031250
0.036949 0.280208 0.028738
0.052206 0.279902 0.024893
0.067647 0.278707 0.019853
0.084559 0.279366 0.014752
0.104412 0.283211 0.014216
0.133257 0.288802 0.018137
0.163725 0.292678 0.018137
0.201547 0.294623 0.013251
0.280515 0.286826 0.004841
0.356235 0.272304 0.004795
0.428983 0.252941 0.014369
0.487531 0.238281 0.028906
0.536029 0.224265 0.033578
0.575169 0.215319 0.032966
0.607353 0.203676 0.027696
0.638235 0.190441 0.020573
0.668199 0.173100 0.015748
0.700781 0.161903 0.025674
0.758303 0.156618 0.073468
0.814828 0.165441 0.159635
0.845098 0.175980 0.232353
0.854289 0.182230 0.286933
0.859559 0.188235 0.340962
0.867662 0.201823 0.395236
0.877635 0.210294 0.438725
0.886642 0.210294 0.469470
0.895987 0.210539 0.496569
0.910049 0.221078 0.530025
0.921569 0.253431 0.566176
0.010172 0.339461 0.065809
0.015636 0.337990 0.064265
0.021691 0.337868 0.061887
0.030856 0.337868 0.058184
0.042448 0.337868 0.052941
0.056005 0.337619 0.049142
0.071745 0.336275 0.043015
0.086887 0.332701 0.034049
0.102941 0.333364 0.028186
0.127248 0.338358 0.027531
0.159076 0.344485 0.029282
0.194853 0.348284 0.031062
0.244807 0.348637 0.017770
0.336412 0.337868 0.005813
0.413480 0.325329 0.004818
0.486910 0.310061 0.021347
0.546262 0.293873 0.046262
0.600846 0.279178 0.057820
0.640725 0.265280 0.059597
0.673863 0.251681 0.053186
0.704795 0.232230 0.044868
0.733333 0.209616 0.036765
0.762630 0.187263 0.042165
0.800816 0.172059 0.077164
0.839828 0.182353 0.158548
0.855760 0.193241 0.245975
0.861451 0.199142 0.308402
0.867528 0.210784 0.377447
0.876884 0.222227 0.425245
0.886642 0.224265 0.461887
0.898284 0.224510 0.495098
0.910049 0.236397 0.529952
0.921569 0.265074 0.564706
0.017892 0.394118 0.093382
0.023951 0.394118 0.091245
0.029412 0.394118 0.091176
0.037132 0.392119 0.087255
0.048775 0.391912 0.083824
0.061864 0.391912 0.079756
0.077374 0.391912 0.075490
0.090686 0.391912 0.067165
0.106127 0.390196 0.055699
0.123284 0.389223 0.046454
0.151624 0.394608 0.044317
0.190296 0.399755 0.048407
0.236029 0.403676 0.046232
0.296025 0.403968 0.028592
0.393214 0.391912 0.009773
0.472128 0.382475 0.003768
0.544853 0.369975 0.031495
0.608946 0.355637 0.067088
0.659559 0.340196 0.088695
0.701877 0.324755 0.092685
0.736275 0.306464 0.086275
0.767157 0.284092 0.077796
0.792892 0.253968 0.068627
0.814951 0.214821 0.060417
0.836520 0.196507 0.081066
0.854036 0.197794 0.152428
0.863480 0.208655 0.252374
0.870588 0.218505 0.340962
0.877145 0.230423 0.406434
0.886642 0.236152 0.452535
0.898284 0.239951 0.491284
0.910049 0.251838 0.527765
0.921569 0.278922 0.560784
0.029534 0.449877 0.130147
0.035417 0.449877 0.130147
0.039331 0.449877 0.128194
0.048602 0.449877 0.126225
0.060187 0.449877 0.122534
0.071446 0.449877 0.116625
0.085394 0.449877 0.112768
0.098407 0.449877 0.107020
0.113848 0.448499 0.096814
0.129289 0.448039 0.085294
0.149265 0.449303 0.072381
0.180128 0.452451 0.071078
0.230760 0.457721 0.074219
0.284804 0.458812 0.065330
0.351180 0.460746 0.041981
0.453083 0.449992 0.017884
0.534130 0.441238 0.007721
0.604779 0.431736 0.044596
0.663902 0.421324 0.091828
0.713603 0.405136 0.118248
0.754534 0.388603 0.132077
0.787868 0.367892 0.126961
0.815686 0.341667 0.114744
0.832843 0.304316 0.097549
0.850123 0.257690 0.078401
0.859069 0.225751 0.083084
0.863871 0.218505 0.151394
0.872959 0.226225 0.271155
0.878922 0.238358 0.366820
0.886837 0.251593 0.435367
0.898529 0.259314 0.485417
0.910049 0.273219 0.525980
0.921569 0.294363 0.558701
0.049020 0.511765 0.180392
0.052880 0.511826 0.180392
0.056740 0.511765 0.176471
0.064338 0.509988 0.174694
0.072059 0.509804 0.172549
0.083395 0.511458 0.168627
0.098529 0.509804 0.161520
0.112010 0.511336 0.157292
0.125490 0.511765 0.150000
0.140931 0.511765 0.140319
0.156373 0.510417 0.122059
0.179596 0.511765 0.107230
0.221078 0.515686 0.103922
0.281373 0.518811 0.107047
0.341176 0.520711 0.090319
0.411275 0.524449 0.064216
0.515686 0.514706 0.033333
0.594975 0.504044 0.008762
0.658824 0.498284 0.050735
0.716238 0.488603 0.116238
0.759069 0.476225 0.150980
0.793627 0.460049 0.166054
0.822059 0.438848 0.171324
0.834436 0.411275 0.156066
0.846569 0.367647 0.134804
0.860110 0.315564 0.104841
0.867770 0.267647 0.084926
0.877083 0.242218 0.148223
0.882598 0.246324 0.281618
0.890564 0.267402 0.396017
0.902206 0.280760 0.468505
0.910049 0.296385 0.520221
0.921569 0.315686 0.556863
0.077941 0.575490 0.236397
0.081863 0.575490 0.236397
0.085654 0.575490 0.232590
0.089706 0.575490 0.230587
0.097059 0.575490 0.228554
0.106537 0.575490 0.224632
0.118505 0.575490 0.219018
0.129745 0.575490 0.213725
0.143352 0.573652 0.207384
0.156836 0.575490 0.200708
0.171691 0.574058 0.185784
0.188500 0.573652 0.165215
0.219317 0.573652 0.148361
0.274020 0.576727 0.145600
0.342333 0.577574 0.146852
0.400004 0.583578 0.119983
0.475000 0.587255 0.094179
0.579557 0.576467 0.058349
0.650069 0.565794 0.012600
0.708946 0.562879 0.058310
0.762286 0.556250 0.134559
0.795466 0.545730 0.174039
0.820627 0.533502 0.188028
0.832475 0.512868 0.188971
0.840196 0.486121 0.181005
0.848162 0.443417 0.168539
0.860539 0.385218 0.138159
0.875942 0.311106 0.098759
0.890916 0.271538 0.121293
0.896324 0.279117 0.311849
0.902206 0.302321 0.430752
0.913848 0.321324 0.505082
0.925490 0.338848 0.552941
0.114461 0.637255 0.294363
0.116598 0.635593 0.290441
0.118275 0.635539 0.286765
0.122143 0.633540 0.286520
0.127941 0.633333 0.282598
0.135662 0.633333 0.278945
0.143382 0.633333 0.275077
0.153309 0.633333 0.269485
0.164951 0.631618 0.263971
0.176593 0.631618 0.256250
0.190931 0.631618 0.246324
0.206373 0.630170 0.225613
0.224571 0.629412 0.202757
0.269286 0.630722 0.188358
0.336749 0.631618 0.189936
0.403730 0.633701 0.181288
0.462745 0.641422 0.152083
0.538680 0.647074 0.133471
0.633670 0.637255 0.092019
0.701225 0.627528 0.038396
0.756127 0.624663 0.071569
0.796423 0.618015 0.140962
0.823284 0.610294 0.180974
0.838113 0.599265 0.193873
0.844853 0.580086 0.189522
0.848775 0.552206 0.188235
0.855316 0.512822 0.181281
0.864461 0.442425 0.160486
0.880178 0.354197 0.113603
0.895136 0.321002 0.132904
0.906235 0.317570 0.343122
0.915633 0.346622 0.473338
0.925490 0.363725 0.543382
0.153064 0.695098 0.348407
0.153064 0.693505 0.344485
0.156985 0.693505 0.340809
0.160539 0.691176 0.339120
0.164338 0.690977 0.336642
0.168501 0.691176 0.333084
0.175858 0.689583 0.329236
0.185907 0.689583 0.325387
0.194822 0.689583 0.318015
0.206415 0.687255 0.310294
0.218513 0.685662 0.298652
0.231127 0.685662 0.286282
0.246569 0.685662 0.261765
0.275682 0.684069 0.238515
0.333578 0.684069 0.228271
0.405748 0.684915 0.229511
0.468260 0.690748 0.211949
0.521779 0.700502 0.190943
0.595826 0.704251 0.176317
0.684206 0.696481 0.142731
0.747411 0.688251 0.091590
0.793382 0.682533 0.090667
0.824012 0.678186 0.141797
0.842567 0.669811 0.173529
0.851379 0.657108 0.170864
0.856495 0.640809 0.161520
0.860417 0.614147 0.168681
0.864702 0.571090 0.184314
0.869133 0.507001 0.180959
0.881495 0.404511 0.132901
0.899510 0.376225 0.180637
0.921618 0.367597 0.385026
0.927083 0.394608 0.524632
0.197059 0.747549 0.397059
0.197059 0.746078 0.393183
0.199357 0.743781 0.390839
0.200980 0.743627 0.389216
0.204718 0.743627 0.385478
0.208594 0.743627 0.383226
0.214461 0.743627 0.379381
0.222181 0.742157 0.375536
0.229902 0.740319 0.369975
0.239384 0.739706 0.361106
0.250950 0.738235 0.352696
0.259436 0.738235 0.338480
0.273529 0.735784 0.320588
0.291881 0.734314 0.291176
0.336765 0.734314 0.273284
0.406296 0.734314 0.268949
0.475245 0.736275 0.264461
0.527007 0.743995 0.242693
0.576409 0.753094 0.232108
0.649678 0.753922 0.222396
0.728554 0.750000 0.195466
0.781618 0.740671 0.158180
0.819118 0.735784 0.136581
0.844286 0.731173 0.154733
0.857353 0.724510 0.152451
0.864216 0.712010 0.125169
0.868137 0.693382 0.109069
0.872059 0.664706 0.132047
0.875980 0.625551 0.170221
0.876440 0.555362 0.181235
0.885447 0.453585 0.163603
0.909727 0.419363 0.246446
0.929412 0.414706 0.496078
0.236765 0.791054 0.442034
0.238113 0.791054 0.438155
0.238113 0.791054 0.435539
0.241667 0.788480 0.431859
0.242034 0.787301 0.431618
0.245956 0.787132 0.428098
0.251968 0.787132 0.424510
0.256863 0.787132 0.420711
0.263572 0.784559 0.416912
0.271925 0.783590 0.409191
0.282598 0.783211 0.401471
0.290319 0.780637 0.387255
0.301455 0.779289 0.371814
0.315931 0.776961 0.348595
0.345175 0.775368 0.319707
0.405147 0.775368 0.308701
0.479779 0.774020 0.309375
0.537868 0.779779 0.296691
0.580270 0.787500 0.280882
0.628382 0.794175 0.277631
0.700352 0.794975 0.265824
0.768329 0.790169 0.246883
0.808280 0.784138 0.225651
0.837979 0.780258 0.206472
0.858793 0.775735 0.190227
0.867819 0.768015 0.158506
0.874763 0.757238 0.104779
0.879779 0.738568 0.059609
0.883701 0.711979 0.077114
0.887381 0.670481 0.134341
0.885126 0.583012 0.172733
0.893340 0.495217 0.194727
0.928064 0.452574 0.346691
0.271569 0.824510 0.480637
0.271569 0.823323 0.476716
0.272718 0.823284 0.475567
0.275490 0.823284 0.472794
0.278922 0.823284 0.471569
0.279412 0.820588 0.468873
0.286520 0.820588 0.465456
0.290319 0.820588 0.461887
0.297120 0.820588 0.458088
0.304534 0.817425 0.450368
0.312255 0.816667 0.442647
0.321201 0.815862 0.432353
0.330607 0.812745 0.416912
0.342165 0.811520 0.395948
0.360830 0.808824 0.367157
0.407560 0.806166 0.345795
0.483701 0.804902 0.345343
0.542930 0.807598 0.341713
0.586275 0.813235 0.326670
0.627574 0.820956 0.319853
0.676287 0.823284 0.317831
0.743559 0.823284 0.306618
0.798070 0.820588 0.295481
0.829534 0.815564 0.285493
0.851716 0.812745 0.269424
0.866299 0.808234 0.249801
0.874020 0.801976 0.210769
0.881932 0.793329 0.138764
0.887990 0.775888 0.070190
0.894233 0.752926 0.043229
0.895343 0.704381 0.096247
0.892731 0.597557 0.173920
0.906127 0.529902 0.224265
0.297426 0.849265 0.509191
0.300157 0.846446 0.505392
0.301279 0.845343 0.505270
0.301348 0.845343 0.501716
0.303814 0.845343 0.501348
0.307648 0.845343 0.498970
0.311481 0.845343 0.497426
0.316176 0.845343 0.493505
0.320680 0.842525 0.489859
0.327696 0.841732 0.483636
0.337354 0.841422 0.479044
0.346680 0.837879 0.467781
0.356541 0.837500 0.452650
0.365319 0.834027 0.432721
0.376961 0.831993 0.408456
0.408578 0.829657 0.382475
0.480699 0.828248 0.374449
0.546201 0.827642 0.378458
0.591307 0.831373 0.366789
0.629902 0.836845 0.356905
0.670098 0.842892 0.353431
0.720075 0.845343 0.348162
0.780101 0.845343 0.337623
0.821021 0.841422 0.333824
0.844271 0.837500 0.330300
0.860298 0.834681 0.320588
0.871117 0.833050 0.306288
0.878114 0.827769 0.269045
0.886765 0.823177 0.208088
0.894485 0.808437 0.136822
0.902030 0.782506 0.059161
0.906897 0.721059 0.083601
0.903064 0.604289 0.184436
0.314706 0.859804 0.527451
0.315686 0.859804 0.523652
0.318444 0.859804 0.523529
0.319516 0.859804 0.522641
0.319608 0.859804 0.519975
0.323529 0.859804 0.519608
0.327451 0.859804 0.515686
0.333670 0.859804 0.512623
0.338235 0.856863 0.509559
0.345956 0.856863 0.505025
0.353676 0.855882 0.501225
0.361397 0.853952 0.491575
0.372059 0.851961 0.479412
0.380760 0.849632 0.458701
0.390135 0.848039 0.435539
0.412255 0.844577 0.412377
0.469118 0.842647 0.398529
0.542616 0.840196 0.400398
0.592341 0.841912 0.395588
0.628922 0.846293 0.382322
0.665196 0.853431 0.377328
0.706158 0.855882 0.373162
0.759252 0.855882 0.362500
0.809589 0.858701 0.358824
0.837255 0.855147 0.358824
0.856403 0.852941 0.359804
0.867402 0.851961 0.356127
0.875123 0.849020 0.344393
0.882843 0.847672 0.314828
0.890839 0.841789 0.265594
0.901287 0.830699 0.202819
0.912806 0.801624 0.097763
0.914706 0.702941 0.115686
0.323284 0.867525 0.538113
0.326348 0.867525 0.535145
0.327152 0.867525 0.535049
0.330270 0.867525 0.534191
0.333808 0.867525 0.531510
0.334915 0.867525 0.531127
0.338971 0.867525 0.527780
0.345286 0.867525 0.526536
0.349755 0.865227 0.524050
0.356618 0.863603 0.520224
0.364338 0.863603 0.514851
0.372059 0.863603 0.508946
0.382552 0.860003 0.497304
0.391931 0.859172 0.481514
0.400000 0.855760 0.458701
0.413725 0.852240 0.431618
0.456005 0.851838 0.416299
0.528554 0.851436 0.417402
0.585907 0.850980 0.416544
0.623303 0.853431 0.407230
0.657475 0.859145 0.397181
0.697132 0.864656 0.389461
0.742892 0.867256 0.380882
0.791418 0.866908 0.370960
0.828676 0.863603 0.369485
0.852026 0.863603 0.373407
0.866705 0.860539 0.377489
0.875123 0.860405 0.373786
0.882843 0.859681 0.362745
0.890564 0.859314 0.332721
0.898284 0.855377 0.297710
0.906101 0.845178 0.245638
0.917647 0.799020 0.104779
0.334804 0.874510 0.549755
0.338703 0.874510 0.546668
0.338725 0.874510 0.545879
0.342578 0.874510 0.545833
0.345435 0.874510 0.542647
0.346569 0.874510 0.541912
0.353079 0.874510 0.541912
0.356901 0.874510 0.538151
0.364461 0.872120 0.535600
0.368467 0.871324 0.531778
0.375980 0.871324 0.527956
0.383701 0.871324 0.522557
0.391881 0.869332 0.512745
0.403064 0.867402 0.501402
0.411933 0.863802 0.482276
0.425245 0.861397 0.459046
0.456373 0.859559 0.438235
0.515732 0.859559 0.436152
0.577696 0.859559 0.439951
0.620167 0.859858 0.433456
0.654412 0.864951 0.421814
0.691184 0.871324 0.413358
0.730882 0.871324 0.401486
0.776593 0.871324 0.389867
0.814400 0.871324 0.382414
0.843543 0.870466 0.381863
