SUNSET_LUT.cube
#Generated with IWLTBAP LUT Generator 2.1
#Website: https://luts.iwltbap.com
TITLE "SUNSET LUT"
LUT_3D_SIZE 9
0.003922 0.007843 0.000000
0.038235 0.003922 0.000000
0.121569 0.003922 0.000000
0.255392 0.003922 0.001471
0.437255 0.000000 0.011765
0.637745 0.013235 0.114706
0.830392 0.072549 0.315686
0.878922 0.121569 0.464216
0.921569 0.168627 0.572549
0.003922 0.038235 0.003922
0.038235 0.038235 0.000429
0.121569 0.034314 0.000000
0.261458 0.030576 0.003922
0.449020 0.026471 0.009804
0.649510 0.040196 0.106863
0.831373 0.091667 0.314706
0.878983 0.136765 0.460784
0.925490 0.180392 0.572549
0.003922 0.130392 0.007843
0.038235 0.129044 0.006863
0.122304 0.129412 0.003922
0.278431 0.102941 0.003922
0.448529 0.086275 0.000490
0.660294 0.096446 0.082230
0.837255 0.129412 0.297059
0.878922 0.167647 0.456863
0.921569 0.210784 0.572549
0.006373 0.286275 0.038725
0.036949 0.280208 0.028738
0.104412 0.283211 0.014216
0.280515 0.286826 0.004841
0.536029 0.224265 0.033578
0.668199 0.173100 0.015748
0.845098 0.175980 0.232353
0.877635 0.210294 0.438725
0.921569 0.253431 0.566176
0.049020 0.511765 0.180392
0.072059 0.509804 0.172549
0.125490 0.511765 0.150000
0.221078 0.515686 0.103922
0.515686 0.514706 0.033333
0.759069 0.476225 0.150980
0.846569 0.367647 0.134804
0.882598 0.246324 0.281618
0.921569 0.315686 0.556863
0.197059 0.747549 0.397059
0.204718 0.743627 0.385478
0.229902 0.740319 0.369975
0.273529 0.735784 0.320588
0.475245 0.736275 0.264461
0.728554 0.750000 0.195466
0.857353 0.724510 0.152451
0.875980 0.625551 0.170221
0.929412 0.414706 0.496078
0.314706 0.859804 0.527451
0.319608 0.859804 0.519975
0.338235 0.856863 0.509559
0.372059 0.851961 0.479412
0.469118 0.842647 0.398529
0.665196 0.853431 0.377328
0.837255 0.855147 0.358824
0.882843 0.847672 0.314828
0.914706 0.702941 0.115686
0.374020 0.886765 0.573529
0.376961 0.886765 0.569118
0.391789 0.886765 0.561397
0.423346 0.884620 0.547549
0.499755 0.879167 0.514461
0.669301 0.883333 0.523223
0.795588 0.891176 0.469118
0.882904 0.890686 0.474020
0.913235 0.878922 0.341176
0.596078 0.929412 0.682353
0.564706 0.925980 0.662745
0.564706 0.925490 0.654902
0.585294 0.925490 0.654902
0.641176 0.927451 0.662745
0.722059 0.933333 0.679902
0.817647 0.946078 0.705882
0.879412 0.956863 0.690196
0.937255 0.960784 0.701961
0.003922 0.007843 0.026471
0.041667 0.007843 0.023039
0.130392 0.003922 0.026471
0.277451 0.001471 0.023039
0.456863 0.000000 0.040441
0.656863 0.014522 0.149510
0.834314 0.076471 0.334681
0.882843 0.121569 0.471630
0.925000 0.172059 0.576471
0.003922 0.038235 0.023039
0.040862 0.038235 0.026042
0.136566 0.034314 0.023039
0.277282 0.030392 0.023039
0.452451 0.026471 0.032843
0.653209 0.040196 0.124426
0.834314 0.091667 0.323039
0.879787 0.136765 0.468949
0.925490 0.187316 0.579902
0.003922 0.133333 0.037255
0.038235 0.130760 0.030760
0.123039 0.128922 0.025919
0.288894 0.102941 0.024004
0.459804 0.087745 0.023039
0.663113 0.096078 0.101777
0.837255 0.129412 0.308333
0.878922 0.166896 0.464323
0.921691 0.218137 0.579902
0.006373 0.287745 0.070895
0.037255 0.286458 0.061336
0.101838 0.281005 0.039476
0.281181 0.286826 0.024763
0.537255 0.222120 0.055453
0.670956 0.167823 0.035899
0.844730 0.175934 0.250322
0.876777 0.209007 0.450329
0.921569 0.267157 0.583517
0.047059 0.511765 0.199510
0.072059 0.510263 0.187990
0.123529 0.509804 0.165625
0.210784 0.512990 0.117157
0.514706 0.511765 0.052451
0.759069 0.472886 0.162990
0.847549 0.353431 0.136949
0.882598 0.255882 0.348805
0.921569 0.346324 0.597059
0.193137 0.747549 0.408824
0.201248 0.743627 0.398346
0.226210 0.742157 0.383241
0.270527 0.735784 0.335417
0.466759 0.734896 0.273438
0.726348 0.746630 0.200191
0.855270 0.718643 0.166360
0.872327 0.606618 0.181947
0.930882 0.452451 0.575000
0.311765 0.859804 0.535294
0.319164 0.859804 0.527451
0.335049 0.857598 0.519240
0.368750 0.852328 0.489844
0.454105 0.841176 0.404412
0.658701 0.851348 0.381786
0.835784 0.852696 0.362653
0.882843 0.844608 0.311290
0.908211 0.679412 0.151471
0.370098 0.886765 0.580453
0.373529 0.886765 0.573476
0.388235 0.886765 0.568796
0.421569 0.882843 0.553922
0.493873 0.878922 0.522028
0.663051 0.882843 0.527145
0.791667 0.891176 0.473039
0.882843 0.887684 0.474020
0.909804 0.878922 0.345098
0.600000 0.929412 0.686275
0.584314 0.929412 0.674510
0.584191 0.925490 0.670588
0.598223 0.925490 0.666176
0.645098 0.929412 0.670588
0.724510 0.933333 0.687745
0.813725 0.946078 0.709436
0.879412 0.956863 0.694056
0.933333 0.960784 0.705392
0.003922 0.007843 0.102941
0.046078 0.007843 0.099020
0.130392 0.003922 0.095098
0.269608 0.003922 0.103554
0.454902 0.001471 0.111275
0.676348 0.022549 0.225000
0.845098 0.095343 0.392157
0.882843 0.121569 0.506373
0.922549 0.199020 0.602941
0.003922 0.041667 0.094608
0.042157 0.038235 0.105944
0.133241 0.034314 0.095098
0.274020 0.030392 0.094562
0.461029 0.026961 0.101961
0.676608 0.048698 0.205392
0.843474 0.106373 0.379412
0.882843 0.133333 0.503156
0.925490 0.245588 0.622549
0.000000 0.129412 0.099755
0.034681 0.129412 0.101961
0.135233 0.132782 0.108701
0.325735 0.100490 0.088909
0.474632 0.088235 0.090564
0.673407 0.098009 0.172181
0.839277 0.135968 0.353186
0.879044 0.164093 0.495956
0.925490 0.290196 0.637255
0.002451 0.288358 0.124510
0.036765 0.287975 0.117034
0.103554 0.286765 0.104718
0.286075 0.291345 0.086780
0.528125 0.221201 0.104902
0.700000 0.160907 0.104917
0.844118 0.178431 0.296783
0.878922 0.208869 0.481189
0.925490 0.333456 0.645098
0.047059 0.513725 0.239216
0.072059 0.511765 0.226164
0.119608 0.507843 0.205882
0.194363 0.504596 0.150061
0.507353 0.506863 0.097304
0.752390 0.465870 0.191850
0.847917 0.344485 0.159804
0.879167 0.261520 0.406495
0.925000 0.390686 0.643627
0.189828 0.743627 0.428064
0.199525 0.743627 0.419608
0.225153 0.739859 0.404902
0.268689 0.732230 0.359835
0.453922 0.731618 0.293382
0.722243 0.742295 0.218520
0.853431 0.714737 0.209467
0.872365 0.595221 0.201991
0.933333 0.468995 0.614216
0.307843 0.859804 0.550000
0.315594 0.859804 0.542892
0.335049 0.856863 0.534498
0.368750 0.852788 0.508977
0.437623 0.841176 0.421078
0.654136 0.849510 0.397672
0.835600 0.852696 0.370588
0.882843 0.842034 0.322426
0.906863 0.670833 0.189216
0.370098 0.887255 0.589216
0.370098 0.886765 0.583946
0.384344 0.886765 0.578002
0.419118 0.883027 0.565074
0.490196 0.879167 0.535049
0.662745 0.882843 0.539798
0.788450 0.891176 0.488297
0.882843 0.887684 0.478370
0.909804 0.878922 0.356005
0.596078 0.929412 0.693137
0.580392 0.925490 0.682353
0.584314 0.925490 0.678431
0.598529 0.925490 0.673897
0.645098 0.929412 0.677941
0.724510 0.933333 0.691667
0.813725 0.946078 0.713725
0.879412 0.956863 0.701471
0.933333 0.960784 0.709804
0.007843 0.011765 0.227941
0.053922 0.007843 0.227941
0.142157 0.007843 0.211765
0.273529 0.002390 0.198039
0.449020 0.003922 0.230147
0.673591 0.044608 0.327941
0.845098 0.109314 0.444118
0.882843 0.118137 0.537255
0.925490 0.227451 0.633824
0.007843 0.042157 0.222549
0.046078 0.041031 0.234681
0.134314 0.034804 0.226593
0.274816 0.030392 0.200184
0.449020 0.030392 0.228033
0.674510 0.063174 0.308525
0.845098 0.120634 0.437791
0.882843 0.132904 0.535746
0.925490 0.239828 0.635110
0.002819 0.126961 0.230025
0.038848 0.125490 0.244608
0.121661 0.115074 0.274847
0.297120 0.095236 0.218919
0.459865 0.092157 0.213174
0.691805 0.108211 0.293428
0.844118 0.152941 0.434620
0.879902 0.163725 0.541253
0.926471 0.320588 0.676348
0.003922 0.277451 0.236765
0.034314 0.279902 0.236765
0.100000 0.279902 0.238006
0.311634 0.312094 0.271255
0.580116 0.223713 0.228186
0.706457 0.163297 0.229902
0.844118 0.187561 0.389583
0.878922 0.207292 0.525490
0.928493 0.369608 0.687806
0.023039 0.513725 0.319608
0.053922 0.513725 0.310937
0.113051 0.511765 0.296569
0.192923 0.507108 0.253983
0.510294 0.515809 0.204902
0.737960 0.458609 0.253493
0.861520 0.304963 0.219118
0.878922 0.266759 0.469148
0.927451 0.424510 0.686029
0.167157 0.742157 0.473529
0.181870 0.739706 0.463235
0.215319 0.738373 0.451471
0.265686 0.731863 0.419118
0.412500 0.724786 0.333854
0.711374 0.732782 0.254703
0.851348 0.704672 0.286351
0.868750 0.577259 0.233946
0.931495 0.490196 0.661703
0.303922 0.859804 0.580515
0.311275 0.859804 0.573269
0.330392 0.857322 0.567187
0.370650 0.855882 0.546829
0.429228 0.844056 0.469301
0.649050 0.848361 0.434053
0.832138 0.851961 0.392647
0.882843 0.839078 0.355990
0.904044 0.653064 0.239706
0.366176 0.887255 0.611275
0.366176 0.887071 0.606863
0.380438 0.886765 0.601976
0.413725 0.886765 0.589032
0.487745 0.881127 0.565380
0.660225 0.883218 0.569301
0.788113 0.891176 0.526777
0.882843 0.887033 0.488825
0.909804 0.878922 0.371569
0.592157 0.929412 0.701961
0.576471 0.929412 0.690196
0.580392 0.925490 0.688725
0.598529 0.925490 0.686275
0.643137 0.929412 0.690196
0.722059 0.934252 0.704963
0.813725 0.946078 0.722549
0.879412 0.956863 0.712255
0.933333 0.960784 0.717647
0.019608 0.017647 0.401961
0.067647 0.013971 0.401961
0.149510 0.007843 0.398529
0.288725 0.003922 0.364216
0.457843 0.003922 0.361765
0.681373 0.041422 0.449510
0.841176 0.093137 0.552451
0.883088 0.132108 0.597059
0.925490 0.229412 0.660784
0.015931 0.050000 0.405392
0.055882 0.048070 0.408854
0.140012 0.038725 0.408885
0.285784 0.034314 0.371140
0.458824 0.030515 0.364583
0.677298 0.065686 0.444363
0.841176 0.108517 0.542892
0.883333 0.145159 0.597059
0.925490 0.262010 0.674510
0.011765 0.117157 0.418627
0.047549 0.115380 0.424694
0.117647 0.105760 0.436275
0.280882 0.096078 0.402512
0.475245 0.092157 0.378431
0.677635 0.111581 0.442341
0.840809 0.146936 0.536520
0.882843 0.174449 0.595833
0.927941 0.322059 0.701961
0.003922 0.266176 0.440441
0.037898 0.264706 0.449357
0.104657 0.255025 0.466912
0.265472 0.240257 0.512132
0.540074 0.188971 0.441912
0.693137 0.169608 0.439951
0.841176 0.196324 0.515196
0.882843 0.219700 0.597365
0.932108 0.387745 0.724755
0.003922 0.499020 0.469608
0.030392 0.500000 0.470588
0.094853 0.500980 0.472549
0.162990 0.500858 0.470221
0.539706 0.536765 0.497059
0.793137 0.447917 0.456985
0.858088 0.282598 0.449755
0.879412 0.267770 0.562500
0.938235 0.489216 0.755882
0.100490 0.739706 0.568627
0.120925 0.738480 0.560937
0.163480 0.736091 0.552696
0.234314 0.731863 0.529381
0.420588 0.729044 0.494975
0.710172 0.736397 0.457966
0.847120 0.702145 0.464951
0.878156 0.526991 0.360723
0.935784 0.532843 0.732353
0.275490 0.862745 0.646569
0.285049 0.862745 0.640257
0.309314 0.860784 0.631373
0.354412 0.856863 0.612745
0.442402 0.849020 0.571569
0.662071 0.850797 0.565380
0.825735 0.852941 0.503431
0.886091 0.835172 0.452941
0.907843 0.619608 0.365686
0.352451 0.891176 0.657353
0.354381 0.890931 0.653217
0.371324 0.890686 0.646078
0.404810 0.887010 0.635784
0.487500 0.885907 0.617647
0.665349 0.889614 0.628186
0.789216 0.900551 0.607843
0.884589 0.892862 0.554105
0.909804 0.878922 0.405147
0.582353 0.931373 0.721569
0.564706 0.929412 0.711765
0.572059 0.929412 0.708333
0.590686 0.929412 0.707843
0.641176 0.929412 0.713725
0.722059 0.934804 0.726225
0.813725 0.946078 0.744118
0.879412 0.960784 0.738725
0.933333 0.960784 0.729412
0.064216 0.046078 0.585294
0.112071 0.036949 0.585294
0.181005 0.022059 0.580270
0.319608 0.011765 0.555392
0.490441 0.026961 0.536275
0.687806 0.055760 0.583762
0.852941 0.133946 0.681740
0.886765 0.138419 0.726471
0.925490 0.213725 0.732353
0.054228 0.075000 0.588725
0.088542 0.071140 0.588381
0.164124 0.060524 0.584666
0.306258 0.042157 0.562745
0.485692 0.053431 0.535294
0.684804 0.076218 0.582774
0.852328 0.145404 0.677497
0.886765 0.149893 0.724916
0.929718 0.271078 0.748039
0.032230 0.136765 0.615319
0.063588 0.132751 0.615319
0.140686 0.123346 0.619332
0.290165 0.100000 0.595695
0.509069 0.109804 0.570833
0.689415 0.119056 0.587684
0.851961 0.172181 0.678707
0.886765 0.178431 0.725797
0.933701 0.353064 0.767647
0.037684 0.247978 0.638787
0.067647 0.242218 0.641850
0.121461 0.233686 0.656081
0.220711 0.199571 0.664254
0.501471 0.170833 0.604381
0.720757 0.178715 0.615219
0.849280 0.213526 0.674923
0.884138 0.221867 0.717157
0.937255 0.422610 0.779412
0.003922 0.494118 0.660539
0.031127 0.492157 0.666085
0.095404 0.490196 0.676042
0.160999 0.476287 0.693903
0.491912 0.462377 0.739461
0.773100 0.402635 0.683364
0.850551 0.283027 0.666850
0.881127 0.278830 0.691636
0.945098 0.517157 0.799020
0.027022 0.721569 0.709252
0.053868 0.720098 0.708333
0.108395 0.720098 0.708333
0.174081 0.718627 0.703837
0.332414 0.719118 0.696324
0.726739 0.733778 0.701700
0.893061 0.684620 0.681740
0.901585 0.448024 0.631725
0.943627 0.559804 0.789154
0.174510 0.869608 0.767647
0.183563 0.869240 0.763725
0.215074 0.867525 0.755423
0.268260 0.861765 0.738848
0.376164 0.850551 0.697917
0.691498 0.855025 0.712546
0.833609 0.861305 0.692647
0.910922 0.838725 0.667877
0.937132 0.596201 0.574020
0.286887 0.906556 0.758333
0.289193 0.906373 0.750820
0.311275 0.903922 0.745466
0.354787 0.900804 0.731549
0.458824 0.894608 0.706036
0.685417 0.900804 0.723836
0.811642 0.916621 0.738725
0.897832 0.923039 0.713235
0.919118 0.898346 0.605821
0.555392 0.934804 0.754412
0.539706 0.933333 0.748039
0.550858 0.933333 0.746569
0.574449 0.933333 0.746569
0.629412 0.936029 0.750490
0.718137 0.941176 0.760723
0.814706 0.952941 0.782230
0.887255 0.966483 0.787255
0.935784 0.962255 0.759804
0.094118 0.103922 0.761765
0.140196 0.096078 0.759191
0.212745 0.080637 0.750980
0.334191 0.030270 0.729779
0.526471 0.050000 0.712745
0.695711 0.078922 0.711275
0.851225 0.122549 0.772549
0.886765 0.141544 0.801961
0.921569 0.163725 0.801961
0.086397 0.119118 0.761275
0.113664 0.117770 0.757353
0.185784 0.107629 0.754412
0.311841 0.056311 0.731235
0.520466 0.072365 0.714461
0.693719 0.098039 0.711091
0.849020 0.134865 0.768627
0.886765 0.153156 0.798637
0.921569 0.172059 0.802451
0.071569 0.180147 0.782598
0.094363 0.175490 0.782598
0.155637 0.161520 0.784865
0.289093 0.118781 0.753431
0.523897 0.119730 0.736397
0.706005 0.139246 0.725490
0.849020 0.164706 0.775551
0.886765 0.179902 0.801961
0.925490 0.248775 0.812745
0.071569 0.257843 0.782843
0.093627 0.253968 0.785738
0.139216 0.250245 0.799479
0.207062 0.220849 0.804396
0.485049 0.173836 0.750674
0.745665 0.204412 0.766544
0.848039 0.206526 0.778033
0.884620 0.220236 0.801961
0.933333 0.377574 0.832966
0.047059 0.498039 0.818627
0.075306 0.494118 0.820343
0.126471 0.491544 0.826471
0.187194 0.475551 0.840686
0.453676 0.437500 0.864461
0.747978 0.372794 0.811765
0.853064 0.271569 0.787255
0.882843 0.267157 0.798713
0.948529 0.533824 0.852451
0.000000 0.705025 0.825490
0.024004 0.705025 0.827099
0.085417 0.705484 0.827941
0.150000 0.699571 0.831081
0.246875 0.698162 0.849265
0.705193 0.695818 0.867218
0.888664 0.673039 0.838971
0.894746 0.420527 0.803324
0.946936 0.570956 0.843627
0.163971 0.863971 0.862745
0.171538 0.861765 0.861765
0.198284 0.860233 0.857843
0.249510 0.854749 0.851654
0.329044 0.847549 0.839093
0.642433 0.854289 0.830392
0.845343 0.864400 0.835049
0.932230 0.836029 0.823775
0.937255 0.561029 0.797059
0.264216 0.914216 0.856495
0.268122 0.914216 0.853799
0.286397 0.914216 0.849510
0.320987 0.910294 0.841850
0.398775 0.908211 0.825184
0.638220 0.914216 0.808686
0.829381 0.934069 0.834528
0.910846 0.945588 0.843137
0.941544 0.927941 0.798039
0.512745 0.937255 0.814706
0.499632 0.937255 0.810784
0.511765 0.937255 0.809804
0.538725 0.937255 0.805882
0.604902 0.941176 0.805882
0.697917 0.949020 0.809804
0.815686 0.961765 0.834314
0.907843 0.976471 0.860907
0.949020 0.980392 0.857843
0.090196 0.185294 0.883333
0.109314 0.177451 0.883333
0.160417 0.151961 0.875613
0.291667 0.100000 0.847549
0.518627 0.064706 0.818137
0.738297 0.116973 0.824203
0.842157 0.114706 0.829412
0.886765 0.133333 0.839706
0.921569 0.152941 0.843627
0.090196 0.192218 0.878922
0.108938 0.191406 0.878546
0.150919 0.174020 0.875919
0.276471 0.125000 0.851019
0.508854 0.083824 0.816422
0.737217 0.130637 0.820772
0.842157 0.126348 0.829289
0.886389 0.144669 0.839767
0.921569 0.160784 0.844118
0.090196 0.226471 0.875490
0.108563 0.226103 0.875490
0.148039 0.226471 0.883211
0.219960 0.182537 0.870313
0.483824 0.122059 0.818627
0.745772 0.165380 0.825490
0.845098 0.158793 0.831893
0.886336 0.172059 0.839706
0.921569 0.195098 0.844608
0.090502 0.307659 0.878248
0.109314 0.307085 0.878209
0.148269 0.315502 0.889170
0.198721 0.301233 0.893934
0.447212 0.207292 0.856464
0.730086 0.219608 0.829603
0.851961 0.205316 0.835784
0.882843 0.214055 0.837255
0.921569 0.263603 0.850980
0.076471 0.520343 0.900490
0.099969 0.520098 0.900950
0.141176 0.520343 0.906373
0.195098 0.511428 0.915778
0.400980 0.484804 0.922304
0.731556 0.430637 0.878431
0.860846 0.300919 0.846875
0.881097 0.262960 0.837531
0.937255 0.456618 0.874510
0.000000 0.714706 0.898039
0.022549 0.714706 0.900490
0.084314 0.714782 0.900490
0.148415 0.709498 0.904343
0.233915 0.702696 0.922641
0.680277 0.698215 0.937745
0.876915 0.670098 0.906909
0.901777 0.453179 0.866605
0.935294 0.475490 0.869608
0.090564 0.853922 0.927451
0.101180 0.853922 0.927328
0.134252 0.850000 0.923529
0.186642 0.846936 0.922871
0.280331 0.840196 0.919914
0.605974 0.839338 0.921661
0.830944 0.847059 0.933333
0.929902 0.823652 0.914706
0.922426 0.457721 0.855882
0.271630 0.913787 0.919056
0.272488 0.913787 0.918627
0.290365 0.910723 0.918137
0.320956 0.910455 0.914668
0.385539 0.906863 0.908793
0.618405 0.912071 0.899020
0.804305 0.934697 0.907353
0.921684 0.949517 0.922495
0.960784 0.937868 0.922549
0.474020 0.941176 0.891176
0.461336 0.941176 0.887745
0.476961 0.941176 0.887255
0.510294 0.941176 0.883517
0.581863 0.941176 0.883333
0.676471 0.950490 0.883333
0.803922 0.968627 0.892525
0.911213 0.984314 0.919056
0.964706 0.984314 0.930392
0.098039 0.258824 0.937255
0.113235 0.239706 0.933333
0.150980 0.228431 0.933333
0.198529 0.195098 0.923039
0.423529 0.072549 0.878431
0.721569 0.131373 0.868137
0.851961 0.109804 0.870588
0.882843 0.125490 0.874510
0.921569 0.141176 0.878431
0.094118 0.242647 0.932843
0.113235 0.242647 0.929412
0.150980 0.234436 0.929412
0.198346 0.202145 0.922855
0.422059 0.083333 0.872059
0.719424 0.138725 0.865993
0.850613 0.125000 0.870588
0.885846 0.136826 0.875000
0.921569 0.152451 0.878922
0.097059 0.284314 0.932353
0.113235 0.287623 0.932353
0.151961 0.372304 0.951225
0.200980 0.348529 0.948039
0.401471 0.278922 0.933824
0.695956 0.188725 0.878186
0.855882 0.171569 0.875245
0.882843 0.167647 0.874510
0.921569 0.179412 0.878431
0.098039 0.401961 0.943627
0.117157 0.403922 0.944914
0.155515 0.458824 0.956495
0.201900 0.486397 0.962316
0.346078 0.450000 0.958088
0.709804 0.403431 0.919608
0.859436 0.246078 0.883824
0.882843 0.208824 0.872059
0.919118 0.222059 0.878431
0.060784 0.566667 0.952941
0.082108 0.566422 0.952941
0.116176 0.591176 0.956863
0.168382 0.601225 0.960784
0.240196 0.628431 0.961765
0.678676 0.624755 0.966667
0.879412 0.580882 0.927451
0.884559 0.273284 0.876225
0.917647 0.272549 0.878431
0.000000 0.728922 0.954412
0.019118 0.732843 0.954412
0.084314 0.736765 0.954412
0.146078 0.739216 0.957782
0.213725 0.740441 0.959559
0.616238 0.750980 0.965625
0.848407 0.738235 0.957353
0.926961 0.651042 0.934314
0.913725 0.324510 0.874510
0.064706 0.853922 0.973529
0.081863 0.853922 0.973529
0.118873 0.852941 0.970343
0.168627 0.850000 0.969608
0.268627 0.845098 0.966176
0.595098 0.843260 0.957966
0.811029 0.853922 0.971569
0.929044 0.838725 0.956863
0.925490 0.473529 0.894118
0.273039 0.910294 0.960784
0.273039 0.910294 0.960784
0.288603 0.906863 0.960784
0.318137 0.906373 0.960784
0.380147 0.902696 0.956863
0.596875 0.906556 0.948529
0.791789 0.927451 0.956495
0.911275 0.946078 0.964706
0.960784 0.927451 0.968137
0.450980 0.941176 0.945098
0.435294 0.941176 0.945098
0.454902 0.941176 0.945098
0.499020 0.941176 0.945098
0.572549 0.941176 0.941176
0.671078 0.950490 0.945098
0.796078 0.968627 0.950000
0.907353 0.984314 0.964706
0.964706 0.992157 0.968627
