TEAL_AND_ORANGE_LUT.cube
#Generated with IWLTBAP LUT Generator 2.1
#Website: https://luts.iwltbap.com
TITLE "TEAL AND ORANGE LUT"
LUT_3D_SIZE 5
0.003922 0.007843 0.007843
0.054902 0.007843 0.011765
0.413725 0.000000 0.029412
0.810784 0.065686 0.395098
0.862745 0.168627 0.721569
0.000000 0.095098 0.010784
0.066667 0.086520 0.008824
0.433824 0.000000 0.000490
0.823775 0.068627 0.376471
0.862745 0.183333 0.718627
0.023529 0.515686 0.172549
0.038725 0.509804 0.128431
0.500980 0.495098 0.050980
0.867157 0.357843 0.179412
0.862745 0.231373 0.692157
0.273529 0.910784 0.582353
0.279657 0.906863 0.559069
0.459314 0.830882 0.366176
0.835539 0.839216 0.410049
0.869608 0.718627 0.198039
0.635294 0.901961 0.756863
0.584314 0.895098 0.722549
0.627451 0.894118 0.717647
0.817647 0.898039 0.757843
0.913725 0.913725 0.792157
0.003922 0.015686 0.071569
0.066667 0.004902 0.079167
0.431373 0.000000 0.108824
0.828431 0.091176 0.476716
0.862745 0.218627 0.749020
0.000000 0.090931 0.060049
0.063297 0.092463 0.084069
0.455147 0.000000 0.046814
0.824510 0.077206 0.421385
0.866667 0.294363 0.778431
0.005882 0.521078 0.207843
0.019118 0.510294 0.170221
0.487745 0.483578 0.056618
0.866667 0.317525 0.169118
0.868627 0.342157 0.769608
0.278186 0.909804 0.601225
0.273529 0.910784 0.581801
0.411642 0.840319 0.386642
0.831618 0.836275 0.408333
0.863480 0.683333 0.217892
0.639216 0.901961 0.760784
0.611765 0.898039 0.741176
0.639216 0.894118 0.729412
0.814706 0.898039 0.761765
0.913725 0.913725 0.792157
0.000000 0.066667 0.398039
0.033824 0.043627 0.436765
0.425490 0.000000 0.410784
0.832843 0.087255 0.651471
0.864706 0.258824 0.782353
0.000000 0.106373 0.400000
0.000000 0.078431 0.445956
0.444118 0.000000 0.427451
0.832353 0.089216 0.624510
0.869118 0.316667 0.809804
0.000000 0.522549 0.438235
0.000000 0.519608 0.438480
0.544608 0.538235 0.513725
0.847059 0.172304 0.485539
0.885294 0.464706 0.854902
0.289706 0.916667 0.693137
0.292402 0.912500 0.676471
0.361029 0.884069 0.574020
0.822059 0.834804 0.502083
0.872549 0.605392 0.373529
0.631373 0.901961 0.770588
0.603922 0.901961 0.754902
0.643137 0.901961 0.754902
0.810784 0.900490 0.774510
0.913725 0.909804 0.784314
0.000000 0.206863 0.749020
0.003676 0.187990 0.778431
0.457843 0.032353 0.787255
0.844118 0.122794 0.877451
0.858824 0.176471 0.906863
0.000000 0.251961 0.747794
0.000000 0.226471 0.774510
0.448529 0.040196 0.817770
0.846507 0.126471 0.881373
0.862745 0.243137 0.910784
0.000000 0.555392 0.759804
0.000000 0.550000 0.773162
0.317157 0.483824 0.883333
0.856005 0.161275 0.895466
0.893627 0.520098 0.922549
0.246324 0.931373 0.872549
0.246324 0.924326 0.868627
0.303799 0.904412 0.851471
0.871507 0.877267 0.868076
0.893137 0.485784 0.868137
0.583333 0.921569 0.828431
0.567647 0.921569 0.824510
0.636275 0.918627 0.823039
0.823529 0.933578 0.857598
0.938235 0.946078 0.881373
0.000000 0.384314 0.831373
0.000000 0.353922 0.835294
0.266667 0.164706 0.884314
0.847059 0.121569 0.913725
0.854902 0.156863 0.921569
0.000000 0.386275 0.827451
0.000000 0.485294 0.842157
0.178922 0.372059 0.898039
0.852696 0.145098 0.917892
0.858824 0.160784 0.922549
0.000000 0.647059 0.849020
0.000000 0.677451 0.860784
0.011765 0.725490 0.880392
0.880882 0.583333 0.942157
0.858824 0.172549 0.925490
0.130392 0.950000 0.929412
0.125490 0.947059 0.929412
0.208333 0.926471 0.925000
0.819608 0.873529 0.949020
0.873529 0.354902 0.923529
0.517647 0.933333 0.894118
0.508824 0.937255 0.894118
0.601961 0.933333 0.898039
0.815686 0.949020 0.930392
0.956863 0.964706 0.964706
