TEAL_AND_ORANGE_LUT.cube
#Generated with IWLTBAP LUT Generator 2.1
#Website: https://luts.iwltbap.com
TITLE "TEAL AND ORANGE LUT"
LUT_3D_SIZE 33
0.003922 0.007843 0.007843
0.003922 0.007843 0.007843
0.003922 0.007843 0.007843
0.003922 0.007843 0.007843
0.003922 0.007843 0.007843
0.007230 0.007843 0.007843
0.014216 0.007843 0.011029
0.028799 0.007843 0.011765
0.054902 0.007843 0.011765
0.089706 0.003922 0.008946
0.124510 0.003922 0.007843
0.168382 0.003922 0.007843
0.218627 0.000000 0.007843
0.267279 0.000000 0.010172
0.315196 0.000000 0.011765
0.363603 0.000000 0.017770
0.413725 0.000000 0.029412
0.463848 0.000000 0.048652
0.513971 0.000000 0.073529
0.566422 0.003922 0.108333
0.616667 0.005392 0.155392
0.672181 0.013113 0.218627
0.730147 0.025980 0.280392
0.775245 0.046446 0.341054
0.810784 0.065686 0.395098
0.831373 0.087990 0.447426
0.832108 0.102696 0.489216
0.835907 0.110417 0.528554
0.839706 0.114216 0.571078
0.843137 0.117647 0.609681
0.847304 0.121814 0.648284
0.851225 0.130025 0.682966
0.862745 0.168627 0.721569
0.003922 0.007843 0.007843
0.003922 0.007843 0.007843
0.003922 0.007843 0.007843
0.003922 0.007843 0.007843
0.003922 0.007843 0.007843
0.004025 0.007843 0.007843
0.011129 0.007843 0.011029
0.028799 0.007843 0.011765
0.057874 0.007843 0.011765
0.092525 0.003922 0.011765
0.127206 0.003922 0.011765
0.172304 0.003922 0.007843
0.218627 0.000000 0.007843
0.271201 0.000000 0.010172
0.319118 0.000000 0.011765
0.369240 0.000000 0.017770
0.419547 0.000000 0.027451
0.469853 0.000000 0.044853
0.517892 0.000000 0.069677
0.570270 0.003922 0.106005
0.622013 0.005392 0.155392
0.677409 0.013113 0.216134
0.732843 0.025980 0.280392
0.778064 0.046446 0.338323
0.814706 0.065686 0.395190
0.831373 0.087990 0.444458
0.832108 0.102696 0.489216
0.835907 0.110417 0.528554
0.839706 0.114216 0.571078
0.843505 0.117647 0.609325
0.847304 0.121814 0.648284
0.855025 0.130025 0.686765
0.862745 0.172549 0.721569
0.003922 0.007843 0.007843
0.003922 0.007843 0.007843
0.003922 0.007843 0.007843
0.003922 0.007843 0.007843
0.003922 0.007843 0.007843
0.003922 0.007843 0.007843
0.011029 0.007843 0.007843
0.024931 0.007843 0.011765
0.055086 0.007843 0.011765
0.089706 0.004956 0.011765
0.127206 0.003922 0.011765
0.172304 0.003922 0.007843
0.218627 0.000000 0.007843
0.271201 0.000000 0.007843
0.322932 0.000000 0.011765
0.373039 0.000000 0.013978
0.421446 0.000000 0.025490
0.471576 0.000000 0.041054
0.520098 0.000000 0.067999
0.571837 0.003922 0.102083
0.624357 0.005392 0.153094
0.680025 0.014377 0.214790
0.734069 0.025980 0.276471
0.781740 0.046446 0.338235
0.814706 0.065686 0.395098
0.831373 0.087990 0.444363
0.832108 0.102696 0.486229
0.835907 0.110417 0.528554
0.839706 0.114216 0.567647
0.843505 0.117647 0.609314
0.847304 0.121814 0.648284
0.855025 0.130025 0.686765
0.862745 0.172549 0.721569
0.003922 0.011397 0.007843
0.003922 0.011397 0.007843
0.003922 0.011397 0.007843
0.003922 0.011397 0.007843
0.003922 0.011397 0.007843
0.003922 0.011397 0.007843
0.011029 0.008509 0.007843
0.022101 0.007843 0.008130
0.054013 0.007843 0.011765
0.092260 0.005025 0.011765
0.128316 0.003922 0.007958
0.172304 0.003922 0.007843
0.222181 0.000000 0.007843
0.274755 0.000000 0.007843
0.325038 0.000000 0.010049
0.375172 0.000000 0.013848
0.425306 0.000000 0.023713
0.473579 0.000000 0.040809
0.521814 0.000000 0.065893
0.575490 0.003922 0.102083
0.625843 0.005392 0.151471
0.681246 0.014461 0.212374
0.736512 0.025980 0.276471
0.781985 0.046446 0.338235
0.814706 0.065686 0.395098
0.831373 0.087990 0.444363
0.832108 0.102696 0.486029
0.835907 0.110417 0.525555
0.839706 0.114216 0.567203
0.843505 0.117647 0.605760
0.847304 0.121814 0.644608
0.855025 0.130025 0.683322
0.862745 0.172549 0.721569
0.003922 0.015196 0.007843
0.003922 0.015196 0.007843
0.003922 0.015196 0.007843
0.003922 0.015196 0.007843
0.003922 0.015196 0.007843
0.006817 0.015196 0.007843
0.011029 0.015196 0.007843
0.024494 0.012515 0.007843
0.053922 0.011275 0.007843
0.095956 0.007843 0.007843
0.134559 0.004994 0.007843
0.179657 0.003922 0.007843
0.225980 0.000000 0.007843
0.275123 0.000000 0.006449
0.326961 0.000000 0.007843
0.376976 0.000000 0.013848
0.427206 0.000000 0.023529
0.477436 0.000000 0.038971
0.525521 0.000000 0.064185
0.575858 0.003922 0.098162
0.628125 0.005392 0.147549
0.683946 0.014461 0.210953
0.737837 0.027206 0.273039
0.782950 0.046446 0.337270
0.817279 0.068260 0.394240
0.831373 0.087990 0.443612
0.832108 0.102696 0.485294
0.835907 0.110417 0.524709
0.839706 0.114216 0.567157
0.843505 0.118015 0.605760
0.847304 0.121814 0.644608
0.855025 0.133824 0.682966
0.862745 0.175980 0.721569
0.003922 0.026225 0.007843
0.003922 0.023020 0.007843
0.003922 0.022917 0.007843
0.003922 0.022917 0.007843
0.003922 0.022917 0.007843
0.007230 0.022917 0.007843
0.014338 0.022917 0.011152
0.028320 0.019853 0.011152
0.057384 0.016054 0.008670
0.095515 0.012255 0.007843
0.135049 0.007422 0.007843
0.183456 0.003922 0.005270
0.233701 0.001241 0.003922
0.280025 0.000000 0.003922
0.326961 0.000000 0.006396
0.375368 0.000000 0.010214
0.427451 0.000000 0.020221
0.481005 0.000000 0.038971
0.527597 0.000000 0.060317
0.578186 0.003922 0.094604
0.629902 0.007460 0.143857
0.687466 0.014461 0.207073
0.740265 0.029481 0.270274
0.785907 0.046446 0.334314
0.817647 0.068627 0.391636
0.831373 0.085405 0.440441
0.832108 0.102696 0.485294
0.835907 0.110417 0.524632
0.839706 0.114216 0.567157
0.843505 0.118015 0.605760
0.847304 0.121814 0.644401
0.855025 0.133927 0.682966
0.862745 0.176471 0.721569
0.003922 0.044853 0.007843
0.003922 0.041054 0.007843
0.003922 0.037944 0.007843
0.003922 0.037079 0.007843
0.003922 0.037653 0.007843
0.007345 0.037745 0.007843
0.017540 0.037745 0.011765
0.032721 0.037010 0.011765
0.062010 0.030699 0.011765
0.099104 0.023162 0.011029
0.138006 0.018367 0.007843
0.186642 0.011642 0.003922
0.237960 0.004657 0.003922
0.287745 0.001294 0.003922
0.330561 0.000000 0.003922
0.377206 0.000000 0.006350
0.429044 0.000000 0.012500
0.483111 0.000000 0.033701
0.531863 0.000000 0.060049
0.581671 0.003922 0.089024
0.633824 0.007843 0.136520
0.691054 0.014461 0.200850
0.741912 0.029902 0.265441
0.788197 0.046446 0.330392
0.821017 0.068627 0.387806
0.831373 0.084926 0.437094
0.832108 0.102696 0.481373
0.835907 0.110417 0.520826
0.839706 0.117004 0.563327
0.843505 0.118015 0.601907
0.847304 0.121814 0.641376
0.855025 0.133946 0.682966
0.862745 0.176471 0.721569
0.000000 0.068015 0.007843
0.000000 0.067184 0.007843
0.000000 0.063289 0.007843
0.000000 0.060172 0.007843
0.003922 0.060172 0.007843
0.007230 0.060172 0.007843
0.018137 0.060172 0.011765
0.036642 0.059501 0.011765
0.066667 0.056373 0.009252
0.106491 0.046450 0.010903
0.149020 0.034804 0.009069
0.194118 0.024215 0.005270
0.243750 0.015441 0.003922
0.292053 0.008230 0.003922
0.339583 0.001340 0.000000
0.382108 0.000000 0.002485
0.427880 0.000000 0.006740
0.483456 0.000000 0.022461
0.536642 0.000000 0.050858
0.586029 0.003922 0.085152
0.637423 0.007843 0.129657
0.694853 0.017034 0.195956
0.747672 0.029902 0.261052
0.792030 0.048648 0.323407
0.821569 0.068627 0.383977
0.831373 0.084926 0.433268
0.832108 0.102696 0.477612
0.835907 0.110417 0.517647
0.839706 0.117647 0.559421
0.843505 0.118015 0.598775
0.847304 0.125735 0.640441
0.851225 0.133946 0.679071
0.862745 0.180392 0.718505
0.000000 0.095098 0.010784
0.000000 0.094118 0.007935
0.000000 0.090441 0.007843
0.000000 0.090196 0.007843
0.003431 0.090196 0.007843
0.004749 0.090196 0.007843
0.015196 0.090196 0.011213
0.035999 0.090196 0.011765
0.066667 0.086520 0.008824
0.102175 0.082751 0.007843
0.158456 0.066115 0.010846
0.213143 0.049755 0.008854
0.258824 0.035294 0.005025
0.302206 0.024357 0.003922
0.345588 0.013787 0.001287
0.389828 0.004779 0.000000
0.433824 0.000000 0.000490
0.482077 0.000000 0.009038
0.535846 0.000000 0.036336
0.591146 0.003922 0.076195
0.643137 0.008946 0.121078
0.698989 0.017034 0.185662
0.751777 0.029902 0.253922
0.795864 0.049265 0.319332
0.823775 0.068627 0.376471
0.832230 0.084069 0.427145
0.832108 0.102696 0.474265
0.835907 0.110417 0.516789
0.839706 0.117647 0.555515
0.843505 0.118903 0.595251
0.847304 0.125735 0.637500
0.851225 0.134069 0.679044
0.862745 0.183333 0.718627
0.000000 0.125000 0.011765
0.000000 0.125000 0.007966
0.000000 0.121147 0.007843
0.000000 0.121078 0.007843
0.000000 0.117157 0.007843
0.003481 0.118087 0.007843
0.010501 0.121078 0.008739
0.029044 0.121078 0.011765
0.062040 0.117862 0.011765
0.097549 0.116364 0.007843
0.146224 0.109023 0.005905
0.220500 0.087623 0.010796
0.284436 0.066253 0.008900
0.327125 0.052083 0.006740
0.364583 0.038235 0.003922
0.402792 0.023897 0.002819
0.443444 0.010110 0.000000
0.486451 0.001497 0.000517
0.532345 0.000000 0.015679
0.591016 0.002248 0.057805
0.645588 0.009314 0.109069
0.704523 0.018382 0.177941
0.756495 0.033065 0.242624
0.799387 0.049265 0.307966
0.825490 0.068627 0.368750
0.834432 0.084069 0.421936
0.832108 0.099510 0.467525
0.835907 0.110417 0.512868
0.839706 0.117647 0.551608
0.843505 0.121569 0.591176
0.847304 0.125735 0.633877
0.855025 0.137868 0.676314
0.862745 0.184314 0.717647
0.000000 0.162500 0.011765
0.000000 0.162500 0.007966
0.000000 0.158655 0.007843
0.000000 0.155025 0.007843
0.000000 0.154657 0.007843
0.000000 0.154657 0.004534
0.003416 0.154151 0.004917
0.015564 0.157989 0.007253
0.051777 0.158578 0.011091
0.090173 0.157698 0.007843
0.133195 0.153814 0.004764
0.201540 0.145328 0.004726
0.289614 0.121109 0.010754
0.355898 0.096063 0.011037
0.400980 0.079657 0.010539
0.434229 0.066912 0.006618
0.469608 0.046936 0.003922
0.504986 0.024226 0.002696
0.538817 0.005729 0.002589
0.580783 0.000000 0.016697
0.642218 0.005392 0.076808
0.708402 0.015686 0.156564
0.762990 0.033824 0.229626
0.803531 0.050368 0.293627
0.829105 0.068627 0.355392
0.835294 0.081962 0.410562
0.835294 0.099510 0.460539
0.835907 0.110417 0.506250
0.839706 0.118137 0.547702
0.843505 0.121569 0.587630
0.847304 0.125735 0.630070
0.855025 0.137990 0.675123
0.862745 0.188235 0.717647
0.000000 0.210172 0.014338
0.000000 0.207721 0.011845
0.000000 0.203922 0.010501
0.000000 0.202455 0.010417
0.000000 0.199755 0.007843
0.000000 0.199755 0.004534
0.000000 0.195833 0.003922
0.004412 0.199192 0.003922
0.028248 0.203033 0.007200
0.078087 0.206250 0.011041
0.127328 0.206250 0.008647
0.185375 0.205365 0.004806
0.261612 0.196844 0.004764
0.356905 0.174265 0.015123
0.431916 0.146492 0.023629
0.479553 0.126225 0.023407
0.515441 0.113358 0.019485
0.548284 0.091525 0.014357
0.575245 0.061252 0.009069
0.599682 0.023457 0.007590
0.631556 0.004687 0.019838
0.697181 0.007966 0.097672
0.765441 0.028554 0.199349
0.810907 0.053186 0.275613
0.832996 0.068627 0.337377
0.837868 0.080147 0.394363
0.835294 0.095841 0.446806
0.835907 0.110417 0.499142
0.839706 0.118137 0.541544
0.843505 0.121569 0.583578
0.847304 0.125896 0.625000
0.855025 0.144405 0.671324
0.862745 0.192157 0.717647
0.000000 0.266667 0.026961
0.000000 0.264292 0.026961
0.000000 0.262745 0.023284
0.000000 0.259191 0.020818
0.000000 0.258824 0.017157
0.000000 0.257583 0.014599
0.000000 0.253707 0.009559
0.000000 0.250980 0.004458
0.011275 0.255392 0.005760
0.056158 0.260294 0.010662
0.117616 0.263756 0.013450
0.178922 0.261137 0.008686
0.242525 0.256373 0.004841
0.325888 0.250827 0.004795
0.421783 0.235509 0.020496
0.497779 0.209406 0.038051
0.552941 0.187745 0.042647
0.593306 0.170634 0.041176
0.622396 0.150582 0.035539
0.648790 0.115824 0.028814
0.670711 0.064338 0.024571
0.694547 0.020527 0.040548
0.752911 0.015380 0.123989
0.810907 0.040196 0.229565
0.838725 0.068627 0.307843
0.839216 0.079611 0.369608
0.837745 0.091942 0.429626
0.837975 0.110800 0.488741
0.839706 0.118137 0.533824
0.843505 0.121936 0.577558
0.847304 0.128278 0.618627
0.855025 0.145833 0.667402
0.862745 0.198529 0.713725
0.000000 0.324510 0.052451
0.000000 0.324560 0.050195
0.000000 0.322327 0.048629
0.000000 0.320738 0.044757
0.000000 0.320588 0.038848
0.000000 0.316916 0.034436
0.000000 0.316667 0.027328
0.000000 0.311500 0.016544
0.004136 0.310417 0.010172
0.027371 0.314338 0.011317
0.089461 0.318260 0.014461
0.163350 0.318260 0.020090
0.232093 0.316667 0.011642
0.300544 0.311363 0.007843
0.385371 0.310830 0.006733
0.478332 0.303845 0.025969
0.559252 0.283211 0.058027
0.621546 0.259949 0.075088
0.664254 0.240196 0.074387
0.696446 0.217946 0.068873
0.723667 0.182368 0.063480
0.742345 0.122369 0.059681
0.762638 0.058479 0.074288
0.798039 0.020381 0.135784
0.834926 0.050490 0.234038
0.844956 0.077470 0.324755
0.841108 0.088044 0.393520
0.839216 0.108452 0.471929
0.839706 0.118137 0.523575
0.843505 0.124046 0.568505
0.847304 0.130047 0.614828
0.855025 0.154339 0.663480
0.862745 0.200000 0.707475
0.002206 0.386275 0.079412
0.002206 0.386275 0.079465
0.002206 0.382598 0.075735
0.002206 0.382353 0.073935
0.002206 0.382353 0.068137
0.002206 0.378431 0.064070
0.002206 0.378431 0.056618
0.003922 0.377091 0.048039
0.005576 0.373223 0.030944
0.014714 0.370588 0.020718
0.054519 0.372304 0.019761
0.132353 0.374510 0.028309
0.221293 0.373131 0.029718
0.291544 0.371285 0.017356
0.363925 0.367632 0.013006
0.448583 0.373476 0.010700
0.538235 0.374142 0.041299
0.624127 0.359245 0.087469
0.684053 0.339461 0.112439
0.731533 0.316996 0.118421
0.765931 0.293566 0.112010
0.792302 0.256273 0.104879
0.810539 0.193290 0.098820
0.822181 0.099265 0.099632
0.835539 0.047488 0.136275
0.843995 0.056112 0.228653
0.845343 0.083410 0.334069
0.841077 0.101593 0.432039
0.839706 0.118413 0.504473
0.843505 0.128064 0.557230
0.851118 0.138343 0.607246
0.858892 0.163603 0.659559
0.862745 0.206127 0.703676
0.009926 0.448039 0.116299
0.008146 0.448039 0.116299
0.008088 0.448039 0.114461
0.009754 0.444313 0.110712
0.009926 0.444118 0.106847
0.009926 0.444118 0.101225
0.009926 0.442279 0.093505
0.011554 0.440196 0.085784
0.014951 0.439338 0.074847
0.022672 0.434953 0.056522
0.042233 0.432353 0.041582
0.093183 0.432353 0.038829
0.191376 0.430270 0.048606
0.288159 0.426348 0.044876
0.355936 0.428324 0.026509
0.430384 0.428301 0.025743
0.514400 0.437194 0.023652
0.601229 0.443256 0.063358
0.680798 0.437117 0.117877
0.742502 0.420320 0.151314
0.789828 0.398775 0.170236
0.820692 0.372794 0.165790
0.843995 0.335210 0.153554
0.854412 0.267839 0.137282
0.859314 0.167862 0.117616
0.857544 0.095129 0.139124
0.850636 0.066736 0.214553
0.848529 0.093873 0.355959
0.841529 0.118888 0.461213
0.847059 0.135980 0.535980
0.851225 0.150000 0.599632
0.858946 0.177328 0.653619
0.862745 0.215931 0.698039
0.023529 0.515686 0.172549
0.021569 0.515748 0.170650
0.021569 0.515686 0.168627
0.021569 0.513909 0.164890
0.021569 0.513725 0.161029
0.025490 0.512071 0.155208
0.029044 0.511765 0.147794
0.032904 0.509804 0.137010
0.038725 0.509804 0.128431
0.047917 0.507843 0.113971
0.058333 0.501225 0.089338
0.084804 0.498713 0.071324
0.150490 0.492892 0.067892
0.264338 0.487868 0.075674
0.358211 0.485417 0.062010
0.424632 0.492279 0.047059
0.500980 0.495098 0.050980
0.580086 0.504718 0.043934
0.659191 0.513480 0.085417
0.735110 0.514890 0.145650
0.791912 0.505637 0.191667
0.829596 0.488113 0.215074
0.856005 0.461765 0.222304
0.863848 0.423346 0.206495
0.867157 0.357843 0.179412
0.870588 0.265993 0.147978
0.864338 0.153799 0.125980
0.859865 0.100123 0.218995
0.852451 0.110294 0.368873
0.849203 0.148162 0.492463
0.855025 0.169363 0.576716
0.858946 0.198529 0.643873
0.862745 0.231373 0.692157
0.052328 0.589093 0.238235
0.052328 0.589093 0.236217
0.052328 0.585417 0.234314
0.052328 0.585172 0.230564
0.056250 0.585172 0.226700
0.056250 0.585172 0.221078
0.063358 0.581985 0.213358
0.067613 0.581250 0.205637
0.073039 0.579871 0.194975
0.080760 0.577328 0.183456
0.088480 0.574058 0.159314
0.102225 0.566912 0.124058
0.137485 0.560493 0.102237
0.229802 0.550379 0.098786
0.350827 0.543995 0.105362
0.430270 0.546331 0.086041
0.495159 0.557966 0.075184
0.568624 0.560780 0.085815
0.640020 0.572358 0.069884
0.711631 0.583088 0.109291
0.778018 0.590395 0.169638
0.825877 0.586784 0.215479
0.854082 0.575169 0.240403
0.863848 0.550666 0.244390
0.866207 0.514185 0.236366
0.865231 0.457422 0.218873
0.868750 0.368750 0.186320
0.870550 0.232544 0.144956
0.870083 0.142616 0.183670
0.858406 0.150636 0.397243
0.855032 0.192877 0.525605
0.858946 0.221691 0.617279
0.866667 0.252574 0.680515
0.074020 0.658578 0.296078
0.076103 0.658578 0.296078
0.077941 0.654657 0.294363
0.083211 0.654657 0.292157
0.087010 0.654657 0.290227
0.088948 0.651348 0.286374
0.092816 0.650735 0.280714
0.098407 0.647672 0.271684
0.103922 0.646814 0.263480
0.111642 0.643513 0.250605
0.119363 0.640196 0.233931
0.129657 0.635807 0.201494
0.149234 0.626961 0.157966
0.208303 0.616016 0.133134
0.323514 0.604427 0.133808
0.434107 0.600245 0.130936
0.501471 0.608088 0.109436
0.563725 0.620657 0.108004
0.627420 0.623499 0.126134
0.696285 0.634804 0.112967
0.758180 0.646324 0.142525
0.811374 0.651815 0.193972
0.845787 0.653968 0.227696
0.862132 0.645703 0.239085
0.864951 0.624939 0.235784
0.863120 0.591789 0.236642
0.866667 0.540349 0.234298
0.867011 0.444968 0.210976
0.871293 0.300827 0.156373
0.873729 0.230078 0.186382
0.862010 0.213082 0.424602
0.858946 0.250368 0.568313
0.866667 0.277451 0.659804
0.091054 0.728064 0.357843
0.091054 0.724265 0.353922
0.091644 0.724142 0.350146
0.095343 0.724142 0.348556
0.099433 0.724142 0.348407
0.108207 0.721814 0.346442
0.119363 0.720221 0.342892
0.127083 0.717157 0.339093
0.134804 0.713358 0.327849
0.142525 0.709559 0.316257
0.151340 0.707361 0.301471
0.164461 0.701961 0.279599
0.179902 0.694240 0.238986
0.215265 0.681652 0.191280
0.301762 0.667157 0.170144
0.422158 0.656127 0.176693
0.513358 0.657414 0.160172
0.570933 0.672059 0.146067
0.626386 0.682437 0.154611
0.683632 0.685225 0.179109
0.744363 0.694853 0.171293
0.794730 0.705025 0.188741
0.833088 0.709919 0.219363
0.855515 0.710865 0.235294
0.861152 0.700980 0.227267
0.861500 0.684455 0.216073
0.863182 0.658877 0.217333
0.865322 0.607981 0.233226
0.866958 0.520956 0.234375
0.869144 0.371684 0.179075
0.870297 0.316253 0.233969
0.864338 0.278355 0.462944
0.866667 0.308333 0.623407
0.125000 0.792157 0.419608
0.125000 0.792157 0.415686
0.122549 0.792157 0.411765
0.121216 0.789706 0.408211
0.124510 0.788419 0.407843
0.127451 0.788235 0.403922
0.135539 0.785784 0.400460
0.150245 0.782399 0.398529
0.165319 0.780760 0.392770
0.178385 0.774709 0.379733
0.189982 0.769853 0.365380
0.201241 0.765548 0.346186
0.216176 0.758333 0.316544
0.237852 0.747687 0.265671
0.298346 0.729994 0.224571
0.407644 0.712699 0.216131
0.517647 0.706863 0.216667
0.583747 0.715763 0.198254
0.629994 0.727359 0.197396
0.681740 0.737960 0.211075
0.732230 0.737623 0.237684
0.781618 0.745956 0.233180
0.821569 0.753676 0.236887
0.847794 0.757843 0.252574
0.858824 0.756863 0.246446
0.858824 0.746691 0.224510
0.862745 0.735049 0.200980
0.862515 0.705990 0.199418
0.862745 0.664338 0.217157
0.865334 0.577589 0.235600
0.869118 0.431495 0.213756
0.870466 0.365610 0.302865
0.866667 0.328431 0.587255
0.168873 0.843382 0.476103
0.168873 0.843382 0.472223
0.168873 0.843382 0.469769
0.168873 0.843382 0.468260
0.165119 0.841131 0.464507
0.168662 0.839671 0.462167
0.168873 0.839461 0.456748
0.174510 0.839461 0.452868
0.188664 0.833609 0.447641
0.212343 0.828799 0.439683
0.227819 0.824196 0.425000
0.240686 0.817279 0.406522
0.254779 0.809559 0.382981
0.269673 0.799510 0.341732
0.305591 0.784658 0.287477
0.394608 0.763254 0.257617
0.511703 0.749877 0.260355
0.593176 0.750961 0.252187
0.637967 0.760049 0.245098
0.680947 0.771691 0.252819
0.729550 0.780561 0.267356
0.770178 0.780174 0.291288
0.810049 0.786589 0.293137
0.837255 0.792659 0.292513
0.854534 0.793627 0.292739
0.859681 0.791054 0.272109
0.862745 0.784306 0.237745
0.862956 0.772515 0.199824
0.863925 0.749678 0.187531
0.862745 0.705293 0.199747
0.865319 0.605362 0.228814
0.866789 0.478918 0.251019
0.871936 0.387377 0.415809
0.215196 0.879412 0.525000
0.215196 0.879412 0.521078
0.215196 0.879412 0.517325
0.215196 0.878301 0.515931
0.215196 0.878186 0.513572
0.215196 0.878186 0.509735
0.217387 0.875490 0.508088
0.219118 0.875490 0.502328
0.224755 0.872243 0.494608
0.239170 0.868750 0.486887
0.259666 0.861029 0.476088
0.276716 0.854113 0.459260
0.290472 0.845588 0.435294
0.304174 0.837868 0.404282
0.326225 0.824020 0.352941
0.387791 0.805063 0.306127
0.500858 0.784681 0.297059
0.592364 0.778715 0.297143
0.646278 0.784559 0.289170
0.686397 0.794600 0.293995
0.726011 0.803922 0.304871
0.770221 0.811137 0.320481
0.800597 0.809666 0.342080
0.829534 0.812623 0.344953
0.847120 0.818137 0.343934
0.857598 0.817547 0.335685
0.859329 0.815441 0.310769
0.862132 0.812132 0.264514
0.866667 0.803738 0.218658
0.866414 0.781962 0.193903
0.862745 0.731832 0.193168
0.866667 0.615119 0.233655
0.869363 0.511029 0.287010
0.251471 0.903064 0.560172
0.250368 0.903064 0.557353
0.250368 0.903064 0.553608
0.250368 0.900245 0.553431
0.251333 0.900245 0.549510
0.251471 0.900245 0.546201
0.253761 0.900245 0.542402
0.255151 0.900245 0.538603
0.258211 0.896324 0.534528
0.261340 0.893505 0.525057
0.277842 0.888825 0.515441
0.299020 0.880136 0.501225
0.316912 0.872503 0.478064
0.332353 0.862623 0.451103
0.346561 0.851463 0.409069
0.385294 0.834436 0.357843
0.482414 0.812561 0.331863
0.584218 0.800368 0.333824
0.644485 0.800000 0.328807
0.685949 0.806618 0.329247
0.722426 0.815809 0.338526
0.759547 0.825980 0.349755
0.798238 0.831595 0.363503
0.822606 0.829347 0.383218
0.840074 0.832475 0.388725
0.851597 0.833578 0.385290
0.854902 0.833372 0.377168
0.857893 0.832035 0.349142
0.861642 0.829305 0.307368
0.865564 0.822285 0.262274
0.866667 0.804075 0.215150
0.862868 0.743344 0.192268
0.866667 0.613235 0.241544
0.273529 0.910784 0.582353
0.273529 0.910784 0.578431
0.273529 0.910784 0.578431
0.273438 0.910784 0.574602
0.273407 0.910784 0.574510
0.273529 0.910784 0.571569
0.275919 0.910784 0.568199
0.276471 0.907721 0.564369
0.279657 0.906863 0.559069
0.283211 0.905882 0.552083
0.287010 0.900245 0.541422
0.305760 0.896446 0.530790
0.325368 0.885784 0.512132
0.346415 0.877083 0.484406
0.360600 0.865441 0.447794
0.384344 0.851716 0.403186
0.459314 0.830882 0.366176
0.562714 0.811428 0.359283
0.633578 0.807843 0.358088
0.677574 0.813358 0.355882
0.714093 0.821078 0.362377
0.750521 0.828799 0.371936
0.787255 0.836520 0.379596
0.816207 0.839216 0.396446
0.835539 0.839216 0.410049
0.847151 0.843137 0.417862
0.854105 0.843137 0.418076
0.854902 0.843137 0.407598
0.855270 0.840196 0.381373
0.858824 0.839920 0.346906
0.862010 0.832904 0.302083
0.865717 0.813572 0.238327
0.869608 0.718627 0.198039
0.292770 0.909804 0.596936
0.292770 0.909804 0.593873
0.292770 0.909804 0.593068
0.291912 0.912580 0.590238
0.291912 0.912868 0.589951
0.291912 0.912868 0.586508
0.291912 0.912868 0.582843
0.292582 0.910474 0.579044
0.295067 0.909804 0.575245
0.298652 0.906744 0.568141
0.302451 0.903776 0.560072
0.306250 0.899950 0.548457
0.324464 0.892525 0.534069
0.345485 0.884295 0.510907
0.365679 0.870956 0.474755
0.383578 0.858578 0.434069
0.433578 0.840502 0.393627
0.530270 0.820711 0.381127
0.612868 0.810424 0.379527
0.665074 0.812113 0.377451
0.702528 0.820221 0.379657
0.738358 0.826888 0.387377
0.773629 0.832598 0.390908
0.805515 0.840319 0.399142
0.825398 0.839216 0.417647
0.843325 0.843137 0.428496
0.851555 0.843298 0.436152
0.854902 0.843995 0.432610
0.854902 0.843888 0.422059
0.854902 0.843137 0.398897
0.858019 0.842946 0.370749
0.858919 0.839664 0.331016
0.865809 0.805147 0.241667
0.315931 0.905882 0.609314
0.312132 0.905882 0.605492
0.312010 0.909069 0.605392
0.312010 0.909069 0.604726
0.312010 0.909069 0.601869
0.312010 0.909069 0.601471
0.312010 0.909069 0.597549
0.312010 0.909069 0.594485
0.314400 0.906679 0.590502
0.315196 0.905882 0.585784
0.319118 0.905882 0.579167
0.323039 0.901961 0.567777
0.327420 0.898315 0.554167
0.344539 0.888603 0.534804
0.367724 0.878355 0.506051
0.391690 0.863235 0.466077
0.428554 0.847426 0.429167
0.501103 0.828431 0.409681
0.584972 0.815441 0.407598
0.647603 0.813794 0.402819
0.688695 0.817892 0.403676
0.726838 0.824877 0.407116
0.762025 0.832368 0.410784
0.791912 0.838687 0.410945
0.816360 0.840564 0.418934
0.834842 0.840074 0.432966
