TEAL_AND_ORANGE_LUT.cube
#Generated with IWLTBAP LUT Generator 2.1
#Website: https://luts.iwltbap.com
TITLE "TEAL AND ORANGE LUT"
LUT_3D_SIZE 9
0.003922 0.007843 0.007843
0.003922 0.007843 0.007843
0.054902 0.007843 0.011765
0.218627 0.000000 0.007843
0.413725 0.000000 0.029412
0.616667 0.005392 0.155392
0.810784 0.065686 0.395098
0.839706 0.114216 0.571078
0.862745 0.168627 0.721569
0.003922 0.015196 0.007843
0.003922 0.015196 0.007843
0.053922 0.011275 0.007843
0.225980 0.000000 0.007843
0.427206 0.000000 0.023529
0.628125 0.005392 0.147549
0.817279 0.068260 0.394240
0.839706 0.114216 0.567157
0.862745 0.175980 0.721569
0.000000 0.095098 0.010784
0.003431 0.090196 0.007843
0.066667 0.086520 0.008824
0.258824 0.035294 0.005025
0.433824 0.000000 0.000490
0.643137 0.008946 0.121078
0.823775 0.068627 0.376471
0.839706 0.117647 0.555515
0.862745 0.183333 0.718627
0.000000 0.266667 0.026961
0.000000 0.258824 0.017157
0.011275 0.255392 0.005760
0.242525 0.256373 0.004841
0.552941 0.187745 0.042647
0.670711 0.064338 0.024571
0.838725 0.068627 0.307843
0.839706 0.118137 0.533824
0.862745 0.198529 0.713725
0.023529 0.515686 0.172549
0.021569 0.513725 0.161029
0.038725 0.509804 0.128431
0.150490 0.492892 0.067892
0.500980 0.495098 0.050980
0.791912 0.505637 0.191667
0.867157 0.357843 0.179412
0.852451 0.110294 0.368873
0.862745 0.231373 0.692157
0.125000 0.792157 0.419608
0.124510 0.788419 0.407843
0.165319 0.780760 0.392770
0.216176 0.758333 0.316544
0.517647 0.706863 0.216667
0.732230 0.737623 0.237684
0.858824 0.756863 0.246446
0.862745 0.664338 0.217157
0.866667 0.328431 0.587255
0.273529 0.910784 0.582353
0.273407 0.910784 0.574510
0.279657 0.906863 0.559069
0.325368 0.885784 0.512132
0.459314 0.830882 0.366176
0.714093 0.821078 0.362377
0.835539 0.839216 0.410049
0.855270 0.840196 0.381373
0.869608 0.718627 0.198039
0.370588 0.901961 0.636275
0.362255 0.901961 0.628431
0.362255 0.901961 0.616667
0.372549 0.895588 0.592463
0.462255 0.859559 0.524510
0.667157 0.832353 0.512439
0.802941 0.847059 0.494975
0.859804 0.854963 0.532904
0.854902 0.846569 0.407843
0.635294 0.901961 0.756863
0.592647 0.898039 0.729902
0.584314 0.895098 0.722549
0.590686 0.894118 0.717647
0.627451 0.894118 0.717647
0.706373 0.890196 0.730882
0.817647 0.898039 0.757843
0.883333 0.905882 0.769118
0.913725 0.913725 0.792157
0.003922 0.007843 0.011275
0.003922 0.007843 0.011765
0.070588 0.005270 0.026961
0.240870 0.000000 0.023039
0.435049 0.000000 0.054657
0.633333 0.009130 0.198039
0.817279 0.072181 0.421078
0.839706 0.113725 0.582353
0.862745 0.175980 0.725490
0.003922 0.015196 0.011703
0.003922 0.015196 0.011757
0.081434 0.007843 0.015196
0.234069 0.001471 0.011765
0.421538 0.000000 0.033548
0.625980 0.007843 0.166667
0.817601 0.069485 0.406373
0.843137 0.113779 0.578493
0.863174 0.191176 0.732843
0.000000 0.098039 0.022181
0.000000 0.094118 0.011320
0.063511 0.086275 0.011765
0.264262 0.031005 0.007230
0.439706 0.000000 0.004350
0.642525 0.009268 0.134053
0.821569 0.068627 0.387531
0.839706 0.117647 0.568015
0.862745 0.202819 0.728922
0.000000 0.270588 0.042157
0.000000 0.264522 0.027122
0.001333 0.254902 0.006373
0.238718 0.256373 0.004841
0.550245 0.182843 0.045833
0.668857 0.045818 0.026578
0.836275 0.068627 0.326302
0.840832 0.118137 0.552941
0.862745 0.228431 0.732353
0.015931 0.519363 0.182108
0.019608 0.515686 0.172335
0.032414 0.508578 0.140257
0.126961 0.492892 0.068627
0.497059 0.492157 0.051961
0.791912 0.499173 0.196078
0.867157 0.335784 0.171752
0.849234 0.127451 0.435815
0.866667 0.283333 0.730637
0.121078 0.792341 0.431373
0.117341 0.792157 0.419340
0.138113 0.784452 0.398897
0.208402 0.761703 0.333578
0.502696 0.705637 0.219363
0.728309 0.735348 0.234429
0.857721 0.750368 0.248897
0.862745 0.641766 0.224717
0.870588 0.383333 0.674020
0.273529 0.910784 0.590196
0.269608 0.910784 0.582460
0.275735 0.907843 0.567647
0.310830 0.889706 0.523407
0.433762 0.833333 0.371078
0.708333 0.817157 0.360662
0.832353 0.837010 0.409804
0.855270 0.840196 0.377083
0.862745 0.691544 0.205882
0.370588 0.898529 0.640196
0.362255 0.901961 0.632790
0.362255 0.898529 0.623820
0.370404 0.895588 0.598529
0.450735 0.864951 0.531893
0.657169 0.832353 0.512600
0.799020 0.843627 0.494072
0.858885 0.851900 0.528983
0.854902 0.843137 0.404412
0.643137 0.901961 0.760784
0.619608 0.898039 0.745098
0.608701 0.898039 0.737255
0.607843 0.894118 0.729412
0.639216 0.894118 0.729412
0.710294 0.894118 0.738542
0.814706 0.898039 0.761765
0.883333 0.905882 0.772120
0.913725 0.913725 0.792157
0.003922 0.015686 0.071569
0.003922 0.011765 0.074510
0.066667 0.004902 0.079167
0.230392 0.000000 0.097917
0.431373 0.000000 0.108824
0.657843 0.013235 0.267157
0.828431 0.091176 0.476716
0.843137 0.114216 0.619608
0.862745 0.218627 0.749020
0.003922 0.019118 0.050980
0.003922 0.019118 0.081817
0.065656 0.007475 0.080055
0.229550 0.000000 0.072549
0.438787 0.000000 0.088480
0.658012 0.013235 0.243627
0.827788 0.087255 0.461765
0.843627 0.116789 0.617525
0.866667 0.268137 0.771078
0.000000 0.090931 0.060049
0.000000 0.090288 0.060325
0.063297 0.092463 0.084069
0.296691 0.020221 0.048775
0.455147 0.000000 0.046814
0.650000 0.009314 0.184804
0.824510 0.077206 0.421385
0.843137 0.117647 0.598039
0.866667 0.294363 0.778431
0.000000 0.274510 0.083824
0.000000 0.270588 0.066131
0.000000 0.262010 0.031924
0.243382 0.259865 0.024586
0.536091 0.172120 0.061458
0.693459 0.020527 0.082230
0.835907 0.072396 0.355729
0.843275 0.121569 0.577757
0.866667 0.311765 0.779412
0.005882 0.521078 0.207843
0.002941 0.517402 0.189645
0.019118 0.510294 0.170221
0.086520 0.488419 0.076777
0.487745 0.483578 0.056618
0.783395 0.489216 0.205760
0.866667 0.317525 0.169118
0.845343 0.134620 0.491360
0.868627 0.342157 0.769608
0.117157 0.792157 0.448897
0.113235 0.792157 0.435662
0.120343 0.785784 0.415686
0.195466 0.762255 0.353922
0.476103 0.702757 0.226471
0.721523 0.729779 0.233762
0.855882 0.745098 0.264216
0.862423 0.626930 0.226731
0.874510 0.402328 0.717157
0.278186 0.909804 0.601225
0.269608 0.913725 0.595129
0.273529 0.910784 0.581801
0.295221 0.896569 0.538235
0.411642 0.840319 0.386642
0.700950 0.817157 0.364951
0.831618 0.836275 0.408333
0.854994 0.836918 0.376716
0.863480 0.683333 0.217892
0.370588 0.901961 0.644118
0.358824 0.902282 0.642770
0.361397 0.901961 0.632261
0.370098 0.898039 0.606373
0.442892 0.868444 0.540319
0.653018 0.836091 0.517341
0.798897 0.844271 0.501164
0.858885 0.851042 0.525490
0.854902 0.843137 0.404412
0.639216 0.901961 0.760784
0.615686 0.898039 0.745588
0.611765 0.898039 0.741176
0.610294 0.894118 0.733333
0.639216 0.894118 0.729412
0.706373 0.894118 0.738725
0.814706 0.898039 0.761765
0.883333 0.905882 0.771691
0.913725 0.913725 0.792157
0.003922 0.027451 0.214706
0.003922 0.023529 0.225980
0.052451 0.007843 0.233824
0.223468 0.000000 0.214093
0.424755 0.000000 0.250980
0.658824 0.022549 0.371630
0.832353 0.095711 0.518627
0.847059 0.117647 0.650184
0.862745 0.231373 0.759314
0.003922 0.031189 0.201471
0.003615 0.029435 0.225061
0.032537 0.012132 0.249096
0.222480 0.000000 0.216605
0.423438 0.000000 0.242402
0.660110 0.022549 0.349571
0.832353 0.095098 0.510784
0.847059 0.117953 0.648039
0.866667 0.260600 0.772059
0.000000 0.099020 0.193627
0.000000 0.096936 0.210830
0.005147 0.076593 0.278676
0.255453 0.007966 0.243459
0.433150 0.000000 0.215870
0.677589 0.025000 0.330392
0.831985 0.099020 0.503186
0.847059 0.121691 0.654596
0.870588 0.324510 0.803922
0.000000 0.265196 0.185784
0.000000 0.265196 0.186512
0.000000 0.262745 0.188006
0.277106 0.294707 0.272074
0.570037 0.161244 0.214798
0.698790 0.024203 0.229902
0.831985 0.087684 0.442785
0.846255 0.121944 0.618627
0.871507 0.356373 0.813297
0.005882 0.527451 0.300735
0.004657 0.525490 0.290196
0.005882 0.521017 0.264400
0.058241 0.507414 0.195006
0.497794 0.494485 0.162010
0.764951 0.466422 0.246844
0.869363 0.241667 0.216912
0.847212 0.140441 0.539400
0.873039 0.387990 0.804412
0.124081 0.788787 0.493627
0.115686 0.788235 0.482054
0.116927 0.785095 0.463235
0.137707 0.773100 0.412339
0.390196 0.706373 0.254657
0.708471 0.715219 0.240097
0.857721 0.732644 0.307001
0.863856 0.603799 0.229779
0.876961 0.430821 0.760723
0.287745 0.910784 0.627574
0.278064 0.913725 0.620404
0.281373 0.910784 0.611152
0.295588 0.905944 0.578431
0.390748 0.854534 0.444547
0.686045 0.813465 0.383716
0.827972 0.834436 0.409773
0.854902 0.834222 0.390273
0.862745 0.665196 0.235294
0.374020 0.901961 0.661949
0.362584 0.905882 0.658188
0.362255 0.905882 0.650444
0.370404 0.899701 0.628431
0.428738 0.878738 0.570435
0.642456 0.840196 0.541536
0.795098 0.847549 0.526961
0.858885 0.851310 0.522266
0.854902 0.843137 0.404412
0.635294 0.901961 0.760784
0.611765 0.898039 0.749020
0.607843 0.898039 0.745098
0.611765 0.898039 0.741176
0.639216 0.898039 0.736520
0.706373 0.896569 0.741176
0.813725 0.898039 0.761765
0.883333 0.909804 0.772549
0.913725 0.913725 0.788235
0.000000 0.066667 0.398039
0.000000 0.057108 0.409559
0.033824 0.043627 0.436765
0.214951 0.003922 0.417892
0.425490 0.000000 0.410784
0.667892 0.025000 0.522304
0.832843 0.087255 0.651471
0.851225 0.136275 0.714951
0.864706 0.258824 0.782353
0.000000 0.070588 0.397794
0.000000 0.070098 0.408395
0.013909 0.049203 0.439154
0.201134 0.003922 0.425888
0.425368 0.000000 0.409681
0.661918 0.021722 0.511765
0.832353 0.085294 0.637255
0.851225 0.134069 0.709069
0.866667 0.260049 0.782353
0.000000 0.106373 0.400000
0.000000 0.104902 0.411275
0.000000 0.078431 0.445956
0.179289 0.006679 0.468689
0.444118 0.000000 0.427451
0.664461 0.021814 0.506066
0.832353 0.089216 0.624510
0.851287 0.140441 0.711520
0.869118 0.316667 0.809804
0.000000 0.266667 0.393382
0.000000 0.264706 0.399663
0.000000 0.255086 0.420037
0.124326 0.229871 0.533425
0.524755 0.086029 0.502328
0.681556 0.025980 0.499510
0.834375 0.093137 0.596078
0.853431 0.146875 0.711765
0.874510 0.375980 0.832598
0.000000 0.522549 0.438235
0.000000 0.522549 0.439951
0.000000 0.519608 0.438480
0.008578 0.516544 0.439706
0.544608 0.538235 0.513725
0.796936 0.434314 0.470711
0.847059 0.172304 0.485539
0.851593 0.143505 0.649755
0.885294 0.464706 0.854902
0.104412 0.792157 0.586520
0.104320 0.792157 0.580637
0.114645 0.788235 0.570282
0.147059 0.776746 0.542892
0.332721 0.750735 0.468873
0.714338 0.725919 0.446232
0.868995 0.721507 0.483517
0.870772 0.518566 0.355270
0.885539 0.483088 0.824510
0.289706 0.916667 0.693137
0.284314 0.916667 0.685846
0.292402 0.912500 0.676471
0.310049 0.905025 0.649877
0.361029 0.884069 0.574020
0.653554 0.828186 0.516544
0.822059 0.834804 0.502083
0.856863 0.829228 0.464277
0.872549 0.605392 0.373529
0.376471 0.908088 0.700245
0.368382 0.909804 0.696324
0.370037 0.908517 0.689032
0.379320 0.905882 0.673928
0.429534 0.893873 0.634314
0.636275 0.858578 0.603248
0.799020 0.859191 0.601716
0.864706 0.859069 0.574203
0.854657 0.843137 0.412990
0.631373 0.901961 0.770588
0.607843 0.901961 0.758824
0.603922 0.901961 0.754902
0.610294 0.901961 0.752941
0.643137 0.901961 0.754902
0.703676 0.901961 0.756373
0.810784 0.900490 0.774510
0.883333 0.911765 0.786275
0.913725 0.909804 0.784314
0.000000 0.122059 0.589216
0.000000 0.112745 0.604412
0.028431 0.104902 0.625980
0.205944 0.017279 0.627451
0.445098 0.014461 0.606863
0.669118 0.045466 0.666667
0.847672 0.150490 0.784314
0.851471 0.150490 0.844118
0.862745 0.249020 0.843627
0.000000 0.127941 0.588725
0.000000 0.124020 0.592218
0.003294 0.108778 0.617341
0.179044 0.031733 0.636765
0.437010 0.013725 0.605729
0.666176 0.045282 0.662370
0.847672 0.148652 0.779427
0.851900 0.150490 0.841935
0.866667 0.259620 0.842341
0.000000 0.169608 0.596691
0.000000 0.161045 0.602405
0.000000 0.139583 0.634926
0.154856 0.081939 0.673269
0.461765 0.019608 0.648162
0.674372 0.047534 0.670221
0.847059 0.150858 0.781005
0.853294 0.154642 0.841973
0.871569 0.345221 0.857843
0.000000 0.274510 0.595588
0.000000 0.266667 0.599395
0.000000 0.258134 0.622978
0.003715 0.196055 0.683517
0.441942 0.034314 0.688419
0.712684 0.066422 0.708418
0.847059 0.150123 0.777635
0.852757 0.162546 0.832353
0.879902 0.409314 0.865686
0.000000 0.542647 0.616667
0.000000 0.539216 0.619853
0.000000 0.535478 0.630086
0.000000 0.517157 0.645803
0.428064 0.477574 0.770221
0.778983 0.355821 0.754963
0.855331 0.178615 0.767402
0.854749 0.179136 0.803462
0.894118 0.501471 0.883824
0.085110 0.785233 0.711275
0.083272 0.784314 0.711275
0.087194 0.781694 0.709804
0.103860 0.775896 0.704619
0.272335 0.762500 0.700980
0.751547 0.748162 0.732131
0.910386 0.693566 0.716835
0.870833 0.340824 0.682744
0.898039 0.519118 0.872120
0.226961 0.932843 0.798652
0.223039 0.932475 0.794194
0.229902 0.931373 0.786979
0.254412 0.921538 0.769118
0.336029 0.896507 0.723529
0.661305 0.868398 0.708027
0.847304 0.858333 0.705239
0.908333 0.845358 0.699341
0.890074 0.548897 0.590931
0.333824 0.930882 0.784314
0.329718 0.933027 0.780392
0.333241 0.930882 0.772672
0.353922 0.925199 0.758640
0.437255 0.909222 0.731863
0.652451 0.895588 0.728799
0.816575 0.891850 0.737561
0.895182 0.895504 0.738810
0.873039 0.866667 0.610049
0.615686 0.909804 0.789706
0.594608 0.907353 0.781863
0.596078 0.907353 0.780392
0.606373 0.905882 0.779473
0.647059 0.909804 0.785784
0.714216 0.909804 0.792096
0.812868 0.913725 0.806373
0.895098 0.925490 0.822549
0.917647 0.915196 0.799020
0.000000 0.206863 0.749020
0.000000 0.199387 0.759436
0.003676 0.187990 0.778431
0.218260 0.150980 0.807475
0.457843 0.032353 0.787255
0.672549 0.084314 0.797549
0.844118 0.122794 0.877451
0.854902 0.152941 0.906863
0.858824 0.176471 0.906863
0.000000 0.210294 0.741054
0.000000 0.206373 0.747181
0.000000 0.194730 0.766299
0.175613 0.161397 0.803294
0.449203 0.032353 0.790686
0.671201 0.084314 0.797503
0.843597 0.122549 0.873775
0.854902 0.150368 0.904626
0.858824 0.172549 0.906985
0.000000 0.251961 0.747794
0.000000 0.248039 0.750613
0.000000 0.226471 0.774510
0.091881 0.184314 0.814706
0.448529 0.040196 0.817770
0.686887 0.095098 0.818627
0.846507 0.126471 0.881373
0.854902 0.153431 0.907935
0.862745 0.243137 0.910784
0.000000 0.305882 0.736887
0.000000 0.301961 0.740058
0.000000 0.298407 0.760447
0.000000 0.257353 0.792647
0.377696 0.054963 0.832843
0.737316 0.132353 0.865456
0.847059 0.126471 0.886029
0.854902 0.157353 0.910830
0.870588 0.365809 0.912255
0.000000 0.555392 0.759804
0.000000 0.550000 0.763480
0.000000 0.550000 0.773162
0.000000 0.535233 0.789400
0.317157 0.483824 0.883333
0.732966 0.327819 0.884804
0.856005 0.161275 0.895466
0.854902 0.157353 0.909375
0.893627 0.520098 0.922549
0.002574 0.791667 0.810662
0.001103 0.789384 0.810662
0.001103 0.787745 0.811275
0.000000 0.782767 0.813496
0.073775 0.776716 0.841115
0.697748 0.719179 0.901900
0.906955 0.662408 0.895129
0.871477 0.330224 0.885401
0.898039 0.533824 0.913848
0.246324 0.931373 0.872549
0.242402 0.928217 0.871569
0.246324 0.924326 0.868627
0.259467 0.919608 0.864246
0.303799 0.904412 0.851471
0.651011 0.879657 0.848866
0.871507 0.877267 0.868076
0.942892 0.839737 0.854412
0.893137 0.485784 0.868137
0.326471 0.949020 0.856740
0.319118 0.949020 0.852941
0.319975 0.948744 0.851808
0.330469 0.945098 0.844792
0.384436 0.936152 0.831127
0.649954 0.921569 0.826777
0.834926 0.931434 0.854779
0.923514 0.937377 0.865794
0.926103 0.915686 0.821078
0.583333 0.921569 0.828431
0.559804 0.921569 0.825490
0.567647 0.921569 0.824510
0.581863 0.918627 0.821569
0.636275 0.918627 0.823039
0.721078 0.922549 0.832353
0.823529 0.933578 0.857598
0.914338 0.946078 0.880882
0.938235 0.946078 0.881373
0.000000 0.306863 0.824020
0.000000 0.299020 0.827451
0.000000 0.273529 0.831373
0.035600 0.223529 0.859498
0.423775 0.056863 0.870588
0.722120 0.124877 0.890380
0.833333 0.126471 0.906863
0.854412 0.145588 0.917647
0.858824 0.168627 0.921569
0.000000 0.302941 0.819608
0.000000 0.302451 0.820044
0.000000 0.284421 0.827665
0.009153 0.229006 0.853110
0.406403 0.056863 0.870588
0.719324 0.126494 0.890602
0.830392 0.125613 0.903431
0.854419 0.145588 0.917647
0.858824 0.168627 0.921569
0.000000 0.317647 0.815196
0.000000 0.317647 0.818428
0.000000 0.320833 0.827727
0.000000 0.265518 0.837837
0.366176 0.075551 0.874326
0.733027 0.135432 0.895956
0.840104 0.126471 0.909835
0.854902 0.149020 0.917754
0.858824 0.176471 0.921691
0.000000 0.382169 0.806863
0.000000 0.379557 0.808150
0.000000 0.390870 0.821936
0.000000 0.378493 0.835118
0.306495 0.218321 0.890533
0.711589 0.150191 0.898055
0.850015 0.136152 0.917647
0.854902 0.149081 0.917992
0.862745 0.226042 0.921752
0.000000 0.592892 0.825980
0.000000 0.590931 0.828156
0.000000 0.593137 0.834191
0.000000 0.586428 0.846967
0.204902 0.560662 0.898529
0.704565 0.410202 0.915625
0.860355 0.220772 0.921569
0.854902 0.152941 0.919393
0.878186 0.432598 0.923284
0.000000 0.814706 0.864032
0.000000 0.814522 0.864032
0.000000 0.813235 0.866176
0.000000 0.809314 0.870098
0.036703 0.796324 0.890533
0.652880 0.734076 0.945458
0.884145 0.666054 0.950169
0.874035 0.385861 0.922672
0.876654 0.417157 0.921385
0.160662 0.939583 0.914216
0.153202 0.939216 0.914200
0.152451 0.938358 0.914216
0.158824 0.932705 0.914216
0.228186 0.913480 0.909314
0.599694 0.876547 0.910784
0.846569 0.864951 0.944700
0.938235 0.824510 0.944608
0.870221 0.332966 0.920711
0.338725 0.949020 0.890196
0.330882 0.949510 0.890196
0.334314 0.949020 0.889767
0.342302 0.945588 0.887891
0.383609 0.939461 0.884559
0.631679 0.925957 0.884398
0.826762 0.937699 0.914721
0.938182 0.949456 0.941667
0.952941 0.933946 0.938235
0.548039 0.929412 0.871078
0.528431 0.929412 0.867647
0.536765 0.929412 0.867157
0.555208 0.929412 0.867157
0.613725 0.929412 0.867402
0.703738 0.933333 0.876777
0.826961 0.945221 0.903431
0.926471 0.960784 0.938235
0.952941 0.960784 0.945588
0.000000 0.384314 0.831373
0.000000 0.364706 0.831373
0.000000 0.353922 0.835294
0.000000 0.320588 0.835294
0.266667 0.164706 0.884314
0.698529 0.136765 0.897059
0.847059 0.121569 0.913725
0.850980 0.137255 0.917647
0.854902 0.156863 0.921569
0.000000 0.360294 0.830882
0.000000 0.359865 0.830882
0.000000 0.352451 0.834436
0.000000 0.319792 0.832659
0.267892 0.154902 0.880147
0.695098 0.130392 0.897059
0.843015 0.121569 0.913725
0.850980 0.137255 0.917647
0.855392 0.156863 0.921569
0.000000 0.386275 0.827451
0.000000 0.389706 0.827451
0.000000 0.485294 0.842157
0.000000 0.462255 0.846078
0.178922 0.372059 0.898039
0.660049 0.157353 0.901348
0.852696 0.145098 0.917892
0.850980 0.141176 0.917647
0.858824 0.160784 0.922549
0.000000 0.496078 0.833824
0.000000 0.498039 0.837255
0.000000 0.558333 0.850613
0.000000 0.587439 0.858824
0.086765 0.553922 0.888235
0.673529 0.410784 0.918627
0.855882 0.202451 0.921569
0.850980 0.141176 0.919118
0.858824 0.164706 0.923039
0.000000 0.647059 0.849020
0.000000 0.648775 0.852941
0.000000 0.677451 0.860784
0.000000 0.692647 0.868627
0.011765 0.725490 0.880392
0.647794 0.672794 0.950735
0.880882 0.583333 0.942157
0.858333 0.173529 0.921569
0.858824 0.172549 0.925490
0.000000 0.840196 0.890686
0.000000 0.842341 0.890686
0.000000 0.846569 0.897059
0.000000 0.849020 0.900980
0.002696 0.849020 0.904167
0.588725 0.803860 0.927880
0.854412 0.755025 0.963725
0.914400 0.637990 0.948713
0.858824 0.172549 0.925490
0.130392 0.950000 0.929412
0.128431 0.947059 0.929412
0.125490 0.947059 0.929412
0.123529 0.944240 0.929412
0.208333 0.926471 0.925000
0.581863 0.886152 0.918137
0.819608 0.873529 0.949020
0.937745 0.842279 0.952941
0.873529 0.354902 0.923529
0.327451 0.952941 0.905392
0.320098 0.952941 0.905882
0.319608 0.952941 0.905882
0.324020 0.950490 0.905882
0.361275 0.943382 0.905392
0.598346 0.924203 0.901961
0.808333 0.933456 0.930025
0.930821 0.945588 0.956863
0.952941 0.919608 0.956863
0.517647 0.933333 0.894118
0.498039 0.937255 0.894118
0.508824 0.937255 0.894118
0.538235 0.933333 0.894118
0.601961 0.933333 0.898039
0.694608 0.937255 0.907353
0.815686 0.949020 0.930392
0.926471 0.964706 0.957353
0.956863 0.964706 0.964706
