VINTAGE_GREEN_LUT.cube
#Generated with IWLTBAP LUT Generator 2.1
#Website: https://luts.iwltbap.com
TITLE "VINTAGE GREEN LUT"
LUT_3D_SIZE 5
0.054902 0.070588 0.031373
0.168627 0.074510 0.046078
0.547059 0.070588 0.129412
0.801961 0.170588 0.381373
0.870588 0.290196 0.690196
0.040196 0.179412 0.050980
0.160049 0.163971 0.038480
0.534804 0.064216 0.063725
0.797304 0.165686 0.357843
0.843137 0.247059 0.628431
0.052941 0.617647 0.215686
0.067647 0.621569 0.174020
0.588235 0.598039 0.086275
0.844608 0.336765 0.250000
0.886275 0.286275 0.631373
0.455882 0.997059 0.645098
0.459804 1.000000 0.627206
0.537255 1.000000 0.515686
0.990686 0.996814 0.499265
0.963725 0.885294 0.408824
0.709804 1.000000 0.807843
0.678431 1.000000 0.784314
0.735294 1.000000 0.790196
0.936275 1.000000 0.803922
0.996078 1.000000 0.823529
0.058824 0.074510 0.102941
0.166176 0.070588 0.114706
0.550980 0.062745 0.184314
0.805882 0.175245 0.408824
0.882353 0.305882 0.713725
0.051225 0.165441 0.121569
0.147917 0.157414 0.109804
0.555392 0.072059 0.128554
0.801961 0.170588 0.384743
0.892402 0.322794 0.730637
0.050980 0.611765 0.253922
0.050858 0.613358 0.212132
0.575245 0.586765 0.089951
0.820343 0.287990 0.236275
0.926961 0.353922 0.747059
0.452941 0.997059 0.653922
0.455882 0.997059 0.640625
0.516422 1.000000 0.532353
0.987745 0.996078 0.498284
0.955882 0.843137 0.382353
0.721569 1.000000 0.815686
0.712745 1.000000 0.807843
0.749020 1.000000 0.807353
0.935294 1.000000 0.807843
0.996078 1.000000 0.823529
0.072549 0.078431 0.386275
0.185294 0.066667 0.405392
0.541176 0.062745 0.446078
0.810294 0.185294 0.524510
0.882353 0.315686 0.739216
0.039216 0.112745 0.388235
0.075000 0.083211 0.424020
0.553186 0.062745 0.453676
0.812255 0.185294 0.511642
0.900980 0.341667 0.765196
0.056863 0.562745 0.462745
0.060784 0.561029 0.454412
0.544118 0.556863 0.448039
0.828922 0.213725 0.386029
0.985294 0.481373 0.881373
0.450000 0.992157 0.707353
0.452941 0.995221 0.695711
0.481863 1.000000 0.625490
0.981127 0.993873 0.520588
0.963725 0.770588 0.367647
0.719608 1.000000 0.827451
0.708824 1.000000 0.815686
0.759804 1.000000 0.825490
0.928431 1.000000 0.815686
0.996078 1.000000 0.823529
0.120588 0.114706 0.619608
0.200245 0.095343 0.635294
0.477451 0.097059 0.674020
0.765686 0.200980 0.700980
0.787255 0.250000 0.737255
0.076225 0.155882 0.615686
0.117402 0.123284 0.620343
0.463235 0.100980 0.679412
0.767892 0.200980 0.704105
0.829412 0.306127 0.779412
0.140686 0.482353 0.699510
0.141176 0.473775 0.701348
0.389706 0.403676 0.825735
0.773897 0.215686 0.715686
0.981863 0.525980 0.935784
0.439951 0.929902 0.843137
0.439216 0.932353 0.839216
0.447059 0.941667 0.841054
0.923591 0.942463 0.837316
0.997794 0.531618 0.843627
0.685294 1.000000 0.887255
0.689216 1.000000 0.884314
0.759804 1.000000 0.884314
0.914461 1.000000 0.883333
0.995098 1.000000 0.880392
0.125490 0.266667 0.670588
0.117647 0.243137 0.666667
0.335294 0.113725 0.682353
0.752941 0.192157 0.725490
0.776471 0.231373 0.741176
0.124510 0.268627 0.669608
0.143382 0.337010 0.695343
0.305882 0.238725 0.739216
0.764706 0.210049 0.733333
0.776471 0.235294 0.745098
0.205882 0.549020 0.750980
0.213725 0.573529 0.756863
0.251961 0.608824 0.789216
0.952941 0.490686 0.927451
0.784314 0.247059 0.750980
0.403922 0.893137 0.860784
0.403922 0.894118 0.859804
0.431863 0.902941 0.870588
0.890441 0.928431 0.917647
0.944118 0.488235 0.910784
0.627451 1.000000 0.933333
0.639216 1.000000 0.933333
0.727451 1.000000 0.933333
0.909804 1.000000 0.933333
0.996078 1.000000 0.937255
