VINTAGE_GREEN_LUT.cube
#Generated with IWLTBAP LUT Generator 2.1
#Website: https://luts.iwltbap.com
TITLE "VINTAGE GREEN LUT"
LUT_3D_SIZE 33
0.054902 0.070588 0.031373
0.054902 0.070588 0.031373
0.054902 0.070588 0.031373
0.054902 0.070588 0.031373
0.065686 0.070588 0.031373
0.081127 0.070588 0.034681
0.106863 0.070588 0.038480
0.134681 0.070588 0.042279
0.168627 0.074510 0.046078
0.202328 0.074510 0.050980
0.240931 0.070588 0.057598
0.282108 0.070588 0.065319
0.328431 0.070588 0.073039
0.378676 0.070588 0.078431
0.431127 0.070588 0.090686
0.489093 0.068505 0.108211
0.547059 0.070588 0.129412
0.605025 0.072426 0.154534
0.649510 0.078431 0.179412
0.692647 0.087868 0.206373
0.722059 0.100980 0.241176
0.743873 0.117770 0.273407
0.764461 0.137010 0.308088
0.786520 0.155147 0.346691
0.801961 0.170588 0.381373
0.816544 0.186029 0.423897
0.827451 0.196814 0.466422
0.828064 0.204534 0.512868
0.831373 0.211765 0.550980
0.827451 0.216054 0.581863
0.835784 0.232353 0.616912
0.855147 0.263235 0.659314
0.870588 0.290196 0.690196
0.054902 0.070588 0.031373
0.054902 0.070588 0.031373
0.054902 0.070588 0.031373
0.054902 0.070588 0.031373
0.062362 0.070588 0.031373
0.077309 0.070588 0.031373
0.096791 0.070588 0.035294
0.126103 0.070588 0.039216
0.157108 0.073529 0.043229
0.191877 0.074387 0.049877
0.233211 0.070588 0.054986
0.275816 0.070588 0.061397
0.324632 0.070588 0.069240
0.374828 0.070588 0.076888
0.429465 0.070588 0.088549
0.489093 0.068505 0.108211
0.547059 0.070588 0.129412
0.603244 0.072426 0.154534
0.649510 0.078431 0.177750
0.690391 0.087868 0.206373
0.722059 0.099510 0.237255
0.743873 0.116422 0.269566
0.763235 0.135784 0.304251
0.782598 0.155147 0.342770
0.801961 0.166759 0.377451
0.813480 0.182108 0.416081
0.827451 0.196814 0.458601
0.828064 0.203941 0.501225
0.831373 0.208333 0.539231
0.827451 0.212132 0.569742
0.827696 0.220106 0.596829
0.839461 0.239710 0.628068
0.851103 0.262868 0.655147
0.054902 0.070588 0.031373
0.054902 0.070588 0.031373
0.054902 0.070588 0.031373
0.054902 0.070588 0.031373
0.062255 0.070588 0.031373
0.073323 0.070588 0.031373
0.092157 0.070588 0.034605
0.114461 0.070588 0.038358
0.149265 0.074449 0.042157
0.184069 0.074510 0.047059
0.225490 0.071737 0.053676
0.270588 0.070588 0.061397
0.319210 0.070588 0.069118
0.370979 0.070588 0.076838
0.425597 0.070588 0.086765
0.483578 0.066667 0.104404
0.543382 0.070588 0.127451
0.601103 0.072426 0.150728
0.647442 0.076225 0.175628
0.690319 0.087868 0.204879
0.719608 0.097212 0.237255
0.741299 0.116422 0.268222
0.760539 0.135784 0.304167
0.782598 0.151471 0.339024
0.801961 0.166667 0.376532
0.813480 0.182108 0.412377
0.824464 0.196814 0.454703
0.828064 0.203922 0.501103
0.831373 0.208333 0.535539
0.831005 0.212132 0.565832
0.827696 0.219868 0.592907
0.835424 0.235547 0.620221
0.847304 0.255147 0.643627
0.054902 0.074510 0.031373
0.054902 0.074154 0.031373
0.054902 0.074142 0.031373
0.054902 0.074142 0.031373
0.062255 0.074464 0.031373
0.070286 0.074510 0.031373
0.085172 0.074510 0.031373
0.106740 0.074510 0.035294
0.137898 0.074510 0.039216
0.175348 0.074510 0.045956
0.217770 0.074257 0.051233
0.262868 0.070588 0.057843
0.311642 0.070588 0.065564
0.365686 0.070588 0.076838
0.421729 0.070588 0.086765
0.479779 0.068505 0.102401
0.539583 0.068811 0.125674
0.597377 0.072426 0.150613
0.645588 0.076225 0.173935
0.686546 0.085539 0.202451
0.719608 0.097059 0.233333
0.741299 0.113848 0.268137
0.760539 0.133088 0.300498
0.780044 0.151225 0.337848
0.798315 0.166667 0.373529
0.812703 0.179331 0.412132
0.824265 0.196814 0.450804
0.828064 0.200923 0.493627
0.831373 0.207843 0.531373
0.831338 0.212132 0.558701
0.827451 0.216299 0.585417
0.831495 0.228064 0.608578
0.839583 0.243873 0.631740
0.054902 0.085294 0.035294
0.054902 0.081863 0.034804
0.058578 0.081863 0.031373
0.062255 0.081863 0.031373
0.069608 0.081863 0.031373
0.077328 0.081863 0.034268
0.092157 0.081863 0.035202
0.110662 0.081480 0.035294
0.139828 0.077941 0.038235
0.178309 0.077941 0.042172
0.217402 0.074510 0.047396
0.262500 0.074510 0.054044
0.308824 0.071875 0.061765
0.363925 0.070588 0.071523
0.423284 0.070588 0.083058
0.482843 0.068505 0.100368
0.540931 0.070588 0.120098
0.597181 0.072426 0.143260
0.645588 0.078431 0.170067
0.686397 0.087868 0.198820
0.718137 0.099203 0.229902
0.741299 0.116100 0.264384
0.760539 0.133088 0.299173
0.780132 0.151225 0.334926
0.798407 0.166667 0.372549
0.812623 0.178294 0.408318
0.824265 0.196814 0.447947
0.828064 0.201026 0.493260
0.831373 0.207843 0.527512
0.831373 0.212132 0.558333
0.827451 0.215931 0.581618
0.831495 0.224372 0.604779
0.839216 0.243137 0.627941
0.054902 0.096814 0.039216
0.054902 0.096814 0.038622
0.058578 0.093505 0.034720
0.066299 0.092892 0.034681
0.074020 0.092892 0.035218
0.084532 0.092892 0.035294
0.099257 0.092892 0.037983
0.117904 0.090307 0.039082
0.144485 0.089124 0.039216
0.178799 0.085221 0.042965
0.217402 0.081740 0.043559
0.262500 0.077819 0.049843
0.310892 0.074127 0.057353
0.361761 0.070588 0.065437
0.421569 0.070588 0.075613
0.481576 0.068505 0.093424
0.541176 0.070588 0.115993
0.595343 0.074510 0.137377
0.643382 0.080147 0.164070
0.686397 0.087868 0.191299
0.718137 0.099510 0.225720
0.740162 0.116422 0.260505
0.759505 0.135784 0.295290
0.779779 0.151225 0.331618
0.798039 0.166667 0.368781
0.809559 0.178186 0.404423
0.824265 0.193390 0.446814
0.828064 0.200613 0.492647
0.831373 0.207843 0.527451
0.831373 0.212132 0.557966
0.827451 0.215931 0.581127
0.831495 0.227102 0.604289
0.839216 0.243137 0.627451
0.051716 0.118627 0.043137
0.054802 0.115541 0.042425
0.055591 0.115441 0.038526
0.063113 0.111520 0.035294
0.073621 0.111520 0.035294
0.087852 0.111520 0.035294
0.103676 0.111520 0.035892
0.126103 0.107759 0.039216
0.155576 0.105208 0.043137
0.186803 0.099962 0.046324
0.221584 0.093643 0.046324
0.266169 0.086152 0.045964
0.314737 0.079167 0.050245
0.364882 0.072181 0.057966
0.419041 0.068474 0.064706
0.476225 0.067011 0.082230
0.539951 0.068995 0.107353
0.595343 0.074510 0.133433
0.641667 0.080147 0.156618
0.684505 0.089162 0.187201
0.715686 0.100980 0.218382
0.739951 0.116422 0.254282
0.759314 0.135784 0.291406
0.779779 0.151225 0.327819
0.798039 0.166667 0.365686
0.809559 0.178186 0.401800
0.823529 0.192892 0.443030
0.828064 0.200613 0.489338
0.831373 0.207843 0.524663
0.831373 0.212132 0.557966
0.830438 0.215931 0.581127
0.831495 0.227696 0.604289
0.839216 0.243137 0.627451
0.047917 0.145588 0.047059
0.047917 0.141789 0.043260
0.051785 0.141667 0.039461
0.055679 0.137745 0.035662
0.067034 0.137745 0.035294
0.081985 0.137745 0.035294
0.104534 0.133984 0.035294
0.129902 0.133824 0.038545
0.160784 0.130116 0.042371
0.197549 0.123162 0.046197
0.233188 0.115441 0.050980
0.272844 0.104657 0.051176
0.316345 0.093336 0.046523
0.369240 0.082230 0.048652
0.423284 0.071446 0.054419
0.478309 0.066667 0.066789
0.534191 0.065564 0.088848
0.594118 0.072882 0.122794
0.643390 0.080147 0.151103
0.682475 0.091280 0.177960
0.715686 0.102895 0.210983
0.739951 0.117770 0.246814
0.759314 0.136742 0.285417
0.779779 0.154906 0.324020
0.798039 0.165901 0.362408
0.808889 0.178186 0.397974
0.820343 0.192892 0.439131
0.828064 0.203922 0.486275
0.831373 0.207843 0.523529
0.831373 0.212132 0.554412
0.831373 0.215931 0.581127
0.831495 0.227696 0.604289
0.843137 0.243137 0.627451
0.040196 0.179412 0.050980
0.044087 0.176563 0.047151
0.044118 0.175490 0.043321
0.047947 0.171661 0.038603
0.058824 0.171569 0.035294
0.071324 0.171569 0.032353
0.096262 0.169179 0.034743
0.126961 0.167647 0.035294
0.160049 0.163971 0.038480
0.198407 0.160080 0.042310
0.243627 0.150184 0.050735
0.289338 0.135692 0.056832
0.331495 0.120588 0.055392
0.376716 0.105729 0.051195
0.427206 0.088480 0.044853
0.482812 0.072825 0.049265
0.534804 0.064216 0.063725
0.586397 0.067923 0.096844
0.640012 0.080576 0.137868
0.682475 0.091789 0.170466
0.715686 0.104534 0.201103
0.737377 0.120343 0.239093
0.759314 0.139032 0.277696
0.779779 0.155147 0.320221
0.797304 0.165686 0.357843
0.808701 0.177543 0.393505
0.820343 0.192892 0.436029
0.828064 0.203922 0.482475
0.831373 0.207843 0.520098
0.831373 0.212132 0.554136
0.831373 0.215931 0.581127
0.831618 0.227696 0.604289
0.843137 0.247059 0.628431
0.032475 0.214093 0.054902
0.036275 0.214093 0.051068
0.036397 0.210417 0.047235
0.039951 0.210172 0.042138
0.044715 0.210172 0.034681
0.058261 0.206250 0.028994
0.081618 0.206250 0.028554
0.112500 0.206250 0.031373
0.153064 0.202328 0.032200
0.191667 0.196381 0.036087
0.236887 0.193727 0.039974
0.297327 0.178542 0.053309
0.352206 0.156449 0.060585
0.399387 0.139951 0.059314
0.442402 0.121821 0.052826
0.489828 0.099142 0.044458
0.539216 0.076225 0.041973
0.586914 0.064759 0.063262
0.631005 0.071201 0.107238
0.679128 0.091709 0.155396
0.713526 0.106664 0.191299
0.737377 0.123162 0.228554
0.756618 0.140587 0.269975
0.778987 0.157173 0.309681
0.797059 0.165686 0.351103
0.806499 0.174265 0.386642
0.820343 0.189706 0.429044
0.828064 0.203922 0.478676
0.831373 0.207843 0.517142
0.831373 0.212132 0.550490
0.831373 0.216176 0.577451
0.835417 0.230549 0.604289
0.845956 0.247059 0.631373
0.031373 0.259314 0.061520
0.031373 0.256702 0.057721
0.032521 0.255392 0.053922
0.032598 0.252949 0.047312
0.032598 0.251471 0.038634
0.039828 0.251471 0.030760
0.056373 0.251471 0.023529
0.088994 0.251471 0.024755
0.137745 0.247549 0.026777
0.181250 0.242747 0.028332
0.229167 0.237010 0.034452
0.282790 0.231480 0.036903
0.354841 0.214216 0.052635
0.420596 0.186757 0.067172
0.471078 0.165242 0.066621
0.514055 0.143260 0.060907
0.557108 0.116789 0.052451
0.593712 0.086282 0.049563
0.624602 0.072932 0.066850
0.661167 0.077597 0.117639
0.705239 0.102298 0.171906
0.735608 0.125191 0.220657
0.756618 0.143627 0.258716
0.778676 0.158724 0.298920
0.795037 0.169301 0.339767
0.805637 0.174265 0.378922
0.817157 0.189706 0.421324
0.828064 0.203922 0.471377
0.831373 0.207843 0.512255
0.831373 0.212132 0.546569
0.831373 0.219853 0.574755
0.835539 0.231618 0.604289
0.847059 0.249755 0.631373
0.031373 0.305637 0.075735
0.031373 0.305637 0.071936
0.031373 0.304373 0.067892
0.031373 0.301957 0.057843
0.031373 0.301716 0.050123
0.031373 0.301716 0.038883
0.036160 0.301716 0.025743
0.056863 0.300663 0.019608
0.105760 0.300368 0.020956
0.163258 0.293627 0.020956
0.214147 0.289828 0.024877
0.271691 0.282108 0.031836
0.337975 0.275659 0.034406
0.418620 0.255392 0.054894
0.494294 0.225513 0.074831
0.546362 0.200000 0.081024
0.588051 0.178738 0.075674
0.621569 0.149142 0.069834
0.644930 0.114392 0.066598
0.655442 0.083743 0.077608
0.680178 0.087653 0.122197
0.721894 0.117429 0.191843
0.754848 0.147549 0.245849
0.776827 0.162611 0.286642
0.794118 0.169608 0.328156
0.804779 0.173702 0.368333
0.814583 0.185784 0.411029
0.828064 0.201750 0.463848
0.831373 0.207843 0.505760
0.831373 0.212132 0.542647
0.831533 0.219853 0.573529
0.839338 0.234233 0.604289
0.850980 0.250980 0.631373
0.031373 0.358333 0.093627
0.031373 0.358410 0.089752
0.031373 0.358333 0.085876
0.031373 0.357001 0.078309
0.031373 0.356863 0.068137
0.031373 0.356863 0.058946
0.031373 0.358058 0.040931
0.035907 0.358333 0.026225
0.065319 0.356863 0.019608
0.127252 0.354044 0.019608
0.191146 0.348775 0.019608
0.254059 0.339445 0.023652
0.323039 0.331801 0.033456
0.396599 0.326210 0.034988
0.484957 0.307261 0.059222
0.565058 0.276762 0.087362
0.625490 0.246078 0.101471
0.662745 0.224847 0.103232
0.686703 0.199203 0.100735
0.693536 0.161152 0.096063
0.683578 0.114583 0.100245
0.695619 0.104703 0.140380
0.737806 0.135570 0.211550
0.775858 0.166498 0.269439
0.793505 0.175000 0.308333
0.802328 0.176471 0.353186
0.812776 0.183333 0.399510
0.828064 0.200613 0.453447
0.831679 0.208333 0.498039
0.833594 0.212132 0.536275
0.831618 0.220098 0.569700
0.841835 0.238036 0.604335
0.854902 0.254902 0.631373
0.031373 0.418627 0.112868
0.031373 0.418627 0.110612
0.031373 0.418627 0.107453
0.031373 0.415074 0.101471
0.031373 0.416743 0.092356
0.031373 0.418379 0.084436
0.029481 0.418627 0.071500
0.029044 0.418627 0.053431
0.036520 0.420374 0.030331
0.079822 0.420956 0.022591
0.151471 0.414338 0.019608
0.227688 0.406618 0.019608
0.300475 0.398897 0.023652
0.378466 0.388848 0.035731
0.459720 0.385463 0.035976
0.550502 0.368773 0.066923
0.638051 0.339277 0.107475
0.701559 0.306763 0.134168
0.734758 0.286236 0.142073
0.750578 0.260137 0.142735
0.742907 0.219516 0.140319
0.721561 0.162860 0.139576
0.714974 0.124295 0.161543
0.754167 0.149142 0.227248
0.789614 0.178799 0.288113
0.798529 0.178799 0.328431
0.808877 0.181426 0.378554
0.824755 0.198648 0.436271
0.831863 0.208333 0.484559
0.834926 0.212132 0.528703
0.835539 0.220244 0.563603
0.845711 0.241839 0.600490
0.857230 0.258824 0.631373
0.027451 0.480392 0.138235
0.027451 0.480392 0.136098
0.027451 0.480392 0.134314
0.027451 0.480392 0.130392
0.027451 0.480392 0.123039
0.027451 0.480392 0.115319
0.027451 0.482184 0.103676
0.027451 0.483938 0.091176
0.030392 0.484314 0.069792
0.048415 0.485899 0.048047
0.103094 0.486520 0.032062
0.184291 0.482230 0.024020
0.272855 0.470588 0.024357
0.354044 0.459643 0.030798
0.442417 0.452191 0.042448
0.528048 0.450314 0.043091
0.620833 0.438235 0.084191
0.711435 0.411765 0.137171
0.771032 0.382598 0.169317
0.802650 0.354006 0.189292
0.809161 0.328676 0.195833
0.793896 0.287423 0.192180
0.760493 0.214905 0.179213
0.737125 0.138228 0.176463
0.766973 0.159130 0.231434
0.794730 0.184321 0.298284
0.804979 0.182920 0.347472
0.818972 0.193650 0.413358
0.831863 0.208333 0.467402
0.835294 0.214338 0.515280
0.841667 0.226225 0.558195
0.853309 0.245711 0.598353
0.864951 0.264951 0.631373
0.033456 0.546078 0.171201
0.033456 0.546078 0.169118
0.033456 0.546078 0.167279
0.033456 0.544240 0.163530
0.033456 0.544240 0.156005
0.033456 0.544240 0.152206
0.033456 0.546078 0.142647
0.033456 0.548162 0.134926
0.035539 0.550000 0.120343
0.049020 0.552083 0.096324
0.076057 0.555354 0.070504
0.135604 0.554799 0.051697
0.227206 0.550567 0.043107
0.327474 0.536998 0.037477
0.417210 0.527627 0.043735
0.511891 0.521687 0.057246
0.600797 0.519792 0.061826
0.691425 0.513473 0.108464
0.774916 0.491720 0.167685
0.834524 0.462109 0.211140
0.863741 0.432598 0.240656
0.865667 0.402083 0.249877
0.845466 0.356939 0.243750
0.800218 0.266491 0.215196
0.763051 0.173928 0.192494
0.775946 0.169995 0.237554
0.799043 0.189583 0.307108
0.814828 0.189135 0.377041
0.830040 0.204902 0.442417
0.839411 0.218137 0.500368
0.847664 0.233946 0.552328
0.861152 0.253431 0.596691
0.872672 0.272672 0.631373
0.052941 0.617647 0.215686
0.052941 0.617647 0.215686
0.052941 0.617647 0.212010
0.051164 0.617647 0.208211
0.050980 0.617647 0.204412
0.052941 0.617647 0.200306
0.056127 0.619240 0.192892
0.061887 0.621140 0.183640
0.067647 0.621569 0.174020
0.077328 0.625490 0.159620
0.091054 0.628186 0.131740
0.121998 0.629412 0.104718
0.186520 0.631373 0.084069
0.291789 0.625123 0.069853
0.398162 0.608456 0.060784
0.489706 0.601838 0.068995
0.588235 0.598039 0.086275
0.673284 0.598039 0.095711
0.752206 0.592402 0.142279
0.834743 0.575613 0.205270
0.890441 0.551716 0.254412
0.915748 0.522059 0.285723
0.917770 0.484804 0.296078
0.893627 0.430392 0.286336
0.844608 0.336765 0.250000
0.792218 0.231311 0.214400
0.780637 0.185417 0.236765
0.805760 0.195037 0.326042
0.828676 0.209069 0.404657
0.847794 0.228186 0.477635
0.861152 0.245711 0.541054
0.874755 0.266912 0.594730
0.886275 0.286275 0.631373
0.097304 0.691054 0.273529
0.095221 0.691054 0.273529
0.095221 0.691054 0.269738
0.095221 0.691054 0.265882
0.097044 0.691054 0.262025
0.099142 0.691054 0.258169
0.102719 0.691054 0.250735
0.105147 0.692682 0.243015
0.112010 0.694516 0.235294
0.118409 0.696473 0.224755
0.128883 0.698897 0.205798
0.147691 0.700264 0.176716
0.187531 0.704121 0.147135
0.264618 0.706740 0.119508
0.377627 0.697358 0.101540
0.481124 0.681874 0.092536
0.572672 0.677206 0.109559
0.664465 0.673399 0.134452
0.737117 0.673422 0.145542
0.808433 0.669753 0.191153
0.882751 0.658333 0.250812
0.929676 0.638745 0.292299
0.952007 0.610256 0.318015
0.950762 0.569144 0.320221
0.932353 0.511397 0.309191
0.884681 0.412623 0.279902
0.822028 0.289377 0.235187
0.794684 0.215066 0.250934
0.820175 0.216667 0.345496
0.852623 0.242329 0.439878
0.878546 0.263105 0.520213
0.891977 0.282353 0.585352
0.903554 0.301716 0.627451
0.150980 0.754902 0.337010
0.150980 0.754902 0.333157
0.150980 0.754902 0.331480
0.150980 0.754902 0.329167
0.152911 0.754902 0.325521
0.153186 0.754902 0.321668
0.156373 0.754902 0.316008
0.158448 0.756242 0.310417
0.163971 0.758824 0.302696
0.168252 0.758824 0.291054
0.178186 0.762745 0.279121
0.191153 0.763871 0.256495
0.216483 0.765839 0.224755
0.266307 0.770588 0.192157
0.359819 0.774234 0.163480
0.475651 0.759926 0.141981
0.571446 0.747917 0.139951
0.654710 0.744853 0.167157
0.734115 0.741896 0.193214
0.797955 0.740931 0.211634
0.858762 0.739461 0.253370
0.917256 0.728776 0.296178
0.950980 0.715487 0.323039
0.960784 0.690679 0.331127
0.960233 0.650184 0.327206
0.950138 0.587753 0.320221
0.917402 0.487331 0.299173
0.845550 0.338151 0.252979
0.815656 0.265931 0.258793
0.851471 0.262102 0.377068
0.892616 0.287990 0.477206
0.911275 0.303431 0.562799
0.922794 0.318873 0.617892
0.214338 0.816667 0.406495
0.214338 0.816667 0.402574
0.214338 0.816667 0.398797
0.214338 0.816667 0.398652
0.216376 0.816667 0.394730
0.218011 0.816667 0.390809
0.218260 0.816667 0.386887
0.221833 0.816667 0.379902
0.223928 0.820588 0.373775
0.231250 0.820588 0.362787
0.238971 0.824012 0.353316
0.248219 0.826038 0.338668
0.265564 0.828431 0.313603
0.297741 0.829814 0.279446
0.363488 0.836887 0.243995
0.467781 0.836876 0.214350
0.579228 0.819853 0.194730
0.658199 0.814338 0.205247
0.726264 0.813320 0.231411
0.798143 0.807441 0.259505
0.857353 0.804902 0.283977
0.902459 0.804102 0.314526
0.940564 0.797426 0.341789
0.957518 0.785620 0.353144
0.958211 0.764614 0.344975
0.957947 0.728045 0.335662
0.958019 0.667509 0.327941
0.937155 0.549881 0.313496
0.880346 0.410846 0.276379
0.863442 0.351540 0.287098
0.893160 0.322097 0.398752
0.932893 0.335957 0.514143
0.949877 0.347549 0.593627
0.283824 0.876961 0.472059
0.285294 0.876961 0.468260
0.285294 0.876961 0.468137
0.285294 0.876961 0.464445
0.285294 0.876961 0.460784
0.287745 0.876961 0.460294
0.287745 0.876961 0.456373
0.288894 0.876961 0.452451
0.291667 0.876961 0.445588
0.297350 0.878018 0.437868
0.302206 0.880882 0.426685
0.311535 0.882491 0.415089
0.322549 0.884804 0.396507
0.344225 0.884804 0.367647
0.386979 0.890104 0.331464
0.470542 0.898652 0.298039
0.582353 0.889706 0.268382
0.671768 0.877742 0.261443
0.729105 0.876961 0.277543
0.793260 0.873514 0.302926
0.856434 0.867586 0.329963
0.903937 0.865196 0.353539
0.935325 0.864430 0.374510
0.958379 0.859191 0.387745
0.961275 0.846569 0.383333
0.954090 0.827282 0.369807
0.951930 0.793382 0.353431
0.957690 0.735830 0.336903
0.952145 0.629473 0.322794
0.911826 0.478278 0.301057
0.900613 0.424694 0.308395
0.923238 0.363082 0.415809
0.956863 0.358333 0.562745
0.348039 0.921814 0.532353
0.348039 0.921814 0.527206
0.348039 0.921814 0.527083
0.348039 0.921814 0.524510
0.348039 0.921814 0.523162
0.348039 0.921814 0.519451
0.350613 0.921814 0.517149
0.351666 0.924387 0.513308
0.353891 0.924387 0.509467
0.357353 0.925735 0.502083
0.361152 0.925735 0.494363
0.368873 0.929193 0.481032
0.376593 0.929657 0.468627
0.390564 0.933031 0.446756
0.417011 0.935026 0.414216
0.478592 0.942157 0.376980
0.579718 0.945343 0.345466
0.677838 0.931250 0.324104
0.741644 0.925146 0.326003
0.790816 0.924935 0.343325
0.849632 0.924265 0.368980
0.905243 0.918777 0.391176
0.941353 0.916123 0.409995
0.965062 0.914939 0.423529
0.975582 0.910417 0.429289
0.970956 0.899265 0.418137
0.958824 0.880515 0.400123
0.952941 0.846867 0.379010
0.953094 0.799341 0.357138
0.957135 0.706166 0.334923
0.939668 0.550659 0.317364
0.930963 0.490977 0.327443
0.947672 0.426716 0.414706
0.399510 0.959069 0.583824
0.399510 0.959069 0.579902
0.399510 0.959069 0.576225
0.399510 0.959069 0.575980
0.399510 0.959069 0.572396
0.399510 0.959069 0.572059
0.403202 0.961765 0.568643
0.403431 0.961765 0.565074
0.403431 0.961765 0.564216
0.407353 0.961765 0.557475
0.410049 0.964461 0.550980
0.416544 0.965686 0.540265
0.424265 0.968137 0.525245
0.434314 0.969608 0.509804
0.450735 0.969608 0.486719
0.487623 0.975613 0.451593
0.572059 0.982721 0.414338
0.675084 0.978922 0.385945
0.748575 0.965885 0.373928
0.799020 0.961765 0.381365
0.843444 0.963909 0.397549
0.900597 0.960838 0.419485
0.943382 0.955147 0.441422
0.972059 0.955147 0.453822
0.988542 0.955147 0.462806
0.990686 0.950368 0.460172
0.983333 0.939445 0.449755
0.972304 0.921883 0.434191
0.961458 0.896722 0.412255
0.955162 0.858410 0.388473
0.952941 0.780576 0.354013
0.958004 0.638955 0.327581
0.956618 0.592892 0.334804
0.435784 0.986520 0.620098
0.438603 0.986520 0.616299
0.438603 0.986520 0.616176
0.438603 0.986520 0.612519
0.438603 0.986520 0.612255
0.438603 0.986520 0.611324
0.439706 0.987416 0.608333
0.441908 0.987623 0.605270
0.442525 0.987623 0.604412
0.443317 0.989648 0.600490
0.447204 0.990441 0.593873
0.450368 0.991544 0.586152
0.456740 0.994363 0.573162
0.464461 0.994363 0.557721
0.477688 0.997181 0.539591
0.497549 0.997181 0.508088
0.556066 1.000000 0.471875
0.652355 1.000000 0.438480
0.739338 0.995948 0.417287
0.799958 0.989951 0.412745
0.843704 0.988680 0.421936
0.890307 0.989472 0.440196
0.940418 0.987278 0.458801
0.974272 0.983701 0.477026
0.992157 0.983701 0.485815
0.992157 0.981981 0.492888
0.992157 0.976754 0.488848
0.991716 0.972426 0.477868
0.986520 0.958578 0.464461
0.979148 0.939790 0.445937
0.964882 0.907384 0.419501
0.955201 0.841330 0.381740
0.960784 0.729657 0.339951
0.455882 0.997059 0.645098
0.455882 1.000000 0.641176
0.455882 1.000000 0.638419
0.456771 1.000000 0.637255
0.456863 1.000000 0.637255
0.456863 1.000000 0.633333
0.459252 1.000000 0.630944
0.459804 1.000000 0.629626
0.459804 1.000000 0.627206
0.462898 1.000000 0.625490
0.463725 1.000000 0.621569
0.466636 1.000000 0.614063
0.471569 1.000000 0.604412
0.477819 1.000000 0.590839
0.489032 1.000000 0.572794
0.502206 1.000000 0.546170
0.537255 1.000000 0.515686
0.612255 1.000000 0.481464
0.709252 1.000000 0.451961
0.782353 1.000000 0.436244
0.834314 1.000000 0.437745
0.877359 1.000000 0.449755
0.923039 1.000000 0.465196
0.963511 0.999173 0.483854
0.990686 0.996814 0.499265
0.992157 0.997059 0.507721
0.992157 0.997059 0.511765
0.992157 0.993964 0.507230
0.992157 0.992770 0.499142
0.992157 0.985631 0.488480
0.991973 0.971752 0.473897
0.982047 0.947304 0.452298
0.963725 0.885294 0.408824
0.463603 1.000000 0.659681
0.462772 1.000000 0.652792
0.462745 1.000000 0.652696
0.463603 1.000000 0.649062
0.463603 1.000000 0.648775
0.463603 1.000000 0.647917
0.463603 1.000000 0.645427
0.465996 1.000000 0.644183
0.467310 1.000000 0.641697
0.467525 1.000000 0.640074
0.469631 1.000000 0.634314
0.471151 1.000000 0.630515
0.475046 1.000000 0.622794
0.480760 1.000000 0.611500
0.488480 1.000000 0.595956
0.501750 1.000000 0.571167
0.524632 1.000000 0.540257
0.572917 1.000000 0.511642
0.660777 1.000000 0.485417
0.752819 1.000000 0.461397
0.814415 1.000000 0.449632
0.861275 1.000000 0.457403
0.907598 1.000000 0.469707
0.948035 1.000000 0.481495
0.977788 1.000000 0.496078
0.992157 1.000000 0.510662
0.992157 1.000000 0.518666
0.992157 1.000000 0.519363
0.992157 1.000000 0.514951
0.992157 0.996936 0.507230
0.992157 0.995887 0.498706
0.992157 0.989733 0.491720
0.989093 0.972059 0.474877
0.471324 1.000000 0.672059
0.468237 1.000000 0.667425
0.467448 1.000000 0.664216
0.467402 1.000000 0.663480
0.468137 1.000000 0.660692
0.470826 1.000000 0.659674
0.471324 1.000000 0.656970
0.471324 1.000000 0.656373
0.471324 1.000000 0.653431
0.473614 1.000000 0.651922
0.475245 1.000000 0.648529
0.477819 1.000000 0.644608
0.479167 1.000000 0.638235
0.483088 1.000000 0.630515
0.489216 1.000000 0.617080
0.500123 1.000000 0.597840
0.519608 1.000000 0.569608
0.556127 1.000000 0.539338
0.620021 1.000000 0.522549
0.707966 1.000000 0.501769
0.787500 1.000000 0.481373
0.843742 1.000000 0.476095
0.889966 1.000000 0.482598
0.934191 1.000000 0.491008
0.966912 1.000000 0.500490
0.988519 1.000000 0.511397
