VINTAGE_GREEN_LUT.cube
#Generated with IWLTBAP LUT Generator 2.1
#Website: https://luts.iwltbap.com
TITLE "VINTAGE GREEN LUT"
LUT_3D_SIZE 9
0.054902 0.070588 0.031373
0.065686 0.070588 0.031373
0.168627 0.074510 0.046078
0.328431 0.070588 0.073039
0.547059 0.070588 0.129412
0.722059 0.100980 0.241176
0.801961 0.170588 0.381373
0.831373 0.211765 0.550980
0.870588 0.290196 0.690196
0.054902 0.085294 0.035294
0.069608 0.081863 0.031373
0.139828 0.077941 0.038235
0.308824 0.071875 0.061765
0.540931 0.070588 0.120098
0.718137 0.099203 0.229902
0.798407 0.166667 0.372549
0.831373 0.207843 0.527512
0.839216 0.243137 0.627941
0.040196 0.179412 0.050980
0.058824 0.171569 0.035294
0.160049 0.163971 0.038480
0.331495 0.120588 0.055392
0.534804 0.064216 0.063725
0.715686 0.104534 0.201103
0.797304 0.165686 0.357843
0.831373 0.207843 0.520098
0.843137 0.247059 0.628431
0.031373 0.358333 0.093627
0.031373 0.356863 0.068137
0.065319 0.356863 0.019608
0.323039 0.331801 0.033456
0.625490 0.246078 0.101471
0.683578 0.114583 0.100245
0.793505 0.175000 0.308333
0.831679 0.208333 0.498039
0.854902 0.254902 0.631373
0.052941 0.617647 0.215686
0.050980 0.617647 0.204412
0.067647 0.621569 0.174020
0.186520 0.631373 0.084069
0.588235 0.598039 0.086275
0.890441 0.551716 0.254412
0.844608 0.336765 0.250000
0.828676 0.209069 0.404657
0.886275 0.286275 0.631373
0.283824 0.876961 0.472059
0.285294 0.876961 0.460784
0.291667 0.876961 0.445588
0.322549 0.884804 0.396507
0.582353 0.889706 0.268382
0.856434 0.867586 0.329963
0.961275 0.846569 0.383333
0.952145 0.629473 0.322794
0.956863 0.358333 0.562745
0.455882 0.997059 0.645098
0.456863 1.000000 0.637255
0.459804 1.000000 0.627206
0.471569 1.000000 0.604412
0.537255 1.000000 0.515686
0.834314 1.000000 0.437745
0.990686 0.996814 0.499265
0.992157 0.992770 0.499142
0.963725 0.885294 0.408824
0.495098 1.000000 0.699020
0.487255 1.000000 0.687255
0.491176 1.000000 0.683333
0.497243 1.000000 0.669424
0.542892 1.000000 0.639706
0.761091 1.000000 0.626961
0.951961 1.000000 0.600000
0.992157 1.000000 0.623039
0.992157 1.000000 0.528922
0.709804 1.000000 0.807843
0.678431 1.000000 0.788235
0.678431 1.000000 0.784314
0.690196 1.000000 0.784314
0.735294 1.000000 0.790196
0.817647 1.000000 0.801471
0.936275 1.000000 0.803922
0.992647 1.000000 0.807353
0.996078 1.000000 0.823529
0.054902 0.070588 0.038725
0.066115 0.070588 0.039154
0.168627 0.070588 0.065196
0.328248 0.068444 0.092157
0.547059 0.066667 0.146569
0.723529 0.097059 0.256863
0.801961 0.171446 0.393137
0.827451 0.212255 0.558824
0.878431 0.305882 0.709804
0.054902 0.081863 0.042586
0.065686 0.081373 0.039154
0.168030 0.077941 0.045757
0.327512 0.070588 0.069225
0.543137 0.068627 0.125490
0.719424 0.099203 0.233762
0.798039 0.166988 0.377022
0.827451 0.208333 0.538733
0.854412 0.265319 0.657414
0.044118 0.175613 0.080760
0.043995 0.175506 0.050000
0.153248 0.164491 0.039216
0.341850 0.113051 0.055346
0.541728 0.066483 0.078922
0.715686 0.104534 0.207920
0.797947 0.166667 0.362623
0.827451 0.208333 0.532230
0.858333 0.269608 0.657966
0.031373 0.356863 0.119424
0.031373 0.358333 0.091176
0.039828 0.360784 0.030699
0.319118 0.330997 0.033456
0.624112 0.243137 0.103278
0.681610 0.107598 0.104151
0.793459 0.172626 0.317739
0.831373 0.208333 0.513235
0.868627 0.280086 0.665686
0.051225 0.615931 0.227206
0.050980 0.617647 0.215257
0.060539 0.620650 0.183517
0.168290 0.630637 0.087745
0.585294 0.594118 0.085294
0.891667 0.545987 0.256219
0.832108 0.313909 0.240196
0.832813 0.214737 0.434038
0.901471 0.313235 0.679412
0.279902 0.870588 0.482047
0.283824 0.873223 0.471630
0.287745 0.876961 0.456327
0.315885 0.881993 0.406495
0.566268 0.891667 0.273529
0.855515 0.866115 0.329963
0.959559 0.842785 0.382230
0.947059 0.587852 0.319301
0.988419 0.407047 0.653738
0.452941 0.997059 0.649020
0.453263 0.997059 0.641299
0.456863 1.000000 0.633548
0.466682 1.000000 0.612255
0.524571 1.000000 0.523468
0.830392 1.000000 0.435769
0.987745 0.996078 0.498284
0.992157 0.989706 0.496569
0.956373 0.855392 0.387623
0.495588 1.000000 0.702941
0.491176 1.000000 0.694286
0.491176 1.000000 0.687255
0.497549 1.000000 0.675674
0.539216 1.000000 0.645343
0.753431 1.000000 0.630882
0.948208 1.000000 0.602742
0.992157 1.000000 0.623039
0.992157 1.000000 0.528431
0.721569 1.000000 0.815196
0.705453 1.000000 0.800429
0.705392 1.000000 0.800000
0.711949 1.000000 0.799510
0.746814 1.000000 0.801716
0.823529 1.000000 0.811765
0.936275 1.000000 0.803922
0.992157 0.996078 0.807353
0.996078 1.000000 0.823529
0.058824 0.074510 0.102941
0.089216 0.074510 0.099020
0.166176 0.070588 0.114706
0.334191 0.066667 0.148529
0.550980 0.062745 0.184314
0.729289 0.097059 0.283333
0.805882 0.175245 0.408824
0.826961 0.212255 0.563113
0.882353 0.305882 0.713725
0.054534 0.081863 0.080270
0.062255 0.078370 0.102129
0.167279 0.074020 0.112714
0.328431 0.066667 0.117647
0.546936 0.066483 0.161275
0.723162 0.096875 0.259804
0.801961 0.170588 0.391513
0.827451 0.208333 0.547059
0.858333 0.270098 0.666176
0.051225 0.165441 0.121569
0.053799 0.164706 0.114982
0.147917 0.157414 0.109804
0.361152 0.112745 0.106311
0.555392 0.072059 0.128554
0.722059 0.100980 0.235417
0.801961 0.170588 0.384743
0.827451 0.212255 0.558548
0.892402 0.322794 0.730637
0.031373 0.351103 0.163725
0.031373 0.352941 0.140610
0.034130 0.350490 0.094087
0.313894 0.327880 0.059743
0.609314 0.235907 0.120098
0.708165 0.116054 0.159835
0.796599 0.170067 0.341176
0.831373 0.212255 0.540686
0.900980 0.331373 0.736397
0.050980 0.611765 0.253922
0.049020 0.611765 0.238480
0.050858 0.613358 0.212132
0.128493 0.620772 0.106863
0.575245 0.586765 0.089951
0.888603 0.535478 0.257047
0.820343 0.287990 0.236275
0.840441 0.222365 0.474081
0.926961 0.353922 0.747059
0.275980 0.869118 0.490196
0.277451 0.870588 0.481740
0.281556 0.871048 0.467402
0.303309 0.877191 0.416345
0.540686 0.892157 0.279657
0.850061 0.863251 0.326042
0.962929 0.839093 0.382230
0.936688 0.553554 0.315012
0.995098 0.425490 0.716544
0.452941 0.997059 0.653922
0.452941 0.997059 0.648376
0.455882 0.997059 0.640625
0.464338 1.000000 0.619853
0.516422 1.000000 0.532353
0.825858 1.000000 0.438358
0.987745 0.996078 0.498284
0.992157 0.989706 0.496569
0.955882 0.843137 0.382353
0.495588 1.000000 0.706863
0.491176 1.000000 0.695144
0.491176 1.000000 0.691820
0.497549 1.000000 0.681112
0.539216 1.000000 0.652451
0.749510 1.000000 0.634804
0.945466 1.000000 0.606863
0.992157 1.000000 0.620037
0.992157 1.000000 0.528431
0.721569 1.000000 0.815686
0.702451 1.000000 0.800490
0.712745 1.000000 0.807843
0.717647 1.000000 0.803922
0.749020 1.000000 0.807353
0.820711 1.000000 0.813235
0.935294 1.000000 0.807843
0.992157 0.996078 0.807843
0.996078 1.000000 0.823529
0.065196 0.074510 0.217647
0.097059 0.074510 0.217463
0.184314 0.070588 0.230882
0.329350 0.065748 0.251471
0.556863 0.058824 0.291422
0.737745 0.097978 0.350000
0.812745 0.185294 0.444485
0.823529 0.212255 0.578248
0.882353 0.309804 0.717647
0.051287 0.081863 0.200490
0.059291 0.077941 0.219179
0.159926 0.070588 0.234681
0.328248 0.065556 0.247434
0.554749 0.058824 0.275245
0.732904 0.096944 0.327252
0.811320 0.180882 0.428431
0.823529 0.208762 0.564277
0.857047 0.274020 0.674020
0.043137 0.154044 0.212745
0.041299 0.146615 0.223055
0.119332 0.123315 0.254412
0.350613 0.086275 0.262025
0.562684 0.062132 0.242892
0.730821 0.097059 0.304703
0.811366 0.180882 0.422396
0.826471 0.213097 0.576961
0.897059 0.332353 0.747059
0.031373 0.328431 0.251471
0.031373 0.327627 0.247434
0.043811 0.326961 0.238986
0.313013 0.327305 0.245159
0.620374 0.236091 0.228248
0.734903 0.117770 0.237722
0.803294 0.173070 0.382353
0.831373 0.216667 0.571454
0.929473 0.375613 0.792218
0.052206 0.600735 0.328186
0.049020 0.600735 0.316023
0.049203 0.600919 0.290625
0.096844 0.604381 0.208640
0.564093 0.575858 0.154412
0.875214 0.512010 0.269179
0.811275 0.255821 0.251777
0.845190 0.226869 0.513725
0.948775 0.391176 0.798284
0.264767 0.860294 0.521078
0.264767 0.861826 0.507169
0.266605 0.862745 0.493490
0.279902 0.868543 0.453577
0.460049 0.890196 0.304167
0.838871 0.851900 0.317279
0.972319 0.827742 0.386397
0.919501 0.503010 0.305400
0.996630 0.442157 0.767096
0.452941 0.997059 0.667525
0.452941 0.997059 0.663235
0.455147 0.997059 0.655760
0.462623 1.000000 0.637485
0.503186 1.000000 0.558578
0.810723 1.000000 0.448300
0.987745 0.993873 0.499020
0.992157 0.989170 0.496201
0.954902 0.825980 0.372059
0.495588 1.000000 0.713235
0.490908 1.000000 0.705124
0.491176 1.000000 0.701241
0.497549 1.000000 0.691291
0.534467 1.000000 0.663817
0.742456 1.000000 0.645581
0.944608 1.000000 0.617831
0.992157 1.000000 0.619608
0.992157 1.000000 0.532353
0.721569 1.000000 0.819608
0.702451 1.000000 0.804228
0.709804 1.000000 0.807843
0.725490 1.000000 0.811765
0.752941 1.000000 0.811765
0.820098 1.000000 0.814767
0.932353 1.000000 0.807843
0.992157 0.996078 0.809988
0.996078 1.000000 0.823529
0.072549 0.078431 0.386275
0.102941 0.074510 0.390196
0.185294 0.066667 0.405392
0.332353 0.062745 0.420098
0.541176 0.062745 0.446078
0.728676 0.099755 0.479902
0.810294 0.185294 0.524510
0.815686 0.216176 0.612745
0.882353 0.315686 0.739216
0.057598 0.078431 0.385784
0.070588 0.077972 0.389216
0.161091 0.066667 0.406618
0.320588 0.062745 0.422304
0.539951 0.062745 0.443873
0.727359 0.097702 0.470190
0.810294 0.185294 0.514216
0.817433 0.213971 0.601256
0.858333 0.283824 0.695833
0.039216 0.112745 0.388235
0.039216 0.109375 0.395588
0.075000 0.083211 0.424020
0.307721 0.064767 0.454228
0.553186 0.062745 0.453676
0.729412 0.097978 0.465012
0.812255 0.185294 0.511642
0.819608 0.220098 0.613235
0.900980 0.341667 0.765196
0.035294 0.294118 0.401225
0.035294 0.290196 0.404902
0.035294 0.276409 0.419424
0.251134 0.246630 0.466115
0.601225 0.156985 0.486397
0.743689 0.106342 0.434314
0.813297 0.185294 0.488174
0.823928 0.222702 0.612500
0.938971 0.394363 0.821324
0.056863 0.562745 0.462745
0.053922 0.561765 0.458824
0.060784 0.561029 0.454412
0.099142 0.558824 0.439951
0.544118 0.556863 0.448039
0.885784 0.472672 0.436765
0.828922 0.213725 0.386029
0.843505 0.237745 0.592525
0.985294 0.481373 0.881373
0.256373 0.843873 0.592402
0.254412 0.845098 0.583915
0.255637 0.845098 0.575061
0.260784 0.852482 0.547273
0.367279 0.882230 0.455025
0.816146 0.831985 0.419730
0.996569 0.793260 0.448591
0.900031 0.419975 0.321170
1.000000 0.490931 0.848529
0.450000 0.992157 0.707353
0.450000 0.992157 0.700184
0.452941 0.995221 0.695711
0.458272 0.999449 0.679167
0.481863 1.000000 0.625490
0.766422 1.000000 0.532414
0.981127 0.993873 0.520588
0.992157 0.984375 0.509559
0.963725 0.770588 0.367647
0.495588 1.000000 0.735784
0.491176 1.000000 0.727941
0.491176 1.000000 0.724081
0.497549 1.000000 0.717157
0.533824 1.000000 0.697549
0.725858 1.000000 0.680882
0.937929 1.000000 0.653431
0.992157 1.000000 0.627298
0.992157 1.000000 0.547794
0.719608 1.000000 0.827451
0.700245 1.000000 0.813725
0.708824 1.000000 0.815686
0.722794 1.000000 0.818873
0.759804 1.000000 0.825490
0.820098 1.000000 0.823529
0.928431 1.000000 0.815686
0.992157 0.996078 0.817647
0.996078 1.000000 0.823529
0.104902 0.082353 0.560294
0.145772 0.074694 0.567647
0.206373 0.068137 0.577819
0.337745 0.066667 0.595588
0.518137 0.068137 0.598039
0.690686 0.113297 0.596569
0.786765 0.189216 0.625980
0.794792 0.221385 0.675797
0.875490 0.331863 0.772549
0.088235 0.085784 0.559804
0.103163 0.082085 0.558249
0.171385 0.070910 0.573407
0.316667 0.067953 0.594616
0.510294 0.067310 0.597641
0.689698 0.111213 0.595098
0.787347 0.189216 0.619347
0.794646 0.220098 0.671408
0.845772 0.290686 0.732843
0.039583 0.117157 0.568505
0.041406 0.109298 0.566222
0.106893 0.087377 0.584191
0.288925 0.070588 0.613266
0.519608 0.072059 0.618076
0.692754 0.114216 0.596569
0.788388 0.189216 0.626593
0.797564 0.224020 0.676333
0.906373 0.367770 0.811275
0.043137 0.236275 0.577880
0.043022 0.228431 0.576961
0.044608 0.212025 0.590564
0.153554 0.140970 0.621507
0.503676 0.087990 0.646109
0.707583 0.129756 0.605392
0.789154 0.189354 0.624142
0.799020 0.225797 0.676601
0.952390 0.428431 0.862745
0.078676 0.521324 0.608578
0.075490 0.517555 0.607261
0.076716 0.512561 0.612010
0.077451 0.491146 0.622028
0.469485 0.470956 0.691912
0.852635 0.370129 0.714920
0.801654 0.196752 0.607108
0.811244 0.233150 0.671201
0.990931 0.521814 0.912500
0.250980 0.790686 0.692647
0.250980 0.790686 0.688725
0.250980 0.792754 0.685723
0.252512 0.794838 0.684459
0.329902 0.809559 0.678922
0.766008 0.776494 0.661642
0.997794 0.728493 0.667907
0.883004 0.285792 0.578209
0.997610 0.526042 0.895650
0.446691 0.970098 0.778922
0.444975 0.970098 0.773667
0.446538 0.973744 0.771078
0.449969 0.979703 0.762852
0.463480 0.994301 0.733027
0.710524 1.000000 0.707215
0.958793 0.974020 0.681036
0.992157 0.960784 0.658992
0.976838 0.721936 0.411397
0.495098 1.000000 0.789032
0.491176 1.000000 0.783517
0.492463 1.000000 0.779596
0.499020 1.000000 0.773346
0.539951 1.000000 0.762255
0.717463 1.000000 0.758525
0.926210 1.000000 0.739522
0.992157 0.996078 0.732353
0.992157 0.999510 0.677880
0.712255 1.000000 0.844608
0.698039 1.000000 0.836765
0.705882 1.000000 0.836765
0.721569 1.000000 0.840686
0.760784 1.000000 0.847794
0.823100 1.000000 0.847059
0.924020 1.000000 0.840074
0.990012 0.999510 0.844608
0.996078 1.000000 0.823529
0.120588 0.114706 0.619608
0.155392 0.106985 0.627083
0.200245 0.095343 0.635294
0.308333 0.089093 0.657353
0.477451 0.097059 0.674020
0.628922 0.120588 0.657966
0.765686 0.200980 0.700980
0.776471 0.227941 0.726471
0.787255 0.250000 0.737255
0.109314 0.115564 0.615686
0.120267 0.111979 0.616651
0.169975 0.102880 0.630116
0.283517 0.087255 0.649510
0.470588 0.095527 0.673775
0.625000 0.118750 0.657108
0.765962 0.198039 0.697794
0.775720 0.224020 0.722932
0.783456 0.243137 0.730882
0.076225 0.155882 0.615686
0.076225 0.145496 0.611765
0.117402 0.123284 0.620343
0.245987 0.092279 0.644485
0.463235 0.100980 0.679412
0.631005 0.124510 0.663725
0.767892 0.200980 0.704105
0.777604 0.227941 0.727819
0.829412 0.306127 0.779412
0.083946 0.215809 0.634804
0.083869 0.208333 0.632797
0.087255 0.197549 0.630882
0.112362 0.142969 0.625291
0.417953 0.100980 0.679473
0.664813 0.158333 0.691789
0.767892 0.201961 0.707843
0.779534 0.231863 0.730882
0.898529 0.387623 0.852451
0.140686 0.482353 0.699510
0.137255 0.478431 0.698836
0.141176 0.473775 0.701348
0.145098 0.451225 0.702941
0.389706 0.403676 0.825735
0.740625 0.307843 0.823529
0.773897 0.215686 0.715686
0.780760 0.234069 0.734130
0.981863 0.525980 0.935784
0.259314 0.736887 0.751471
0.258333 0.736275 0.751103
0.258333 0.734804 0.750000
0.255162 0.727558 0.751103
0.279657 0.725306 0.784314
0.716697 0.723621 0.850199
0.990717 0.661305 0.890686
0.803355 0.258946 0.745404
0.985784 0.533824 0.934681
0.439951 0.929902 0.843137
0.439216 0.932108 0.839308
0.439216 0.932353 0.839216
0.443137 0.935018 0.839216
0.447059 0.941667 0.841054
0.674479 0.967831 0.852972
0.923591 0.942463 0.837316
0.996078 0.917892 0.843168
0.997794 0.531618 0.843627
0.502451 0.991667 0.868627
0.499510 0.991667 0.864706
0.499510 0.992034 0.860999
0.502528 0.995711 0.860784
0.527390 1.000000 0.860907
0.717953 1.000000 0.864216
0.902237 1.000000 0.857077
0.992632 0.996078 0.857521
0.995711 0.998652 0.836765
0.685294 1.000000 0.887255
0.677451 1.000000 0.884314
0.689216 1.000000 0.884314
0.711275 1.000000 0.884314
0.759804 1.000000 0.884314
0.827941 1.000000 0.883333
0.914461 1.000000 0.883333
0.984804 1.000000 0.883333
0.995098 1.000000 0.880392
0.102451 0.197549 0.647549
0.098529 0.186213 0.643627
0.110539 0.159926 0.639706
0.213725 0.113725 0.653431
0.430147 0.111765 0.691667
0.633701 0.138725 0.700674
0.748039 0.196691 0.721691
0.769056 0.223100 0.737255
0.780392 0.242647 0.745098
0.101961 0.193137 0.643566
0.101532 0.192647 0.643137
0.100827 0.171829 0.639706
0.198261 0.120918 0.650820
0.420588 0.111520 0.688235
0.629328 0.137439 0.698529
0.747549 0.194118 0.718689
0.768627 0.220098 0.736880
0.776471 0.239216 0.741667
0.106250 0.211765 0.650123
0.105025 0.207843 0.647426
0.106281 0.208241 0.650490
0.126854 0.156679 0.645282
0.393444 0.107843 0.685784
0.637745 0.143796 0.702145
0.750980 0.197917 0.723315
0.769868 0.224020 0.738128
0.781250 0.247059 0.746078
0.119118 0.272059 0.665809
0.116667 0.265809 0.664216
0.123039 0.273223 0.668444
0.120964 0.258586 0.667708
0.349479 0.156955 0.708364
0.634498 0.163228 0.717149
0.761642 0.204856 0.729733
0.772281 0.227022 0.738994
0.802145 0.278309 0.767034
0.178922 0.498775 0.731373
0.178922 0.494822 0.727941
0.182843 0.497059 0.731863
0.184161 0.486121 0.733824
0.318382 0.462745 0.823284
0.719455 0.387102 0.890043
0.777757 0.236458 0.744792
0.773009 0.227941 0.741207
0.937990 0.440931 0.904412
0.278248 0.732169 0.785294
0.276961 0.731863 0.785110
0.276961 0.731863 0.785294
0.276777 0.725314 0.787439
0.290625 0.714369 0.804013
0.673039 0.715862 0.904963
0.964706 0.658165 0.940640
0.803217 0.272358 0.769646
0.946569 0.453922 0.911275
0.414093 0.898529 0.853922
0.413235 0.895098 0.853814
0.414093 0.897672 0.853922
0.418091 0.898529 0.854458
0.436887 0.904596 0.867586
0.620512 0.926026 0.913848
0.903493 0.922426 0.910202
0.988235 0.889170 0.925000
0.886152 0.404412 0.852451
0.510294 0.976532 0.903370
0.510294 0.976961 0.902451
0.510294 0.976961 0.902451
0.510332 0.977428 0.902880
0.524510 0.988756 0.910325
0.687132 1.000000 0.925980
0.894669 0.996569 0.920389
0.984743 0.995650 0.921193
0.995650 0.992586 0.925061
0.646569 1.000000 0.925980
0.638725 1.000000 0.925490
0.654412 1.000000 0.925490
0.680392 1.000000 0.925490
0.738725 1.000000 0.925490
0.812255 1.000000 0.922059
0.920098 1.000000 0.918137
0.980882 1.000000 0.921569
0.996078 1.000000 0.925490
0.125490 0.266667 0.670588
0.121569 0.254902 0.666667
0.117647 0.243137 0.666667
0.107353 0.206863 0.652451
0.335294 0.113725 0.682353
0.623529 0.155882 0.713725
0.752941 0.192157 0.725490
0.764706 0.211765 0.733333
0.776471 0.231373 0.741176
0.117647 0.250490 0.666176
0.117647 0.247059 0.666176
0.117279 0.238848 0.662745
0.105576 0.202451 0.651961
0.336029 0.107598 0.678431
0.619608 0.147733 0.709498
0.750000 0.189216 0.722549
0.764706 0.211765 0.733333
0.772549 0.227451 0.741176
0.124510 0.268627 0.669608
0.121569 0.265196 0.669608
0.143382 0.337010 0.695343
0.140686 0.321078 0.691544
0.305882 0.238725 0.739216
0.604902 0.170956 0.729167
0.764706 0.210049 0.733333
0.765686 0.211765 0.733333
0.776471 0.235294 0.745098
0.151471 0.373039 0.702941
0.150000 0.368934 0.702941
0.170098 0.426838 0.723039
0.180453 0.455944 0.733395
0.274755 0.415931 0.788725
0.686703 0.340135 0.870956
0.772549 0.227451 0.741176
0.768627 0.212255 0.734804
0.780392 0.239216 0.745098
0.205882 0.549020 0.750980
0.201961 0.547059 0.749020
0.213725 0.573529 0.756863
0.220833 0.584804 0.763971
0.251961 0.608824 0.789216
0.672549 0.607598 0.912745
0.952941 0.490686 0.927451
0.768627 0.215686 0.737255
0.784314 0.247059 0.750980
0.294608 0.750000 0.802941
0.292157 0.750000 0.802941
0.298529 0.756373 0.806250
0.298529 0.756373 0.806863
0.303676 0.755637 0.811275
0.633333 0.776900 0.905882
0.929412 0.747426 0.929534
0.933517 0.457230 0.900674
0.788235 0.250980 0.752941
0.403922 0.893137 0.860784
0.400000 0.893137 0.856863
0.403922 0.894118 0.859804
0.404902 0.893137 0.860784
0.431863 0.902941 0.870588
0.610294 0.929412 0.921569
0.890441 0.928431 0.917647
0.988235 0.902574 0.932353
0.944118 0.488235 0.910784
0.510784 0.973039 0.914706
0.510784 0.973039 0.914216
0.510784 0.973039 0.914216
0.514706 0.973529 0.918137
0.528676 0.981618 0.926225
0.677267 1.000000 0.933333
0.883824 0.992647 0.933333
0.984804 0.992647 0.933333
0.996078 0.985294 0.936765
0.627451 1.000000 0.933333
0.619608 1.000000 0.933333
0.639216 1.000000 0.933333
0.667647 1.000000 0.933333
0.727451 1.000000 0.933333
0.804412 1.000000 0.933333
0.909804 1.000000 0.933333
0.980882 1.000000 0.933333
0.996078 1.000000 0.937255
